/* XPM */
static char *_d41022b09a94d32c58438cbd64b4c89WxB7SO8w15OBEnsn[] = {
/* columns rows colors chars-per-pixel */
"128 128 250 2 ",
"   c #5C350C",
".  c #5D3514",
"X  c #512B08",
"o  c #633A14",
"O  c #653C1B",
"+  c #663C15",
"@  c #613B0B",
"#  c #683F21",
"$  c #441B00",
"%  c #6A431C",
"&  c #6E491C",
"*  c #674317",
"=  c #714D1E",
"-  c #74501E",
";  c #6C4423",
":  c #6E4A22",
">  c #654B2A",
",  c #724B24",
"<  c #744C2A",
"1  c #724829",
"2  c #755224",
"3  c #795426",
"4  c #75542B",
"5  c #7A542B",
"6  c #7D5A2C",
"7  c #7F5F24",
"8  c #7C5332",
"9  c #7B5A32",
"0  c #784F31",
"q  c #7B6033",
"w  c #815D2E",
"e  c #825D32",
"r  c #845D3A",
"t  c #856234",
"y  c #85643B",
"u  c #8B653A",
"i  c #8C6B3C",
"p  c #896837",
"a  c #926B3B",
"s  c #99753E",
"d  c #85632B",
"f  c #A26C37",
"g  c #8C6C42",
"h  c #8A6846",
"j  c #946C47",
"k  c #8E7147",
"l  c #947344",
"z  c #9A754B",
"x  c #9C7C4C",
"c  c #967749",
"v  c #9C7D53",
"b  c #987955",
"n  c #A47A4A",
"m  c #A37D53",
"M  c #A87D58",
"N  c #B37A43",
"B  c #9C8256",
"V  c #9E804E",
"C  c #A6844D",
"Z  c #A48354",
"A  c #AA8654",
"S  c #AB8B55",
"D  c #A4845B",
"F  c #AB855A",
"G  c #A4895C",
"H  c #AB8C5C",
"J  c #B28E5D",
"K  c #B58657",
"L  c #B2915C",
"P  c #B9945C",
"I  c #AF915F",
"U  c #AC8C62",
"Y  c #A88B64",
"T  c #B28E63",
"R  c #B28B67",
"E  c #AE9264",
"W  c #AB936A",
"Q  c #B49364",
"!  c #BA9563",
"~  c #BC9B65",
"^  c #B3946A",
"/  c #BA966B",
"(  c #B59A6D",
")  c #BB9B6C",
"_  c #B49864",
"`  c #BC9472",
"'  c #B59B73",
"]  c #BC9C73",
"[  c #BB9C79",
"{  c #B59973",
"}  c #AD9976",
"|  c #BDA16C",
" . c #BFA067",
".. c #BDA274",
"X. c #BDA379",
"o. c #B5A37F",
"O. c #CA9B59",
"+. c #D8A15C",
"@. c #E2A65D",
"#. c #C29D6C",
"$. c #C69C65",
"%. c #C29E73",
"&. c #C59D7A",
"*. c #CDA364",
"=. c #C3A36C",
"-. c #CBA46C",
";. c #CCAB6D",
":. c #C6A566",
">. c #D3A565",
",. c #D3A56C",
"<. c #D3AB6D",
"1. c #DCAC6D",
"2. c #D9A667",
"3. c #D6B16E",
"4. c #C3A474",
"5. c #CBA574",
"6. c #C6A975",
"7. c #CCAA74",
"8. c #C3A47B",
"9. c #C9A57A",
"0. c #C4AA7C",
"q. c #CCAC7C",
"w. c #D4AC74",
"e. c #DAAE74",
"r. c #D3AD7B",
"t. c #D9AE7A",
"y. c #D4A674",
"u. c #CEB17C",
"i. c #CDB074",
"p. c #D4B274",
"a. c #DBB375",
"s. c #D4B37C",
"d. c #DCB47C",
"f. c #DCBA7C",
"g. c #D9BA79",
"h. c #E1AF76",
"j. c #E2B375",
"k. c #E2B57C",
"l. c #E3BB7D",
"z. c #EABC7D",
"x. c #E6B875",
"c. c #F3BD78",
"v. c #E6AF69",
"b. c #DEC17C",
"n. c #E5C27D",
"m. c #EAC47E",
"M. c #F8C27A",
"N. c #BCA785",
"B. c #CDAD82",
"V. c #C5A883",
"C. c #D2AD83",
"Z. c #D5AD88",
"A. c #CDB283",
"S. c #CCB48A",
"D. c #CDB88D",
"F. c #D4B483",
"G. c #DBB583",
"H. c #D6B985",
"J. c #DCBB84",
"K. c #D5B58A",
"L. c #DAB68A",
"P. c #D5BA8B",
"I. c #DCBC8B",
"U. c #CCB392",
"Y. c #D5BC92",
"T. c #DCBD92",
"R. c #D6B994",
"E. c #E2B682",
"W. c #E3BC83",
"Q. c #EABD84",
"!. c #E2BE8B",
"~. c #E9BE8A",
"^. c #E3B589",
"/. c #E2BE93",
"(. c #E2BE99",
"). c #EABD91",
"_. c #F0BF85",
"`. c #DEC184",
"'. c #DEC18D",
"]. c #D7C08E",
"[. c #DEC293",
"{. c #DDC499",
"}. c #DCC798",
"|. c #E4C284",
" X c #EBC385",
".X c #E7C885",
"XX c #EBC984",
"oX c #E4C38C",
"OX c #EBC48C",
"+X c #E6C98D",
"@X c #EBC98D",
"#X c #F1C485",
"$X c #F1C58B",
"%X c #F2CB8D",
"&X c #F6CD89",
"*X c #F4D08D",
"=X c #E4C493",
"-X c #EAC693",
";X c #E6C994",
":X c #EBCB94",
">X c #E5C59A",
",X c #EAC69A",
"<X c #E5CA9B",
"1X c #ECCC9B",
"2X c #F1C693",
"3X c #F2CC94",
"4X c #F2CD9B",
"5X c #F9CE9B",
"6X c #F4C79A",
"7X c #EED196",
"8X c #E7D09C",
"9X c #EED19C",
"0X c #F2D195",
"qX c #FAD396",
"wX c #F3D29C",
"eX c #FBD49C",
"rX c #FCD99D",
"tX c #F7DA9C",
"yX c #EFD08D",
"uX c #EBC6A2",
"iX c #E6CCA2",
"pX c #ECCDA2",
"aX c #E6CBA8",
"sX c #F1CEA3",
"dX c #F5CDAA",
"fX c #FBCFA3",
"gX c #E7D2A2",
"hX c #EDD2A3",
"jX c #EDD3AA",
"kX c #EED8A9",
"lX c #F3D3A3",
"zX c #FAD5A4",
"xX c #F5D9A5",
"cX c #FBDAA4",
"vX c #F3D5AA",
"bX c #FAD5AA",
"nX c #F5DAAB",
"mX c #FBDBAC",
"MX c #F4DAB2",
"NX c #FBDDB3",
"BX c #F9D6B1",
"VX c #ECD2B1",
"CX c #FDE2AC",
"ZX c #FDE0A4",
"AX c #FDE2B4",
"SX c #FEE5BA",
"DX c #FFEBBB",
"FX c #F5E1B2",
"GX c #DDC3A2",
"HX c #FFF1C7",
/* pixels */
"4.[.>XT.=XI.B.K.=XB.8.B.P.I.T.<X/.>X,X4XlXlXwXwX;X<X1XpXiXiXaXjXnXAXSXAXvXhXvXmX>X<XpXlXvXvXlXlX=X=X>X<X1X1X1X1X>XT.uX(.uXvXZ.9.9.#.5.G.OX X X@X@X@X@X|.d.7.5.5.!.I.!.oX;X-X:X:X!.wXcX:XI.oXoXI.X.D.X.S.{.S.Y.Y.S.S.A.S.S.D.D.D.<XI.=XxXmX'.F.K.8.s.F.u.H.=XH.4.",
"P.lXvXpXlX1X=X1XmXlXlXmXmXlXvXAX1X1X1X,X,X,X;X+X1X9XhXjXjXjXVXjXAXmXlX1X1X<X<X>X=X>X1XhXlXhX1X1X=X>X,X<X<X,X1X,X,X/.vX>XuXsX8.^ C.r.G.oX@X XW.|.f.a.d.W.:XwX4X,X:X;X;X;X;X-X;X;X;XzXcX;XJ.!.J.q.G Y.}.nXSXkXnXjXFXMXMXMXFXFXSXAXAXlX9XcXlXF.4.4.4.=XmXCXcX;X4.V ",
"=XmXnXpXlXhX<XlX=X<XlXvX1XT.[.<XsX4X,X,X=X!.I.J.1X1XhXvXjXjXVXjXSXlXT.I.=X<X=XI.=X;X<X1X<X<X>X=X>X,X,X<X,X<X,X,XpX,XBXuXuXuX` D ^.!.-X3X:XW.f.f.f.<.-.p.-XwX4X!.oXoXoXoXoXoXoXoX:XwXwXoX!.;XJ.7.k [.hXjXhX}.hX}.iX<X<X<X<X<XgXpXnX1X<XlX1XI.u.F.;XmXDXmX<XI.6.H ",
"[.vXhX=X1X1X>X1X=X<XpXpX<X=X[.=X,X,X>X=X/.oX;X;X;X<X1XhXjXjXaXiXmX<XI.I.;X9X1XoX;X;X;X;X;X;XoXoX,X,X<X<X<X,X,X>XsX,XBXuXuXuX] U =X:X4X3XoXf.d.f.|.p.-.w.J.oXG.7.J.J.J.!.oX;X-X;X:X1X:XoX;XwX-Xs.x 1XhXP.q.q.[.P.=X=X<X=X=X[.;X<X:X'.I.<X1X>X=X;XmXmXlXI.F.H.u.) ",
">XmXlX>XpXhX<XlX1X>X=X=X<X1X1X>X,X,X=X=X=X,X:X1X:X<X1XhXjXjXaXT.1X;XoX;X:X:X;XoX;X;X;X;X;X;XoXoX-X:X:X:X<X,X,X>XpX>XvX>X>XuX8.` ,X4X4XoXf.d.l.|.f.g.p.d.W.oX=XoX=X;X-X:X1XwXwXwX1XwX:XoX:XcX:Xs.S lX1XF.s.I.wXI.;X:X<X:X>X;X:X1X9X;X=X>X;X=X=X=X=X;X>X=X<X<X6.x ",
">XvXpX=XpXlX<XpX=XT.K.F.I.<X<X/.1X1X,X:X,X:X:X:X9X1XhXvXMXjXGXR.;X:X:X;XoX`.J.J.:X:X;X;X+X+X+XoX-X-X:X:X<X<X,X,X1X/.pX/.(.uXV.] ,X,X=XG.d.f.|. Xl.|.|.W.G.J.!.,X:X:X:X:X:X:X:X:XlXcXwX;X:XlX:Xs.C 3X:XG.G.d.J.=.s.G.J.J.G.G.J.+X1X<X>X>X;X;X>X=X=X>X=X>XlX1X4.i ",
"=XlX1X=XpXpX=X>X<X1X<X=X=XhXlXpX1X,X1X,X,X:X;X;X9X1XhXvXMXjXR.V.:X:X+XoX`.J.`.`.+X+X+XoX+X+X+X+XoX+X-X;X:X:X<X<X>XI.pX/./.>X] T ,X,X=XG.f. XOX|.|.|.|.G.s.s.G.!.=XoXoXoX+X+X+X+XwXcXlX:X:XwX;Xs.s E.W.d.w.#.-.P d.E.oX!.W.W.OX4X;X>X=X=X<X1X1X<XlX1X=XI.=X=X4.c ",
">XvXpX>XvXvX<X1XK.>X1XT.P.T.>X=X/.>X,X,X,X1X:X;X1X<X<XhXjXiXU.X.9X+X`.`.|.+X@X:X+X+X|.|.|.|.+X+XoXoX-X;X,X,X,X,X>XI.pX/././.R v ,X,X=XJ.|.@X@Xf.l.l.W.f.J.!.=X,XoXoX+X-X:X1X4XwX;XwXwX-X;XwX1XJ.a w.d.d.d.,.E.~.w.d.E.E.d.E.OX3X4X1X1X;X;X<X;XI.'.;X<X>X>X'.) l ",
"=XnXvX1XlXhX>X1X1X>X>X<XT.F.I.pX/.1XsX,X=X:X:X;XlX;XvXiXiXMXU.V.9X+Xg.g.`.+X+X|.7X@X+X+X+X@X@X:X:X;XoX+X4XwX:XJ.mX,Xq.( 9.T.C.Q ,X4XoXJ.OX Xl.|.f.f.f.W.!.!./.-XJ.!.-X:X;X+X4XcXlX;X;X:X:XcXwXs.s 3XqXl.<.,.l.y.a.d.k.E.~.OXOXOX;X;X<X1X1X<X;X=X>X<X=X;XlXI.~ I ",
"I.lXpX>XlXhX<XpX<X>X>X>XT.K.I.pX,XsX1X=X,XwXwX;X9X=XvX<XiXMXU.V.9XoXJ.f.|.:X:X+X@X+X+X+X+X+X+X:X+XoXoX+XwXwX,X!.q.r.q.q.T.<XZ.U =XwX-Xd.W.|.l.|.l.f.f.E.J.J.L.!.G.J.oX;X:X:XwXcXwXoX;X:X:XwX;X=.C $XOXd.d.e.l.<.e.a.k.W. XOXOX-X,X<X<X<X;X>X>X;X<X<X<X>X=XK.| H ",
"P.pX1X>XhXlX1XhX>X>X>X>X=XI.=XpXsXsX,X=X<XlXwX;X9X=XlX<XiXVXU.V.lX:X`.`.oX:X:X;X;X+X+XoX+X+X+X;XoXoXoX;X1X:XoXJ.~ 7.F.I.1XlXK.T J.zX,Xr.s.l.l.|.|.|.|.W.J.J.G.G.J.J.!.;XwXzXcXzX4X;X:XwX:X1XI.! #.OXk.E.OXE.~.w.e.d.d.E.~.OXOX2X:X1X1X;X=X'.;X1X<X;X9X;XH.I.s.I ",
"I.lXhX>XlXlX1XhX<X1X1X1X>X>X1XlXsX4X,X=X>X:X:X:X9X;XnXpXjXMXU.8.lX1XoX'.oX;X;X;X:X;X;X;X;X;X;X:X;X+X;X:X:XI.s.s.F.!.=X=X,X1XL./ G.mX4Xw.w.l.W.|. X@X@XoX!.oX/.!.!.I.I.+XwXcXcX1XwX:XwXwX:X4XoX#.7.2XG.OX4X XOXE.W.E.d.d.E.~.OX:X,X1X1X;XI.I.;X1X;X=X1X<X'.1X'.H ",
"=XmXvX1XlXlX1XpX1XhXlXpX1XpXlXlX>X1X4X,X!.I.oX1XlX<XmXhXjXMXU.V.<X;X'.'.oX;X;X:X1X1X1X1X1X1X1X:X:X+X+X0X;Xs.r.s.;X:X,X=X>X,XF.Q !.mXlXs.s.l.l.|.|.@X@XoXoX:X,XoX=X+X!.!.1XcXlX;XwX:X1X1X-X1X;X7.=.:XW.!.-XG.oXoX-X!.G.s.d.G.OX:X<X1X;X=XI.I.>X1X<X;X=X>X1X1Xq.z ",
">XmXmXpXvXlX1XpXpXlXlXpXpXlXlXpX/.,XsX4X!.F.J.1XwX<XmXhXjXMXU.X.T.I.I.'.=X<XhXlX1X1X1X9XpX1X1X1X+X|.+X0X+Xs.s.oXJ.;X,X;X,X<Xq.Z =XzX4XJ.W.f.d.|.f. XOXW.!.:X4XoX-X;XoXJ.;XzXlXoX4X;X:X:XoX:X:Xs.Q -XJ.s.G.s.oXI.-XoXJ.s.G.J.oX;X<X;X=XI.'.=X;X1X<X1XI.I.lXI.Z i ",
"=XnXvX1XvXlX1XlXpXvXlX1X1XlXhX>X>X,XsXlX,XJ.J.;X1X=XnXpXpXjXV.[ [.[.=X=X>X<XhXlX1X1X1XpXpX1X1X1X:X|.+X0X+Xs.s.:XJ.oXoX=X4X4Xq.Z ,X:X!.!.OXd.<.l.l.@X@XW.!.4X4X!.!.-XoXF.I.wXlX:X1X-XwXwX;X1X:Xr.L :XJ.7.s.H.,XG.J.J.J.I.!.oX;X=X<X=XI.I.=X1X<X;X=XxXI.I.mX0.i Z ",
"T.lXlX<XvXvXpXlXpXvXlX<X1XhXpXT.,X>X<XvXwXoXJ.oX:XoXlX<XiXjXV.{ pX1XpX1X>X>X<X1X>X<X1X1XpX1X1X<XwX+X:X0X|.7.s.:X4X:X!.J.:XwXF.H :XoXG.oX3Xp.:.f. X0X0XoXoXwXwXoXJ.+X!.s.G.wXcX4XwX1XcXmXwXwX:Xr.Q wXI.7.F.;XwXF.7.s.I.;X:X:X;XoX<XI.K.I.:X9X1X=XJ.CXI.I.SX8.p q.",
"vXhXjXMXvXiXiXnXvXjXjXhXpXpXpXpXpX1X<X:X;X;X;X:XwX:XmX<XjXMXV.U >XvXpX>X>XT.R.pX>X=X=X>X1XpXpX1XoXwX:X:Xs.~ J.:X:XoX:X4X-X-XJ.! oX:XoXf.|.G.p.J.|.+X:X0XwX0X:X+XJ.;X;XoXJ.-XwXwX4X;XwXwX:XwX:Xr.L :XoXG.J.s.J.7.7.7.r.s.J.+X1XlXzX=XI.=X1X<X,X1XlXK./.mXL.c x I.",
"jXpXjXMXvXiXpXvXMXvXjXiXiXpXjXhXpX1X1X:X:X:X:X:X:X;XlX>XpXBXV.Y >XvXvX1XpX>XT.lXpX1X>X>X1X1XiX<XoXwX-X:XG.=.oX:XoXG.oX:XOX:XoX=.oX:X|.J.+X|.f.+X+X+X+X+X+X+X:X:XJ.!.oXoXoXoX;X4X4X;XwXwX:XwX:X7.L ;XJ.F.I.J.oXs.!.J.J.J.I.oX-X:XlX=XI.>X1X,X<X1XI.>XNXmXQ 2 Z AX",
"pXpXjXvXvXpXjXMXNXvXpXiXiXiXjXvXhXhX1X:X:X:X7X:X;XoXwX=XiXvX8.D T.lXlX1XvX1X>XvXvXlX1X<X1X<X<X>X;XwXoX:X!.7.-X:X!.G.!.-XoX:XoX-.+X:X+XJ.;X+X|.:X+X|.J.f.J.+X:XwXoXJ.oX1X1XoX+XwX1X-XwXwX:X4X:Xq.L oXF.s.oXoX1XI.4X-XoX!.+X-X;XoX<X/.I.,XsX1X<X<X1X<X1X>X4.F ) =X",
">XiXjXvXvXjXjXvXMXvXjXpXiXpXpXhXpX1X1X:X:X:X:X:X;XoXwX=XiXvX8.D T.pX1X1XvXpX>XlXvXlX1X<X1X<X<X>X:X4X!.:X-Xs.:X:X4XoXoX-X!.oXJ.~ +X0X+XJ.;X+XJ.;X+X|.J.f.J.+X:XwX4X!.+XcXcX-X-XcX1X;X4XwX:X4X:X7.L oXs.q.!.+XwXoX:X+XI.oX:X1X:X,X=X/.=X<XlXsX1X,XmX,XL./.lXlXC.H ",
"{.iXjXjXjXjXvXjXjXjXjXjXjXpXpXiX1X1X<X;X;X;X+X;X;XoXlX>XpXBXV.U T.1X1X;XlX1X;XlXlX1X<X<X1X9X1X1X;X4XJ.:X:XG.:X:XwX;X-X;XI.oXG.! +XwX+XJ.+XoXf.oXoXoXoXoX+X+X:X:XwXoX;XcXmX:X-XcX1X;X1XwX:X1X:X7.L oXs.q.J.!.:XI.;XoXI.oX;X1X:X:XJ.!.,X<X4XlX1X,XI.,XlXlXlX1XF.L ",
"T.iXjXjXjXvXjXjXjXjXjXvXjXjXiX<X<X<X;X;XoX+X+X+X:X;XlX<XpXNXV.U <XwX:X;X9X:XoX1X:X:X;X;X:X9X9X1X;X4XI.1X:XF.,X:X:XoX;X;XoX-X!.#.;X0XoXG.oXJ.s.J.oX+X+X;X:X;X:X;X4XoXoXwXlX:X-XwX1X;X1XwX:X1X:X7.S oXJ.s.J.J.:XI.+X;X;X;X;X+X+X;XI.=X,X:X,X4X1X>XG.1XvX,X!.!.F.~ ",
"T.iXvXjXjXvXjXpXjXjXjXjXjXjXiXiX1X<X;X;X;X;X+X+X:XoXlX>XpXNXV.U lXcX:XoX9X:XoX9X:X;XoX+X;X:X:X:XoX1X=X1X>Xs.>X:X>XI.>X1X<X1X>X6.oX:XoXJ.+X!.F.oX-X-X;X-X;X;X-X-X1X:X>X,X,X4X1X:X,X;X1XwX,X1X,X7.C oXoXJ.I.J.:X;XoX:X1X:XoX!.oX-XI.:X1X-X,X1X1X;X:X:XoXJ.;X,Xs.H ",
"T.pXvXjXjXjXjXiXvXjXjXpXpXpXpXhXpX1X<X:X;X;X:X:X;XoXlX>XpXNXV.U CXCX9X+X7X:XoX7X:X;X+X+X+X:X;X+X!.1X;XwX;Xq.;X>X>XI.<XlX1XwX>X4.oX:XoXJ.;XoXJ.-X:X;X;XoXoX+X;X,XlXlX,X=X<XvXlX,X,X=X,X4X,X,X,X0.m oX-XoXoXJ.4X1XI.-XwX4XoX!.;X4XoX1X1X;X;X1X1X;XoX:X1X,X1X;Xq.L ",
"T.pXvXjXpXjXMXMXjXjXjXjXjXjXiX[.pX1X<X1XwXwX:XoX:XJ.oX=XNXBX[ { I.+X'.J.;XoXJ.+X;X;X;X;X:X:X:X:X;XlXhXI.F.=XhXhX>XlXlX<X1XlX[.) 1XlX-X!.:X;XI.:X1X,X:X:X1X1X,X:XlXvXbXlXvXmXbXsXbXmXI.,XmX1X>XF.S 1X-X;XwXJ.G.J.:X:X-X;XoXoXoX;XoXoX;X:XwX4X:XoX-XwX-X4X:X1X:XC ",
"{.pXMXjXpXpXjXjXjXiX>X>XiXiX{.[.I.I.I.I.oXoX`.J.+XoXwX1XNXBX[ ^ mXCXwX;X7X;X'.:X;X;X;X;X;X;X;X;XmX=X0.0.=XnXmX<X1XlXpX=X<XlX1XK.I.,XI.J.;X;XoX1X1X:X,X:X:X:X;X=X4XlXlX1X1XlXlX1X>XlX>XlXlX,X>X~ l -X;XoX4XoX+XoX:X;X;X;XoXoXoX;X;X;X-X;X:X:X:X;X;XwX+X:X:X:XoXc ",
"iXMXNXMXjXjXjXpXSXNXvXjXjXvXvXvX1X<X<X1X9X9X:X+X`.;XlX=XjXvX[ ^ K.oXJ.J.:X;XoX:X:X:X:X:X;X;X;X;X[.P.P.=X1X<X[.[.=X1X<X[.=X1X=XA.<XlX<X=X1X,X!.,X4X1X,X,X,X,X,X=X1XlXlX1X1XlXlXsX=X1XsXbX>X,XsXH t -X:XI.:X-X:X+X;X-X;X+XoXoXoX;X1X:X:X;X;X+X:X0X;X:X!.;X:X:XJ.p ",
"T.iXjXiX>X>X>XT.jXpXiX>X>X>X>X<X<X;X;X;X;XoX`.J.`.=X1XK.>XvX8.^ [.lXlXlXmX1XI.I.1X1X9X9XlXlXlXlX1X=X<XlXhXT.[.pXP.=XpX1X1X<XA.) =X,X=XI.=X!.K.!.=X=X!.=X=X=XI.I.I.>X<X>X>X1X1X>XlXsXlXvXL.1XNXZ t 4XwXJ.oX-X:XI.-X;X+XoXoXoX;X+X:XwXwX:X;X+X:X:X;X:XJ.+X:X;Xs.d ",
"jXMXNXvXvXMXvXjXiXpXjXjXpXiX>X>X>X;X1X:X:X;X+XoXoX;X9X[.vXNX&.U 0.K.K.K.>X=XI.>XI.I.[.=X>X<X<X<XSXP...A.<XhXhXjXP.{.<XgXiX}.S.4.=X1X,X>XlX1X,XlX1X1X1XlXlXlXsX<XI.pXbXbXbXmXbXlXpX,X,XpXL.,XlXl i wXwXJ.oX;X1XI.;XoXoXoXoXoX;X;X;X:X0XwX0X:X+X+X+X:XG.OX:X+Xp.w ",
"jXMXvXpXpXvXvXjXpXjXMXMXvXjXpXpXT.=X1X9X9X9XwXwX;XoXwX1XmXpXR D I.T.B.0.P.[.>XmXK.P.I.I.[.=X>X>XG B G ( 0.A.A.D.A.S.D.P.P.P.Y.P.1XvX1X>X1X=XK.I.I.I.I.=X>X>XI.L.q.T.,X>X=X>X/.T.vXbXlXNXsXsXpXx x wX:XG.;X:XwX;XoXoXoXoXoXoX;X;X;X+X:X0XwX0X+X|.+X:XJ.+X;X+Xf.d ",
"S.B.V.' ' X.8.X.8.V.B.B.8.X.8.0...6.q.u.q.7.7.i.s.6.q.8.V.{ z ^ B.B.U c k y 9 i g i g g g g g g q B X.0.( ( ..0.S.A.A.S.P.P.[.<XI.>XL.q.F.8.Q ) %.%.%.4.4.) Q T R ] 4.( R R ^ ^ v G c c g 9 t * / cX-XJ.1X-X:X;XoXoX!.!.oXoX;X;X:X+X|.OX0XwX:X|.+X:X|.+X+X+X|.s ",
"T.T.B.] ] 8.0.8.^ ( ( E U U ^ ( 0.q.F.u.6.=. .=.~ C x i i t y V.B.P.B.0.K.0.] 8.R.I.R.P.K.K.K.K.hXhX[.X.0.Y.iX<X{.}.iXjXjXiXiXpX=XlX1X1XmXvX1XvXlXlXlXlX1X>XI.F.,XpX1XI.B.C.L.I.K.=X~ S m i Z Q F.AX:X'.wXoXJ.J.oX|.!.!.oXoX-X-XwX+Xf.J.:XwX7XoX+X3X+X:X;X;X+XC ",
"lXlXlXlXwX1X1X1XlX4X1X<X<X1XlXvX=XhXlX:X:XwX0XOXOXrXd.Q ~ K.<X0.K.[.vXmXvX<X1XlXK.hXvXlXnX<X[.pXMXhXiXjXnXhXjXFXMXMXAXMXMXMXFXSXnXCXnX9X<XxXxX9XnXnXxXxXxXxXlXlXvXmXmXvXmXmXvX1XK.A.I.1X>X<X=X4.) 1XlXH.J.;XoXf.|.OX@X@XOXOX:X3X:X;X3XzXzX1X;X:X:X;X:X;XoX:Xs.s ",
"wX4X:X:X;X;X;X:X;X;X;X:X:X:X:X:X[.<X<XoXoX:X2X XOXOXd.7.q.H.>X[.hXmXSXAXlXpXpXhXI.hXlXhXhX<X[.pXY.D.Y.iXnXMXSXHXMXMXNXMXMXjXMXNXhXkXhX;X[.8X8X;XkXhXhXhXhXhX9X9X1XlX9X1X9XlX9X=X1X=X;X;XI.F.8.Z E I.<XJ.oX:X+X.X XXX X XOX@XeXcX:X;X:XzXzX1X:X:X:X;X:X;X-XwXJ.n ",
"1X:X+XoX!.!.oX;X!.oX-X:X:X:X;X=X[.=X>X!.!.OX2XOXOXd.d.oX;XI.[.hXAXDXDXnXhXhXhX1X[.lXhX<XpX>XT.pXY.Y.{.gXnXnXMXSXMXFXMXMXjXjXjXnX<X9X<X[.[.;X;X}.9X9X9X9X8X8X<X1X<X1X1X;X<X9X1X=XlX;X1X<XI.I.F.H E K.[.I.;XoX|.XX%X*X%X@XOXOX2X4X3X;X1XzXlX1X:X:X:X;X:X:X:XcXoXA ",
":X-XoXJ.J.J.oXoX+X;X;X:X:X:X;X;X1X1X>X;X-X2X5XqX X;.d.oX1X1XP.>XmXDXAX<X[.hXvX1X<XvX1X=X<X[.T.pXhXhXjXnXnXnXjXjXSXFXFXnXjXhXhXhXhX9X<X;X}.<X<X<X8X8X8X8X8X<X<X1X1XhX9X<X1XlX9X>X<X=X>X>X=X1X=X) ..P.[.oX;XJ.p.|.l. X3X0X3X%XoXoX3X;X1XlXlX1X:X1X1X:X:X:X:XzXoXA ",
":X;XoXJ.J.I.oX;X;X-X;X+X;X-X:X1XhX1X<X:X:X3XqXrXW.-.d.G.,XmXA.0.nXmXlX[.[.hXhX<XpXnX<X[.<X=X[.hX1XhXnXnXnXAXNXnXSXAXmXnXlXhXhXhXhX9X<X<X<X<X1X9X9X9X9X9X9X9X9X9XhXlX9X<X1XlXlX;X1X>X>X'.I.>XH.G 0.T.=X'.oXs.7.|.p.g.W. XOX2X4XwX4X:X:XwXwX:X:X1XwX:X1X-X;XwXJ.C ",
"1X:X+XoX!.oXoX;X-X+XoXI.!.oX-X:X1X=X=X:X:X:X3XeXW.$.W.r.oXxX....nXhX<X<X<XhXhX<XhXnX<X[.1X<X=XhX1XlXlXhXhXxXxXhXCXnXxXlXlXlXhX9X9X<X;X<X<X;X<X9X9X9X9X9XhXhXhXhX9XlX1X>X;X9X9X;X1X<X<X=X'.1XI.H 4.[.=XH.`.J.f..X@XXXW.d.d.E.-XwXwX:X:XwXwX:X:XwXwX1X1X-X+XwXI.C ",
":X:X;X+XoXoXoXoXoXoXoX+X+X;X-X,X<X[.=X1X4X:X2XqXOXP OX!.oX;XQ P.hXP.P.<XnXhXpXhXhXnX<X[.hXhX<XlXnXmXxX1X;X1X1X'.xX9X1X1XwXlX9X1X9X;X=X<X<X=X;X9X1X9X1X9X9XhXlXlX9XlX1X>X;X9X1X;X;X;X1X;X1XCX1XQ 4.<X>Xu.s.oX+XXX0X*XOXl.d.d.!.OX4X:X:XwXwX:X:XwXwX4X4X;X;XcX;XH ",
";X;X-X;XoXoXoXoXoX-X:X1X4X1X:X,X<X[.>XwXwX2X3XeX3XP OX4X;XH.H hXI...4.<XAXhXhXmXhXnX<X>XlXhX1XnXlXcXlX;X;XwXwX:X9X:X;X;X1X9X9X:XlX;X>X1X1X;X<XvX1X1X1X1X9X9XhXhXlXlX1X;X<XlXlX<X;X;X1X>X=XvX'.Z 0.hX1Xq.u.oX+X.X<.g.|.%X3X2X2X:XwX:X:XwXwX:X:XwXwX1X1X:X:XmX:XQ ",
";X:XI.J.:X;Xs.s.oX;X1XwX:XoX;X,XhX1X<X,XoXoXOX3Xl.p.!.oX;Xp H >XhX=X[.hXnXvXlXnXvXhXpXpXhXnXnXnXxXcXwX;XoX;X:X1XcXwX;X+X:XwXwX:X1X1X1X1X1X1X1X1XlXwXlXlXlXlX1X<XvXxXwX<X1X9X=X0.K.9X9XxX1X>X;XH 0.hXlXI.'.+X+X+Xf.n.OX%X3X3X-XoX:X1XwXwX;XJ.oXwX;X1XzX-Xs.!.oX7.",
"-X1X!.J.;X;XJ.oXJ.oX;X:X;XoXoX:X<X<X>X:X:X:X3XqXW.d.oXoX4XS 4.hXlX<X=XhXnXlXlXnXnXvXhXhXnXnXmXmXcXwX:X;X>X<XlXmX:X;XoX;X1XlX1X>X>X>X>X>X,X>X;X;X;X>X>X:X<X1X4XwXvXxXlX<X1X9X>XF.=XlX1X9X;X<X1XQ E [.1X'.+X@XJ.g.|.|.OXOX@XOXOXOX4X4XwXzX4X+X-XwX;X;X:X-XJ.;XI.~ ",
"oX1XoXJ.;XoXoXwXoX;X-X;X;X+X;X:X=X=X=X;X:X3X3X3XW.d.W.J.lXu.A.<XhX1X<XhXnXvXlXnXnXvXhXhXnXnXnXnXvX>XI.=X>X!.=XlX<X,X,XlXmXmX4X>X,X1X4XlXlXwX1X1X,X,X,X,X<X,X4XlXlXxXlX1X1X1X1X=X1XlX=X;X>X9XvX~ H T.pX=X:XwX+X|.@X@XOX|. XOXOX-XwX4XwXcXzX4X:XwX4X:X1X1X:X4XJ.H ",
"I.1X:XoX;XI.I.wX-X:X:X-X:X4X4X:X<X<X>XoXoX:X2XOXd.w.d.G.wX=X4.q.hXhXhXvXnXlXnXnXnXhXhXhXhXlXhXhX1XT.=XlXbX,X>XsX1X1XpXlXlXsX>XI.=X>X<X,X1X,X:X,XlXlXzXvXlX1X<X<XlXvXvXlX1X1X9XlX1X9XI.=X;XlXvXQ ] <XhX'.+XwX0X0X@XXX X XOXOX-X-X4X-X-XwXzXwX:X:XwX:X4XwX:X:XG.S ",
"F.1X4X;X;XJ.F.;X:X1X:X+X;XwX4XoX<XhXlX;XoX:X2XOXd.w.G.G.:X1XH E <XhXnXnXhXhXnXnXnXhXhXhXhXhXhX1X>X/.sXNXmX>XL./.>X>X>X>X>X>X/.L.G.G.J.!.!.!.J.J.r.F.!.,X4XlX4X<XlXlXlXlXwX9XlXmX;X1XI.=X1XlX1XD ..1XhXI.oX:X+XXX|.|. X+X%X@X-X-X:XoXI.;XwX:X+XoX;X!.;X1XoXoXG.~ ",
"s.:X4X:X:XI.s.oX;X:X;XI.+XwX;Xs.P.hXmX4X-X2X5X%XW.w.W.!.;X9Xx E T.hXnXnXhXhXnXmXnXnXvXvXnXvXhXpX/.>X>XZ.R z y r , : : , < 4 5 6 2 2 2 3 3 3 6 6 a l Z #.!.lXlX1XlX9X9XlXxXlXlXxX=X<XI.;X1X9X;XB 4.hXmX1X9XwX+Xn.l.n. X@X2X2X2X:X:XoXJ.oX;X+XoXoX+XJ.:XwX:X;XoX7.",
"J.:X:X-X1XoXJ.-X+X:X;XI.;XwXoX=.G K.vXwX-X2X3X%XOXw.E.oXJ.1Xx 0.K.1XnXlXpXhXnXmXnXnXnXnXnXlXpX<X(.uXK.z O X X $ O O % % ; , < 4 5 3 2 2 3 6 w t 2 = 3 x 7.,XlX4XvX1X1XvXmXvX9XlX>X9X=X<X:X1X>XZ q.nXmX1X9XwX@X.X X|. X XOXOX-X:X4X-XoX+X;XoXoX;XwXoX:XcXwX:XG.! ",
"I.:X;XoX1X:X+XwX-X1X:XoX:XlXoX) 6 ( <X1X-X-X2XOXOX-.d.!.r.<Xx T.A.<XnXhX<XhXnXAXnXlXhXhXhXhX<X=X(.sXZ.y X X % : . O % % % % % % , & * * * & 2 5 w - = a 4.,X4X:XlX;X;XlXCXcX9X1X1XvX;X1X>X;X;XD A.lX1XF.G.+X+X*X*X@X XW.W.OX-X2XzX4X-X-XOXoXOX4XwXJ.!.wX:XJ./ p ",
"s.:X;XoX:X4X:XwXwXwXwX1X;XoXJ.K.l ^ =XmXmX4XOXOXOXW.G.:X/.<X^ S.}.hXkXgXgXnXAXFXvXnXnXhXpXhXpX>X,X,XL.r X o . O # O . % 4 *   , : : , , 2 4 5 6 l c S 5.J.oX:XcX:X+X;X7X9X:X:XlX;X9X=X;X=X1XlX( B.>X,XJ.G.@X%Xl. X X X XOX2X5XeX2X=X=X2XeX3Xf.-.W.oX0X:XoX=X5.a ",
"J.wX:XoX:X:XoX:X+X-X;X:X:X:X;X;Xk G B.,X4X4X2X2X2XW.w.=X>XpXU X.kXFXFXgXgXkXkXhXvXNXnXhXpXpXpX>X,X,X/.u   O O ; O 1 : 1 5 , * 5 ; : 4 5 9 e e e 2 6 x 6.oX;X;X:XcXwX7X+XG.s.J.9XoX9X>X1X<X1XlXQ ) I.,XJ.d.|. Xa.*X%X%XOXOX X~.~.2X:X-X2X3X2Xl.p.@X XOXE.d.-X!.J ",
"I.wX1XoX:X:XoX:X!.oX;X:X:X4X4X1X0.A.T.<X4X4X-XoX4XG.-.!.>XlXG W FXFXMXkXhXhXhX<XnXNXmXhXpXpX1X=X=X4X/.j o 1 ; 1 $ 1 8 < 5 w 6 e 6 9 y i g i i p m Z ~ J.:X:XoXJ.+X:X7X:XJ.s.'.lX'.1X;X9X1XpXhXQ Q I.sX;XJ.+X Xd. X X XOX$X$XOXOX:X2X2X3X2X@X Xz. XW.f.<.-.!.!.! ",
"G.:X:XoX:X4X;XwX-X-X:X:X:X:X:X<XmXvXpX1X4X4X-X~.5XW.5.!.>XhXD W nXkXhXhXjXnXnXhXnXNXnXhXpXpX1X=X>X4X>Xz % < 1 0 0 &.uX/./.sXsX4XsXsXlXlXlXlXlXwX;XoXoX:XwX:XoXJ.f.`.7XrXwX+X;X9X=XwX>X1X<X1XhXQ ^ I.sXoXs.|.@X|.W.n. X XOX$X$X2X-X2X4X3X$X X XXXn.z.W.a.w.W.r.n ",
"G.1X:XoX:X1X-X4X:X:X:X:X:X:X:X:XlX<X=X>X,XwX5X3X3X!.d.,X>X1XY ..nXgX<XgXnXnXnXhXvXnXmXhX1XpX<X/.>X,X>Xz % 5 < 8 . ` dXuXpXmXbX1X4X1X,X<X:X:X:X:X+X+X+X+X:X:X+XJ.+XoX:XtXxX7XoX'.1XlX=X>X=X<XlX~ ^ K.>Xr.=.s.+X|.%X%XOXW.l.E.E.W.OX3XwX0X@X XXX*XXXXX@X|.d.|.r.x ",
"oXlX4XoX:X;XoX;X-X-X-X;X,X1XwXlXpX>X=X>X,XwXeX5X-X!.W.,X/.>XE A.FX8X{.<XnXnXhX<XhXnXvXpX1XpX1X>X>X1X).j O 5 < 8 . &.BXdXdXmXzX,X4X1X1X:X:X:X1X0X7.J.+X+X+X+X`.p.@X`.f.oX7X7X9X9XwXxX=X=XI.<XlX) ] I.>XF.7.J.OX|.|.|.|.W.E.W.W.W.OX:X0X0X@X XXXXXXX Xm.a.<.|.d.A ",
"=XlX4X=X<X:X!.;X>X;X>X,X,X4XlXbXvXhXlXlX4X4X2XOXOX!.G.,XI.<X( P.AX<X].<XnXlX1X=X1XlXvX1X1XsX1X,X=X,X/.j + < 1 8 . ` dXuXuXfX4X,X4X4XwXwX:X+XG.s.;.f.+X|.f.|.b.f.+XJ.J.oX:XwXxXCX1XlX>X>X=X<XlX( ( R.pX>XoX:X+Xp.;.p.l. XOXOX~.!.OX@X3X*X@XXXm.m.m.n.f.3.;.W.d.S ",
"I.4X,X=X,X,X>X,X,X,X,X,X<X1XlXvX>X1XlXlXlX2X2XOXOXW.t.!.I.1X] T.nX[.P.}.nXnX1X<X1XlXlX1X1XlXsX,X=X,X/.u o , 1 8 O ` uX,XuXfXfXzX4XwXwXwX+Xs.:.L ~ p.g.;.;.f.yXtX@X7XwXcXtX:X:XwX:XlX;X<X>X<X1XQ D B.pXpX1X1Xf.P w.g.|.2X2X~.d.y.OX@X@X@X*XXXm.n.XXXXXXn.g.+Xf.C ",
">X>X,X1X,X=X<XvX1X1XsXlXsXsXsXpXpXhXhX1X,XoXOXOXOXG.!.J.,XI.^ A.hXP.A.[.9X<X;X9X>X<X4XlXlX4X4X:X1X,X/.5 < : ; ; . ` dX(.>XbXbX,XcXwX:XwXrXwX+X|.J.+X@X|.p.p.f.@X0XtXZXcX7X:X:XwXlXxX;X<XI.F.I.G ' R.vXlX1X=X+X+X|.+XOXOXoXoX:X,XoXG.g.|.XX.Xb.f..Xn.f.b.;.+XL C ",
"1X1XsXlXlXmXmXmX1X,X<X,X,X<X1X1X<XiXpX1X,X-X2X2X~.t.G.F.=X[.8.<XnX<X[.;XlXwX9X1X<X:X4X4X4X4X,X,X,X,X/.4 , : ; : ; V.BX(.(.zXzXsX,X:X4XwXwX3XwXrXJ.+X@X+Xf.f..X0X`.+X7X:X+XoX;X9XxXmX1XlX>X>XhX4.( K.vXnX9X:X;X+X+X+X@XOXoX=X-X,Xq.G.;X0X@Xb.b..X0XXX|.|.p.;XA c ",
"/.1XsX,X1XmXbX<X,X>X>X>X1XsXlXvXP.T.=X/.J.G.G.d.2XG.W.r.I.K.8.<XCXxX1X=X1XxXwX;X1X2X,X:X:X2X4X4X,X,XL., : ; ; 1 . ` uX(.,XfXfXlXzXmXAXmXwX:XwXcXJ.|.+X+X+X+X@X7X@X:X7X+XJ.s.J.'.1XlX=X;X=X>XlX..G V.iXhX1X;X+X'.+X:X:X:X-X-X,X,XvXlXlXwX+X`.+XtXb.p.;.s.7.;XH Z ",
"q.,XlX>X/.1X>XC.1X1X1X1X1X1X1XpX<XpXpX<X=XJ.d.d.~.d.W.F.K.q.^ P.nXxX=Xs.J.9XwXoX4X4X:X-X-X-X2X4X:X=XL., ; ; : 1 O ` dXdXbXfX6X,X1X1X1X,X1XwX4X-XJ.J.|.+X+X+X+X+XwXtX0X:XoXJ.'.oX;X1XI.I.K.I.<XE v ' T.<X<X;X:X;X+X;X1X4X4X,X4XsXmX<X=X;X;X|.J.b.|.p.i.J.H.lX..( ",
"0.1XNXsX,XsX1XL.sXsXlXlXsX,X/.I.<XpXpX<X=XJ.G.d.d.t.oX!.=XK.{ [.lX9XJ.6.s.:XwX;XwX4X:XoXoX-X2X4X,X=XL.; % % ; 1 ; M &.` ^ F m m Z x x S F.lX4XJ.;XoXoX+X;X;X+XoX+X+X:X:X7X9XlXcX;XwX'.=XI.>X1XE B ' D.[.=X1X9X9XoX;X9XwXwXlXzXbX>X1XmXSXCX;XJ.s.J.s.s.;XF.I.x k ",
"9.=XsX1X,XpXpX>XT./.,XsXvXvXlXsX>X<X1X,X=XoXOXOX2X-XzX4X<XI.8.hXlX:XJ.u.J.1XwX1X4X4X2X-XoX-X2X2X-X>XL.: % O # ; . 0 8 % % * * 2 5 : * 4 H =X<XK.lX1X1X:X:X:X-X+X+X+X7X7XwXwXwXwX'.1X=X=X=XhXvXE b W V.P.I.'.'.`.J.'.;X:X:X,X1XpXpXmXNXpX0.I  .H.7X:XxXDXpXpXD D ",
"L.K.B.q.Z.K.K.K.q.B.Z.K.I./.>X>X{.=X=XI.J.J.~.OXd.t.G.5.0.0.8.NXcX;XJ.+X9XwX4X4X4X2X2X-XOXOXOX-X)./.L., % O O O # < : O , 3 5 u 5 4 * + y %./.>XlXlX4X:X,X-X:X:XwX0XwXwXwX7X=X'.I.9X=X>X>XlXhXD b } S.Y.P.P.u.| =.6.q.s.q.7.q.q.B.8.( D k p x _ H V Z I k v 9 k ",
"lXZ.Q Q ] 4.%.] B.9./ U D m m Z B v x l i a s c a d i w i D ] DXxX=XoXlXmXwX-X:X4X4X:X-X-XOXoXoX=X/.L., ; O o o ; < ; ; 6 3 % = 2 5 :   % D /.mX1X1X,X>XoXoX:X9X+X:X7XtXtXtX1X;X1XmXlXhX1XvX1Xv W V.iXjXhX=Xu.) H L Q Q Q H F F Z c c ^ K.J.7.~ 6.H l p * i y [ ",
"uXsXvXvXvXvXvXvXuX>X/.T.T.T.T.I.I.I.L.F.F.K.=X<X1X4.4.q.q.<XNX<XhXhXpX<X=X<X9XvX1X:X-X-XoXoXoXoXoX,X/.3 , % % 1 ; , % ; w 2 * = & e 4   e q.lX>XG.J.=X,X,X:X,X;X'.;X9XwXwX1X=XI.<XAXvXlX1XlXpXD W nXMXjXjXpXNXvXmXvX1X>X=X!.!./.4XcX4XOXOXr.P L G.wXI./.>XI.>X=X",
"BXbXvXvXvXlXdXsXpX,X>X>X,X,X,X>XvXvXvXpX1XpXvXNXlXq.0.B.B.1XAXhXpXhXhXhXhXhXlXvXlXwX4X:X:X-X-XOX-X=X!.3 , ; ; , o 5 8 4 r t w p t c a t Z I.vX<X;X>X,X,X4X4X1X:X;X;X9XwXwX1X;X=X>XmXvXvXpXlXpXD X.NXvX>X>XR.>XT././.T.!.!.=X-X-XE.$XOX$XrXqX-X4X=X4X=X,X,X/.1XI.",
"vXlX1X>X/././.>X1X,X,X<XpXsXpX1X>X>X>X=X[.T.=X>XNXT.F.K.I.lXSXnX[.}.<XhXhXhX1X1X1X1X,X:X:X-X-X-X-X=XG., , , , , , F %.T / %.5.r.r.F.r.7.K.1X4X=XlX1X<X,X4XlX1X:X:X9XwXwXwX9X1X:X=XnXlXmXlXlX1XZ 8.vX>XI.T.I.<XI.q.r.G.G.!.~.=XOXd.~.k.E.qXrX4XcX4X:X=XlX>X=XlX) ",
"sX1X/.I.K.L.J.I.=X/./.>X<X1X1X<X>X<X1X1X<X<X<X<XAXhX=X=X1XvXnXhX>X}.<X<X1XpX1X<X>X:X:X:X:X4X3X:X-X!.G., 4 4 < < 8 Z.BX>X=XzXzXcXzXlXlXlXlXlX,X=XlX<X=X=X<X1X,X=XwXwXwXwX9X9X9X9XT.lXlXmXvXlX1XZ K.bXI.K.=X=X4X!.r.s.G.~.~.!.W.E.W.~.d.e.oX2XoX4XzX!.!.zXI./.pXZ ",
"lX,X=XJ.J.I.=X,XJ.J.J.=X,X<X,X;X<X<X1XpXlXlXlXpXAXmXlXlXmXlX=XI.NXnXhXiXhXhXlXlXwXwXwXwX4X4X:X;X-XoXL.3 4 4 < 5 % B.NXsX,XsX4X:X,X=X=X,X4X4X1X1X1X,X=X=X,X,X,XoXcXxXwXwX9X9XlXlX=XlXpXmXvXlXpXG sXSX!.F.!.J.oXd.G.W.~.OXOX~.k.k.~.~.e.e.2X5X2XzXzX!.!.lXI.>X1Xc ",
":X-XoXJ.J.!.;X:XoXoXoX;X;X:X;XoXI.I.I.=X>X1X<X>XnXAXvXlXNXpXF.A.DXnX<X[.<XpXlXlXlXwX4X:XoXJ.s.r.oX-X!.5 4 , < 8 % &.BXsX,X4X=XJ.=X=X=X=X>X,X<X,X,X:X,X,X,X,X1X1XcXcXlXwX9X9X9XlX1XvX1XmXvXlXvX~ ,XcXG.r.W.G.OXE.E.~. X#X#XQ.z.k.~.~.t.e.2X3X-X4X4X4X=X4X,X1X<Xz ",
";X+XoXJ.J.I.oX;XoXoXoX+X;X;XoXJ.pX1X<X1XlXlXlXpXpXNXlX1XmX<X0.q.AXhX[.P.[.<X1X1X1X1X,X;X!.G.w.7.!.:X:Xe , , < r r C.BXbXbXzX:X=X,XlXlX,X=X,X>XJ.I.,X4XlX4X1XlXcXcXcXlXwX9X9X9X9XvXnX1XvXvXvXnX0.J.2Xw.w.~.E.%X$XQ.Q.Q.Q.z.k.x.h.E.W.e.e.2X2XW.!.=XzX!.=X1X1X=XZ ",
"wXwX:X+X+X+X;X:XoXoXoX+X+XoXG.s.1X<X=X=X>X1X>X=X<XmX1X=XvX=X4.B.NXhX[.[.<XhXvXlX1XwXwXwX4X-XoXJ.!.4X4Xe , & < r j C.sXsXfX4X=X-Xr.>X,X!.!.1X,XI.F.=XlXlX1X,XlXmXcXxXlXwX9X9X1X1XmXmX1XlXlXlXNXB.=XrXd.d.~.d. X X$X#XQ.x.j.1.2.>.y.t.y.d.qXzX2X2XG.zXJ.G.<X,XK.Z ",
"J.;XG.7.s.s.~ S +X+X+X+XJ.oX:XwXlX1X<X1X1XpX1X1XvXpXlX=XSXvXZ q.vXhXiX<X<X<XhXlXlXwX,X-X-X:X3X4XoX4XG.e e , r r h C.sX>X,XlX4XwXlX=XK.J.>X1X;XJ.;X!.=X,X<X!.=XwXwXwXwX9X:X:X1X9XlX<X1XpXlXNXpX) r.rXOX X%XQ. Xa.#X#Xz.j.>.>.2.j.Q.w.-.,.~.3X4X-X=X4X,X=X1XvXF.x ",
"I.:XI.s.J.J.7.=.I.oX+X+X+X+X-X:XlX1X<X1X1XpX1X1XlXlXlX<XhXK.H q.hXiX<X<X<X<XhXlXlXwX1X:X:X:X:X:XoX:Xr.5 4 & r r h C.dX,X,X4X:X:X4X=XG.I.=X,X=XI.<X:X4XmXvX,X=X:X1X9X9X1X:X;X<X1XvX1XhXhXpXmX1X] 5.3XW.l.OX X%X X$X#X#Xx.1.2.1.j.k.d.d.E.OX3X4X2X:X4X:X=X<X<X0.Z ",
"J.:XoXG.oX!.s.G.J.J.!.;X:X:X;X=XlX1X<X1X1XpXpX1X1XvXpXlXK.U ) A.<X<X<X<X<XpXlXlXlXwXwX4X:X-XOX+X!.=X5., , % r r h Z.bXfXsX4X:X4XzX4X<X,X<X<X:X,X=X/.>X4XlX1X<X1X:X:X1X:X;X;X<X1XvXlXvXlX1XvX1X4.7.0XW.J.@X@XeX%X$X&X&Xm.j.1.1.j.<.t.E.~.OXOX-X-X4X:X=X,X,XJ.4.H ",
"I.<X=XI./.I.K.=XI.J.I.>X1XlX1X>XlXpX1X1XpXhXpX1X<XvX>XvXq.v F.K.[.[.}.<X<XhXhXlXlXlXlXwX4X-XoX!.!.=X5.3 5 , r r r &.uX,X4X:X=X:X=XoXI.I.K.K.G.I.sX,X=X=X<X1XlXlX:X:X9X9X:X:X1X1XlXlXnXlX>XlX1X0.7.wX`.J.+X+X3X XOX$XOXz.a.a.x. Xe.d.E.~.OXOX-X-X4X-X=X:X,XK.8.) ",
"=X1X>XI.>XI.L.,X,X=X/.>X1XlXlXpXlXpX1X1XpXlXhXpX1XlXT.lXK.U I.P.[.}.<X<X<XpXhXlXlXlXlXwX4X-XoXJ.oX=Xr.e r < r 8 v Z.dXbXbX4X:XwXzXmXzXlX1X,X4XvXzX4X,X>X1XvXwX:X:X9XwXwXwX1X9X9XpX1XvXlX>XlX1X0.=.:XJ.G.+XJ.OXf.@X XW.a.<.a.n.%XOXW.k.E.OX3X4X2XzX=X=X:X,XI.q.0.",
"sXsX=X/.1X=XT.pX,X,X>X<XpXlXvXlXlXpX1X1XpXlXhXpXpXpX[.pX<Xq.K.P.<X<X<X<X<X1X1XhXlXlXlXwX4X-XoXW.-X:Xr.e u , 8 , j ` V.9.9.#.! #.x x x c l c z x Q / #.r.:XmXlX;X:X9XwXlXwXwXlXlX1X<XlXhX1XlX>X) 6.9X'.'.:X;XwX+X+X+Xf.<.:.w. XqXOXE.w.w.E.oX-X-XzX4X=X=X,X>XK.8.",
"sX1XL.I.pX>XT.sX(.,XpXsXsXpXpXpXlXhX1X1XhXlXlXpX1X1XpX<XnX=X( I.vXhXiX<X<X<X1XpXlXwXwXwX4X-XoXoX:X:Xr.5 6 % 1 O   , 1 * = *   @ = & & & & = - 2 2 3 w c 4.,XvX1X;X7XwXxXwXwX9XlXlX1XhXpXiXhXI.G I.CX=XI.=XoXwX:X:X+XJ.p.;.<.|.3X~.k.d.e.d.E.oX-XzXlX,X^.>X<XK.Q ",
"1X=XB.Z.>X=XT.pXI.>XlXvXsX1X,X,XvXhX1X1XhXhXhXhX<X1XmX<XAX1XD I.mXnXhX<X>X<X<X1XlXlXwX4X1X;X;XoX4X:X5.= , . O . o ; O o & * @ + = * * * & = 2 = 5 = * = x F.1X,X;X:XwXwXwX9X1X1XvX1XpXsXpXpXK.v =XCXJ.6.u.u.oX`.:X:X|.g.<.p.l.OX X$X3XOX~.~.3XzXzXzX:XG.!.,XF.Z ",
"<XI.A.F.T.>X=XI.<X<X1XnXmXvX<X[.hXhXpX>X<XhXvXhXjX<XhX<XpXT.^ 8.xXhX<X<XhXlX1X<XvX<X'.=X;XI.F.F.-X!.#.t + + & % o + + O * & , , , & * & 3 w e w 2 5 , % u 4.,XsX,X,X,XoX-X4X3X+XwX4X4X4X,XsX/.^ :XxX:XJ.+X+XW.+X%X|.f.z.$XXXa.$.a. X$Xl.a.l.OXOXeX:XJ.G.:XwX8.i ",
"lX<XI.I.[.=X[.I.hX<X=X<X1XhXlXmX<XhXiX<X<XhXhXiX<X<XjX<XhXhXX.4.lX1X<X<X9XlX1X1X9X=XI.=X;X=XI.oX:X=X5.n , @     O O O O % : < < & * * = 5 t u u 5 w 5 e F I.lXsXlXlX4X-X:XrXrXwX3X:X4X,X/.,X,X9.1XcX+Xs.|.OX|.%X3X Xk.a.a.1.<.>.<.d.l.d.d.|.OXW.:X:XoXJ.;X:X0.C ",
"lX1X>X[.I.I.[.=X1X<X>X[.[.>XlXnX[.<XhX<X<XhXhX<X}.<XjX[.hXhXX...1X1X<X1X1X9X1X1X;X'.I.>X1X;X;X1X4X:X!.#.z 2 + % + o o   o O % & & % & , 5 e t t e t u m q.bXNX4X4X4X4X-X@X0X@X|.OX:XwX,XL./.uXZ.1XtX+Xs.W.+X@XqX%X%X Xa.,.*.>.1.,.w.a.d.~.%XOXE.oX2X:XoX!.!.q.Q ",
">X>X=XI.K.K.[.<XI.<XpX1X>X=X[.I.[.<XhXhXhXhXhX<XhX}.hX<X<XP.U ..<X<X<X1X1X1X1X1X>X'.'.;X1X<X1XlX4X:X2X-Xr.F m J F F M M M F R R ) / / ) #.%.%.%.Q / %.q.=XbXlX>XOX3XwX3X%X@Xf.;.OXOX3X-XL.=X,Xq.;XwX+Xf.+X:X:XeXOX%X3X Xa.>.*.>.<.e.d.l. XOXOXOX-X4X4XOXoXI.q.) ",
">X;X=XI.F.F.'.1XI.1XvXlX1X<X'.A.T.pXnXnXlXlXhX<XnX[.<XhX<X..Z P.=X;X1X1X1X<X;X;X;X=X=X<X<X>X<XlX=X!.:XzX,XL.L.,XsXsXuX,XuXsXdXbXlXlXvXvXvXlXlXvXvXmXmXlXsX1X>XJ.:X3X3X@X@X@Xn.a.@X X@X-X!.4X>X) J.:X+XJ.:X3X:X0X0X%X Xz.a.<.>.*.a.d.l.l.d.d.OX3XwX4X-XoX;XoXq.Q ",
"lX9X:XI.F.F.I.;X>XlXlX<X1XvXwX'.I.hXmXnXvXlXhX<XvX[.1XhXhXA.E <X=X:X1X1X<X>X=X=X1X>X;X1X;X=X>X1X=X!.!.=X,X=X,XsX,X,X,X,XuXuXsXsX>X1XsXsXsXsXsXlXlXbXmXlX1X,X<X,X:X@Xf.p.p.n.XXXXXX|.OXOXoX4X=X/ G.;X+XI.3X3XOX:XcXOXw.*.-.<.<.<.e.a.k.k.w.<.d.2XzX2XoX-X,X=X7.L ",
"4X:XoXK.s.F.I.;X4XlX1XoX:XcXwXI.I.hXmXnXlXhXhX1X1X<XlX<XlX<X] q.=X<X9X1X;X=X'.'.<X>X;X1X>X'.=X1X4X:X!.G./.1X,X/./.>X,XpXsXdXdXsX1XlXbXbXlXlXlXvX>X>X>X>X1X1XsXlX:X Xg.;.<.l.m.m.m.n.OXOX~.2X:X4.G.:XoXG.-X:XOX:XqX Xw.*.*.<.a.a.a.w.a.l.d.a.d.OX3XOXoX-X1XoX7.Q ",
"=XJ.s.q.r.G.oX-X1XwX,XoX1XzX=X=.I.1XmXnXpX1X1X1X>XlXmXI.1XmX4.Z >X1XlX9X;X'.I.I.>X=X>X<X;XI.=X1XzXzX=XG./.sX,XC././.,XsXdXdXdXpXsXvXmXbXsX<X<X1XAXvX1XpXlXsX<X=X3X*X%X X|. Xn.3.l.l.@X|.d.OX2XG.I.:X!.s.!.-XoX3XOX~.d.a.a.a.a.a.a.<.e.W.OXW.E.~.oX!.oX:X1XI.7.~ ",
"4X-X!.J.G.s.!.wX:X!.s.s.G.G.7.) 0.F.=XwXmXmXvX1X<X=X<X=XlX<XQ ~ K.I.=X;X;X=X=X=X;X>X=X=X>X;X;X>XlX4X<X,X<X1X1X1X>X>X,XpXsXdXdXsXvXlXpXpXhX1X=XI.P.[.<XpXpXpXpXlX|.f.g.f.m.XXXXm.;.a.|.@X3XwX:XJ.1X1X;XJ.G.oXOXoXOXOX~.l.l.E.W. X3XQ.l. X%X%X2X3X-X-XG.7.J.G.q.F.",
":X+X!.!.s.-.#.=.7.7.7.s.J.J.s.7.s.F.I.oX;X=X=X=X<X;X1X;XlX:XQ ~ >X;X<X<X<X1X1X9X;X=X=X;X1X9XlXlX4X,X<X<XlXvXbXvXvXlXpXiX,X>X>X>XNXlXpXpXlXnXnXnX<X1XlXhXpX1X1X1X3X@X X XXXXXm.l.f.f.g.p.G.:X2X=X,X1X,XI.!.-X4X:X-XoX~.E.E.W.~. XQ.l.Q.%XqXqXqXrX-X4X-XOXlX:Xs.q.",
":XW.G.W.W.d.w.7.=.-.r.d.G.G.d.s.J.oXoXI.J.G.!.;X:X;XlX;XwX-XQ Q 9X1X;X=X>X1XwXvX'.'.=X=X>X<X1X9X=XoXI.=X>X1X1X1XlXpXiX1XuXpXdXvXpX<X>X<X1XhXhXhX1XhXhXpX<X<X<X<XOX|.|.|.n.f.3.<.l.f.p.p.W.4X4X=X<X1X<X=X=X:X2X-X3X2XOXOXOXOX$X$XW.W. X3X3XOXOX@X:XwX:X4XCXwXs.6.",
"wXW.w.s.W.oXOXOXG.W.oXW.d.w.w.w.G.I.oXJ.F.F.oX:XoX-XwXoX:X;XL S <X=X'.I.oX>X:X1XvXvXvXlX9X9XlXvXwX1X1X1X1XpX1X<XpX1X>X>X>XuXvXnXhXhXlXnXnXlX1X<XhXlXnXlXhXhXnXmX-X@X@X@X@X Xl.f.a.f.f.oX4XzX4XL.,X1X<X!.!.=X=X!.2X2X-XOXOXOXOXOX~. X$X%XOXW.OX3X4X4X!.!.lX:Xq.8.",
"cX|.w.w.d.d.d.d.OXOXOXd.w.-.w.d.s.G.J.G.s.s.G.J.OX:XwXoX4X:XL A ;X=X'.=X;X<X;XoX<X1X1X<X=X=X;X1X:X;X=X>X<X<X=X=XlXpXiX>X>X>X>X<X<X<XhXhX<X<X<X<X<X<X<X<X[.[.<X1XI.oXoXOX|.l.d.a.f.W.oX-X4X4X^.9./.>X>XI.!.=X=X!.-XoXoXOX~.~.~.~.~.W. X$XOXOX3XcX3XwXoXoXlX:Xq.7.",
"3XW.d.E.|.E.w.-.f.d.d.w.-.w.d.oX!.!.oXoX!.J.G.s.-X:X4X!.wXcX~ C ;X=X=X1XwX9X>XI.I.=X;X>X[.[.;X9X;X=X=X<X1XlXpX1X>X1XpXpXvXvXjXjXhXhX<X}.[.<XhXnXhXhXhXhX<X[.<X<X>X-X:X-X|.f.d.d.OXOX!.G.G.G.C.&.L.I.I.L.L.=X,X-X4X2X2X2X2X2XOXOXOXl.d.d.a.w.d.OXoX4X:X4XmX,Xq.7.",
"@XE.d.|.@XOX~.E.d.d.w.w.w.w.f.!.3X-XoXOX:X:X-X!.OXoXOXd.wXmX~ c I.J.I.'.;X>XI.u.;X1XlX1X;X;X9XxX1X1X1XlXnXnXnXlX0.B.T.iXjXjXjXpXiXhXhXhX<X<XgXhXhXhXnXhXhX<X<X<X<X4X4X2XOXoXoXOXW.oX!.r.9.B.Z.Z.K.L.K.7.7.G.J.G.!.oXoXoX~.~.W.W.E.e.>.<.<.-.-.w.G.-XoX!.:XJ.6.7.",
"zXOXd.d.E.E.~.OXOX~.l.d.a.a.a.d.;XW.d.J.:XwX3XOXW.G.G.7.4XcXQ i B.0.0.q.K.K.q.4.) 4.8.| Q I _ | | | ) | ....) ^ U ( 8.S.K.S.8.[ B U ....( G x l x B G H G G G D S J Q Q J J ! #.5.G.J.Z.C.K./.>XL.L.q.) ~ #.4.#.5.5.5.5.5.-.-.-.-.$.$.w.W.OXOX-Xr.J.r.=.4.) ) u.",
"3XOXE.t.W.2X~.w.k.W. X Xl.k.l.W.OX;X:X:X+XJ.J.J.f.G.J.J.!.1X] * U 4.9.B.K.q.B.1Xq.q.q.u.u.u.A.A...].P.A.[.<XT.Y.pXA.D.iXiX{.S.' } } Y k c G U Z H Z m Z U ^ W U Q 0.L./.>X1XpX1XvX1X=XI.T.>XpXlX;X;X;XoX'.I.H.K.0.q.K.I.I.I.L.K.C.G.!.-X2X4X:X:X-XoXJ.J.I.I.J.H.",
"eX4X!.t.d.W.k.,.W. X X Xz.z.z. XOX:X1X:X+XoX|.|.+X+X:X-X1XbXB.5 ^ L.pXvXnXpX>XmXlXhXhXlXxXnXCXCX[.nXkX8XnXFXkXnXnX<XiXjXaXiX{.N.N.N.S.Y.>X>XsXmXbX4X,X,XpXiX>XT.=XpXlX1X1XsXlXlX/.>X1XlXbXmXvXlX1X9X9X9X9X9X1X<XhXlXnXNXNXNXNXNXbXbXbXbXmXbXbXzX1X,X,X1X1X:X'.H.",
"5X3XW.t.y.d.d.e. XOX$XOX X X X$X-X:XwXwX:X+X+X+X+X+X+XoX>XlX9.8 B.bXSXvXlX1X=X>XmXnXxX9X9X9X9XwXP.<X[.P.<X<X[.<XkXiXjXiX{.iXY.W } o.U.jXjXI.I.1X:X=X=X>X1X1X<X=XmXmXlX=XI.=X<X1Xq.K.=X1XlXsX1X<X+X+X;X:X:X:X1X1X=X=X>XiXiXpXiX>X,X6X,X,X=X>X=X/.>X:X1XlX9X=XF.6.",
"OX~.d.y.y.d.W. X X X X X X X#X$X;X1XwXwXwX:X:X3X+XJ.J.J.I.>X%.8 >XSXvXK.K.T.I.I.=X'.I.H.H.H.H.H.=XhX;X'.8X<X[.8X[.}.<XY.Y.iXS.h V.}.MXSXhXK.q.G.G.G.J.!.>X:X>X=X,X,X!.s.r.G.!.=XG.G.G.G.G.G.!.oXG.J.J.'.'.oX'.'.>X>X1X1XpXiX1X,XsXfX6X4X4X4X4X4X!.=X:X1X;XI.6.) ",
"~.E.y.y.y.d.~.3X X X X X X X XOX;X1XwXwXwX:X:X0X;XoXoXI.I.>X9.r ,XmX>X0.K.pXpX<XF.F.J.J.oX;X:X1X9XxX<X;XhX1X=XhX[.[.}.[.iXMXB.4 o.jXHXFX<X:X:XoX3X@XOXOX;XoXI.J.oXOX!.G.G.oX-XoX-XoX!.G.t.d.!.-X+X+X;X;X;X;XoX=XlXlXlXlXlXlXlXsXzXfXsX4X4XsXlXlX,X1X1X1X1X=XF.6.",
"2XE.y.y.w.d.E.OX Xz.k.l.z. X X X-X:XwXwX3X:X:X:X;X|.oXoX=X>X%.y =XlX>XK.>XlX=XI.oX+X;X:X:X:X;X+X'.;X'.'.<X[.P.<XI.P.T.{.pXMXV.4 W }.AX}.u.oX+Xf.|.W.W.G.J.J.I.J.OX$XOX~.~.OXOXE.E.~.OXOXE.E.~.OX:X9X9X9X:X:X;X;X=X=X=X=X=XT.T.T.=X=X).).!.!.J.J.1X1X1X1X1X=XP.A.",
"5XW.w.t.d.d.k.W. XW.k.k.z. X XOXOX:X4X0X:X+X+X+X+XG.!.=X/.T.] t K.<X>X=X>XI.0.u.I.oX-X;X;XoXG.s.:X9X:X9XmX9X=XlXP.K.T.>X>XpXq.y 0.gXAX9XJ.|.OXW. X X|.|.|.+XwXwXOXOX~.E.E.~.k.w.y.k.~. XQ.l.Q.OX:X:X:X:X-X+XoXoX1X,X<X>X>X>X>X=X:X2X4X4X4X4X,X,X=X=X>X<X<X=XP.B.",
"5XE.5.t.E.E.E.W.OXW.k.k.z. X$X@XOX;X:X:X;X+X+X+X+XJ.+X:X>X=X%.y 0.I.[.=X=Xq.q.:X=.w.J.:XwXwX3X:XoX;XoX:XlX;XI.1XI.I.<XpX<X>XF.D A.{.kX9XoXg.f. XXX Xz.a.p.d.J.oX X XQ.k.l.Q.k.1.l. X$XQ.k.k.Q.%XoX+X;X;X;XoXoXoX1X:X:X;X=X=XoX=XG.W.oX:X4X4X4X4XI.=X>X1XpX<XI.A.",
"zXOXt.t.E.~.E.e.Q.Q.k.a.j. X Xk.oX+X:X:X;X+X+X+Xw.+X+XJ.=X1X] 4 4.<X4.1X;XS I.wXs.J.oX!.OX@X$XOXG.wX;Xs.G.oXoXoXlXvX=X>X>X>XI.g ..nX9XoX|.f.l.>.>.m. X3.w.OX@Xf.$Xz.j.a.l. X#X#X#X#X Xz.l.l. XOX-XoX-X2X:XoX!.oX4X:X!.J.J.!.!.oXW.OXOXOXOX-XwXmX1X<XlX>XvXlX8.0.",
"5X~.t.t.E.~.~.k.k.k.a.e.a.z.z.a.!.+X:X;XOX+X|.+Xs.+X+XJ.,XpX] 6 K.lXq.9XwX .!.!.s.W.OX~.~.OX XW.OXwXJ.7.oXxX1XoXwXlX=X<X>X>XK.y 4.CX9XoXoXf. X1.a.n. Xa.d.OX@XW. X XQ.l.k.l.#X&X X X Xz.z.z.#X%XeX4X4XwX4X-X!.oX!.W.J.W.oXoXW.W.~.oXOXoXoX-XwXcXlX1XpX=XvXvXX.X.",
"2X~.d.d.W.OXOXW.e.a.a.a.a.n.z.d.!.+X:X:X+XoX|.+XW.;XoXJ.1XlX%.9 P.nXF.;XvXG.;Xs.r.E.~.W.E.Q.Q.k.OXoX7.=.+XcX;XG.:X4X=X<X,X=XC.t A.AX9XoXoXW. Xj. Xz.z.z.|.|.|.|. X$X%X Xk.d. X3XW. X X XQ. X%X3XeX4X4XzXwX-XoX-XW.W.!.OXOXOXW.d.W.~.~.~.!.OX4XzXmX1X1X>XNXBXX.[ ",
"2X~.E.G.W.~.~.W.e.d.k.a.k. X XW.oX;X:X:X+XoX|.|.+X;X!.I.1XlX%.e A.lXH.I.1X;X3Xd.-.d.~.E.k.k.k.j.d.J.p.7.oX:XJ.s.!.:XI.<X,X=XK.y K.AX1X'.oXE.$Xz.&Xl.k. XOXE.G.oXOX%X3X@XW.l. X%X|. XOX X X X@X3X-X=X:X4XwX:X-X3X:X@X@X@X@X|.f.p. X~.W.E.W.oX4XlXbXpXsX>XvXvX[ [ ",
"2X-X~.W.E.k.k.k.<.a.k.a.j.n. X X+X;X:X:X;X+X|.|.+X+XI.J.<XpX%.y 0.9X=XH.+X;X:XOX$.e.E.k.k.k.k.k.-.OX3XOXOXJ.s.!.d.oXJ.,X,X=XL.g P.NX=XI.!.E.$X~.%Xk.a.~.OXd.s.oX@X@X:X@XOX|.OXOXOX@X@XOXOX|.OX:X-X=X:X4X4X2X-X3X3X@X X|.|.W.l.f. X|.E.E.!.-X2X4XlXsXmXiXvXuX[ 8.",
"2X2XOXW.d.e.e.a.<.a.a.<.<.j.n.W.-X:XwX0X:XOX+X+X+X;X!.J.>X>X] g q.9X9XoXoX+XoX:X$.e.Q.z.j.h.h.h.$.OXeX3XoXw.7.oXs.oXJ.,X=X=XJ.l T.MX[.I.=XW.$X$X~.k.k.~.W.d.d.oX+X+X;X+X+X+X+X+X;X:X:X:X+X+X+X;XlX6X4XzXeX-XoXOX|.l.a.p.a.l.n.|. X|.W.~.OX:X2X4X1XlXNXuXpX>X[ V.",
"-X2X-XW.t.w.y.e.w.a.a.>.>.a.z. X:X4XwXwX:X+X+X+X+X:X;XoX>X/.%.z ..].9X;X9X-Xd.-X-.k.$XQ.h.e.1.1.-.W.|.|.|.s.w.oXJ.:X!.-XoX!.J.c [.NX[.=X4X!.2X%Xk.~.$X~.E.t.W.,XG.+X1X:X+X`.oX;X+X;X:X:X;X;X;X:XzX6X4XzX4XoX!.OXE.d.w.<.a.k.z.|. X|.|.OX2X4X,X,XsXpXNXiXvXpX[ V.",
"!.OXOXW.t.,.y.a.d.l.k.<.>.a. X@X:XwXwXwX0X:X+X+X;X:X:X>X>XT.%.Z E 6.oX;XlX3Xp.OX,.Q.%X_.h.2.2.>.l.|.f.f.:XOXW.:XoX4X=X,X!.!.G.l >XNX=X>X4XoX3X2Xk.OX3XOXG.G.!.,Xu.oXwXwX'.H.oX9X'.=X:X:X:X:X9X9X<X>X=X4X:XoX~. X~.l.a.a.a.l.l.l.OX|.oX@X3XwX,X,XlX1XlX>XvXvX] 8.",
"wXJ.OXd.w.d.-.d.d.d.k.W.~.|.+X+X+X:X7XwXwX0X7X:XwX'.:X1XoX>Xq.t S oXlX-XwXcX3X Xe.1.j.k.e.$.,.k.OX|.s.;.7.G.oXoX;X:X1XoX,Xr.<Xe I.AXlXI.zXcXW.w. XOXOXOXoX=X,X4XJ.J.oX:X=XH.H.'.9X1X<X;X<X8XhXkXjXiXpXvXzX2XE.a.<.j.Q.Q.d.a.W.3X7.oXwX:X=X:X1X1XvXmXmXlX1X=XB.( ",
"0XJ.+Xp.w.d.y.E.d.d.d.E.|.+X:X7X+X@X7X0XwXwX7X:X9X'.1X9X=X<Xq.6 ) 1XzX=X2X5X Xz.a.a.j.k.e.,.y.k.W.W.g.p.s.|.oXJ.I.oX,X;X4XJ.4Xl 1X=XI.1XwXs.;.+X+X+X+XoXI.J./.>XoXoX;X:X=XI.I.=X;X;X<X<XhXhXhXgXMXMXjXlXwXOXe.*.1.1.1.a.d.d.W.!.4.K.=X=X,XwXlX1XJ.=X,X1XlXlX=Xq.",
"oXs.|.7.-.d.y.~.E.E.E.~.|.+X:X7X+X@X7XwXwXwX7X:X:X'.9XwX=X1Xq.6 4.4XsX!.~.OXl.l.l.j.j.k.j.y.y.e.d.f.f.s.J.+X+XJ.I.+X,X,XvX>X>Xx /.,XsX!.q.J.:X|.@X:X;X+XI.I.I.I.1X=X;X:X;X'.oX;XoXoX;X9XwXxX9X<XnXvXhXlXwXOXa.$.z.x.1.a.Q.OXOXJ.!.=X=X=X,X4X<XI.=X<X4X4XlX,XG.#.",
"7.7.J.;.-.e.,.k.$X$X$XOXOX+X+XoX+X@X7XwXwXwX7X:X;XoXwXwX=X1Xq.4 %.>X=Xr.d.E.k.z. Xl.k.k.k.h.e.y.d.f.G.f.|.;X;XoX;X:X1X4XvX>Xq.z F.I.1XF.) ;XCXf.0X0X:X:X;X=X=X=X9X;XoX;XoX'.oX:XoXoX+X:XwXrXrXwX1XpXpXwXwX3X X1.#Xz.j.j. X3X@XJ.4X1X1X1X4X1X>XI.lXvXzXlXsX>X5.H ",
" .7.+Xt.-.d.y.k.OX2X3X3X3X+XoXJ.+X@X7XwXwXwX9X:X;XoXlX9X=XpXB.4 9.>X=Xr.d.d.d.W. X Xl.k.k.k.h.y.W.|.J.G.I.:X:X;X,X:X,X1XsX,XQ x I.Q 4.oXF.s.+X|.@X;X;X:X:X<X,X>X9X=X'.'.'.J.`.OX+X|.z. X*XeXrXeX:X9XwXwX0XqX X1.x.m.z.j.k. X XG.W.=X:X1X1X1X4XlX,X1X4XlXvX1XF.Q ",
"=.s.zXW.t.W.d.~.~.~.2X3X4X:X;XoX+X:X7XwXwX9X9X:X;X;XlX1XI.hXF.4 B.,X,X!.W.G.d.W. X X XE.k.^.E.d.oX+XoXG.oX:X:X+X;XoXJ.,X1XsXH T K.9.q.J.J.+X;Xf.|.|.oX;X:X<X,X>XpX[.I.I.'.J.G.|.%X Xx.x.#X&X&X&XwXcXcX0X%X%Xk.O.l.&X&Xn.k. X@XoXJ.I.=X<X,X=X,X4X1X4X4XlXvXlXK.~ ",
"s.+XCX!.w.!.^.2X~.oXOXoX-X;X:X:X;X:X9XwXwXwX9X1X;X;XlX<XI.hXK.4 9./.,X/.oXJ.s.l.l.$X%XW.k.^.~.^.OX;X;X+X;X:X;XJ.=XJ.F.=X1XvXD %.B.bXlXq.J.cXwXf.+X|.oX;X,X,X,X=X1X[.I.I.oXG.d.l.%Xz.x.x.c.M.c.v. X0X0X+X@X0Xn.*. XqXqX Xn.%X0XOX-XI.J.>X<X=X=X,XzXvXlX4XvXlXG.~ ",
"J.:XCXJ.-.E.W.5X5X2XOX!.!.oX;X:X;X:X9XwXwX9X9X1X<X<XlX>XK.hXK.4 U B.I.I.oXJ.s.W.d.%X3X~.d.^.~.~.oX:X1X:X:X:XoXs.,X/.F.=X,XbXm 0.>XlX>X!.:XG.p.wX@X+X+X:XwX4X1X>XpX[.I.oXoXW.d.k.&Xc.x.x.c.c.@.O.*.g.|.n.@XrX0Xk. X*X*Xl.l.$X@XW.oXr.q.=XlXvXlXlXwX1X,X1XzXmX=X5.",
"7.vXmXG.5.y.E.2X2X~.E.!.!.I.I.I.H.oXwXwX1X;X=X=X1X1XmXmX>XP.] g b ^ T./.1XwXs.OXf.W.~.OXoX~.~.~.:X-XoXoXoXoX!.I./.K.T.T.sX>XU H K./.I.J.;XoXs.g.0X:XwXcXmXzX1X,X<X>X<X1X-XG.E.$XQ.c.c.c.v.@.@.@.>.<.f. X%X@X|.f.a.qX@Xl.3XOXk.0X!.!.=X,X,X4X4XlX:XlXlX4X1X4X!.0.",
"F.vXwXr.y.t.t.^.^.E.E.E.!.:X:X;X'.'.oX;X1X9X9X1X1X=X=X>X>X>X^ ; U 8.>XL.!.oX7.W.G.|.OX2X3X:X~.^.oX-X:XwX4X:X;X=XL.C.T.T.sX(.U ^ /.,XI.J.-X+XG.|.+X+X+X:X1X4XsXlXpX<X<XwX4XOXOX%Xj.x.x.v.v.+.@.@.1.a.l.OX3X3X+XoX:.oX+X|.wX@Xd.OXJ.I.=X,X<X,X,X,XlXvXwX>X>X,X!.r.",
">XmX,XC.G.^.G.^.).6X).L.G.=X=XF.lX9X1XlXmXmXlX>XmXhX1X=X>XpX8.4 U V.uXT.=X;X7.+XG.W.oXoX-X=X).!.oX:XlXlX1X,X>X,X>X/.pX>XuXL.D U 1X1XI.F.+X+XJ.+X|.+X:X1X1X1XsXsX=XJ.J.I.!.G.d.k.j.k.x.j.1.2.2.2.2.<.a.W.OX3X3X:XoXwX:X+X4X:XOXzX!.=X,X1X4X4X1X,XlX1X;XG.G.J.I.K.",
"=XlX<XG.!.).^.).6XfX6XL.G.=XI.q.I.'.=X1X9X;XI.B.>X<X>XK.V.R.] 9 c [ iX=X<XwXJ.:XoXoX!.!.~.).-X,X=X,XwX,X=XI.>XsXpX1XbXpXuXK.Y ` pXsXI.F.oXoXG.+XJ.+XwXwX1X<X>XI.wX:XoXoX-XoX~.E.k.k.l.j.e.h.1.2.1.1.e.k.!.oX=X=X[.T.I.I.J.s.t.J.oX>X,XlXlXlX4X1X,X>XJ.F.F.K.G.I.",
"P.1X,X!.,X-X).6X6XfX6X).=XlXlX>X'.>X1X9X1X1XpXhXI.R.T.R.R.>X8.4 k { R.V.F.=Xs.+X+X;X:X4X:X=X^.G.F.!.,X,X>X>X<XsX,X,XvXuXuX(.[ R.pXlX/.J.;XoXf.|.J.+X;XoXI.oX/.L.wX2XoX!.oXoX!.G.d.E.E.d.d.E.E.e.z.z.z.~.OX=X>X=XR.K.>XlX1X!.G.r.=X>X,XwXlXlXlXlXzXwX<X=XI.I.J.I.",
"=X1X>X!.,X,X).fX6X6X).-X,X1X1X<XCXmXxX<XI.I.1XmXB.] 8.R.pXpX^ . W V.S.U Q q.=.s.G.|.-X:X!.r.#.T %.F.>XlXlX<X>X>XvXpXvX(.(.T.] R.pXlX>XJ.;XoXf.|.+X;XJ.7.r.;XsX,X:X-XoXE.W.~.!.W.G.!.!.G.!.2X-XE.>.2.h.^.6XzXbXBXjXR.R.uX>X,XbXmX,X,X,X4XlXvXzXmXAXmXvXlX<X!.=X,X",
"1X>X9.~ r.C.r.^.^.5.&.r.C.4.4.q.H.F.8.~ Q Q ( ] U c v ^ ^ D y X [ S.R.( ..I.7.s.s.s.r.7.5.#.) / r.F.I.I.I.K.B.9.sX(.(.B.K.K.] R.pX4XL.q.F.s.p.f.+XoXs.=.7.;X,XL.!.-X-X~.W.-X4X4X!.=X^.7.0.K.7.! N N K $.r.L.T.R.V.b b ^ U / Z.G.r.r.F.F.I.=X>X<X,X=X!.=X!.J.=XlX",
"=X0.c u m A m K F j a F T Z D ) Z Z G Q ) 4.( ^ ^ U { { k 9 y h [ R.aXK.<XSX;XoXoXs.#.J Q 4.L.,X1X!.q.%./ / / ^ B.] %.` Z.(.K.vX,X>Xq.~ =.=.=.s.;.7.=.~ 6.K.9.F A ! $.J J #.7.r.r.G.9.H Z Z l 5 f f f n m m z k h > k [ R D M u F A A S J ~ 4.5.#.~ ~ 8.7.r.=XmX"
};
