/* XPM */
static char *_756817b7794498295365cb2351a02568UoJfqXSfq9DTDX8[] = {
/* columns rows colors chars-per-pixel */
"128 128 248 2 ",
"   c #3E1E00",
".  c #59340B",
"X  c #5E3912",
"o  c #4F2A03",
"O  c #613A0F",
"+  c #643C14",
"@  c #653D19",
"#  c #693F15",
"$  c #644114",
"%  c #684217",
"&  c #6B441B",
"*  c #6E491D",
"=  c #67461A",
"-  c #714A1F",
";  c #71471D",
":  c #6E4622",
">  c #6B4C23",
",  c #734C23",
"<  c #764E2A",
"1  c #794E2A",
"2  c #765125",
"3  c #795127",
"4  c #7B542A",
"5  c #7C5A2D",
"6  c #765629",
"7  c #7E5B34",
"8  c #7C5633",
"9  c #6F5022",
"0  c #7E6035",
"q  c #82592F",
"w  c #81572D",
"e  c #835C33",
"r  c #875E37",
"t  c #846235",
"y  c #8A6236",
"u  c #85643B",
"i  c #8B643A",
"p  c #8C6A3D",
"a  c #90693D",
"s  c #95713E",
"d  c #A77038",
"f  c #8B6B43",
"g  c #8B6A45",
"h  c #936B43",
"j  c #976D47",
"k  c #8E7348",
"l  c #937343",
"z  c #93744A",
"x  c #9A744B",
"c  c #9A7B4B",
"v  c #987647",
"b  c #9C7C53",
"n  c #997853",
"m  c #957252",
"M  c #A27C4E",
"N  c #A5784A",
"B  c #A37D53",
"V  c #A77D57",
"C  c #B37B42",
"Z  c #9D8257",
"A  c #A1824E",
"S  c #A48353",
"D  c #AA8455",
"F  c #A4845B",
"G  c #AB845B",
"H  c #AB8B5C",
"J  c #A78959",
"K  c #B28D5D",
"L  c #B48658",
"P  c #B4935E",
"I  c #AF915D",
"U  c #AC8D63",
"Y  c #A88A66",
"T  c #B38D63",
"R  c #B58F68",
"E  c #AE9166",
"W  c #B39364",
"Q  c #B99566",
"!  c #B4956B",
"~  c #BB956A",
"^  c #B6996B",
"/  c #BB9B6C",
"(  c #BA9B65",
")  c #B59B73",
"_  c #BB9C72",
"`  c #BD9D7B",
"'  c #B69873",
"]  c #AE9974",
"[  c #BFA16D",
"{  c #BCA174",
"}  c #BCA27A",
"|  c #C39D6C",
" . c #C49766",
".. c #C39D74",
"X. c #C89E78",
"o. c #C08D62",
"O. c #C3A36D",
"+. c #CEA46C",
"@. c #CAA66B",
"#. c #D7A76A",
"$. c #C3A374",
"%. c #CCA574",
"&. c #CBAA75",
"*. c #C3A47B",
"=. c #CBA57B",
"-. c #C6A97C",
";. c #CBAB7C",
":. c #C7A977",
">. c #D2A773",
",. c #D4AB74",
"<. c #DAAD74",
"1. c #D4AD7C",
"2. c #D9AE7B",
"3. c #D5A679",
"4. c #CDB17E",
"5. c #CBB175",
"6. c #D4B275",
"7. c #DCB275",
"8. c #D4B37D",
"9. c #DCB37C",
"0. c #DCBA7D",
"q. c #D7B878",
"w. c #CFB06F",
"e. c #E1AD69",
"r. c #E1AD76",
"t. c #E2B57D",
"y. c #E3BA7E",
"u. c #EBBC7B",
"i. c #E4B574",
"p. c #E1B16F",
"a. c #D09F5D",
"s. c #E1C27D",
"d. c #F1C17F",
"f. c #DFC07D",
"g. c #BAA784",
"h. c #C09F80",
"j. c #C5A583",
"k. c #C4AA82",
"l. c #CCAD83",
"z. c #CCAC8A",
"x. c #C9A986",
"c. c #D2AD83",
"v. c #D2AF89",
"b. c #D8AD81",
"n. c #CDB284",
"m. c #CDB38A",
"M. c #CBB68C",
"N. c #D4B384",
"B. c #DBB584",
"V. c #D7B985",
"C. c #DCBB85",
"Z. c #D4B48B",
"A. c #DAB68A",
"S. c #D6B98B",
"D. c #DCBC8B",
"F. c #D4B593",
"G. c #D5BB92",
"H. c #DCBD93",
"J. c #DEBE99",
"K. c #D7BA95",
"L. c #CFB491",
"P. c #E1B683",
"I. c #E3BB84",
"U. c #E9BE85",
"Y. c #E2B68A",
"T. c #E3BD8B",
"R. c #E9BE8B",
"E. c #E8B681",
"W. c #E2BE92",
"Q. c #EABE91",
"!. c #E2BE9A",
"~. c #F1BE8B",
"^. c #DEC18D",
"/. c #DDC186",
"(. c #DDC294",
"). c #DDC39A",
"_. c #DFC99E",
"`. c #DAC595",
"'. c #E4C285",
"]. c #EBC286",
"[. c #E4C38D",
"{. c #EBC38C",
"}. c #E6C98B",
"|. c #EBCA8D",
" X c #E8C985",
".X c #F1C58D",
"XX c #F2C98D",
"oX c #F3C687",
"OX c #E4C493",
"+X c #EAC593",
"@X c #E6C995",
"#X c #EBCB95",
"$X c #E4C59A",
"%X c #EAC69A",
"&X c #E5CA9B",
"*X c #EBCB9B",
"=X c #F2C694",
"-X c #F2CA94",
";X c #F2C69A",
":X c #F2CD9C",
">X c #F8CD9D",
",X c #F9CD93",
"<X c #EED194",
"1X c #EED09C",
"2X c #E6D09D",
"3X c #F2D195",
"4X c #F2D29D",
"5X c #FAD39D",
"6X c #FBD598",
"7X c #F4D08F",
"8X c #DDC5A2",
"9X c #E6C6A1",
"0X c #E5CBA2",
"qX c #ECCDA2",
"wX c #E5CDAA",
"eX c #EECEAA",
"rX c #ECC6A1",
"tX c #F1CEA2",
"yX c #F3CEA9",
"uX c #F8CEA1",
"iX c #E6D0A4",
"pX c #EDD2A3",
"aX c #EDD3AA",
"sX c #EFD8AC",
"dX c #EFD9A7",
"fX c #F3D3A4",
"gX c #FAD4A4",
"hX c #F6D9A4",
"jX c #FADAA5",
"kX c #F3D5AB",
"lX c #FAD5AA",
"zX c #F4D9AC",
"xX c #FBDBAC",
"cX c #EED6B1",
"vX c #EFD9B1",
"bX c #F5D5B1",
"nX c #F4DBB2",
"mX c #FBDCB3",
"MX c #F5DEBA",
"NX c #FCDEBA",
"BX c #FDD6B2",
"VX c #FFE1AD",
"CX c #FEE1B5",
"ZX c #FCE3BB",
"AX c #F9E3BA",
"SX c #FFE9C3",
"DX c #FDE6C2",
"FX c #FFF3CD",
/* pixels */
"*.K.).G.$XK.m.Z.$Xm.*.l.Z.G.K.$XOXOX*X1XfXfXfXfX*X*XpXfXeXeXbXbXNXNXZXCXnXkXkXnX$X0XeXkXkXkXkXfX@X@X@X@X#X#X&X*X&XOXfX&XqXfXl._ ;.$.O.&.V.+X#X#X[.+X#X#XD.8.&.&.OXD.D.OX%X:X*X&X*X:X*X%XOX%XT.N.{ m.{ M._.m.M.m.n.n.M.M.G.`.`.S.OXD.OXjXfXD.4.N.;.N.V.N.D.OXD.$.",
"G.aXaX0XkXaX$X0XnXaXaXnXnXkXnXZX0X*X*X*X&X@X@X@X1XfXfXkXyXeXeXeXZXmXkXeX0X*X0X*X$X$X0XpXfXpXqX*X@X@X@X@X@X#X&X&X*XOXfX&X*XqX-.^ 8.8.N.C.[.@X}.[.V.V.V.}.:X4X:X#X*X&XOX%X%X:X%X%XfXfX:XOXOXOXA.;.Z S.).zXZXaXzXpXzXzXnXAXAXZXAXCXxX1X1XxX*X4.[ $.$.OXxXVXfXOX$.c ",
").kXkX0XkXkX0XaX).$XeXkX0X).).qXeX*X&XOX^.D.D.C.4XfXfXkXkXyXeX0XZXkX&XOXOXOX$XOXOXOX&X*X*X&X$XOX#X#X#X@X@X@X@X@XfXOXkX$X$X*X_ U V.[.#X#X+X[.C.V.[.8.&.8.#X4X#XC.OXOXOXOXOX%XOXOX:XfX:XOXOXOXA.;.k `.zXzXzX&XaX&X&X&X&X&X0X&XiXiXfX*X&XfX*XN.;.N.OXxXCXjX@XV.$.J ",
"K.aX0X$X0X0X0XeX).$X0XeX0X).).$X$XOXOX^.D.^.[.OX1X1XfXkXbXbXeX9XxX*XOX(.&X*X*X$XOXOX$X&X$XOXOXOX#X#X#X#X@X@XOX@XfXOXkX$X$X*X_ U [.#X4X:X@XC.B.B.@XN.&.&.V.[.V.;.A.A.D.[.OX%X&X&X&X*X%X%X%X%XOXN.c *XpXD.n.n.OXS.OXOX&XOXOXOX@X&XOX^.^.&X*XOXOX&XxXVXfXD.V.D.N.[ ",
"$XkXaX$X0XaX0XkX0X0X$X).0X0X0X).$XOXOXOXOX@X#X#X#X*XqXkXnXbXeX9XfX&XOX@X*XfX&XOX&X&X&X@X@XOXOX[.#X#X#X@X@X@XOX@X*XOXfX$X$XqX$.W @X#X#X@XD.V.V.D.C.B.8.8.D.}.+X+XOX%X&X%X*XfXfXgX*XfX4X%X%X*XOXA.J fX*XN.8.S.4XD.&X*X*X*X@X@X*XfX*X&XOX@X@XOXOXOX@X*X*X&X1X1X;.S ",
").kXaX$X0X0X0XaX$X).Z.m.G.$X$XG.0X*X&X@X@X@X@X#X#X&X*XkXnXbX9XH.pX#X@X@X#X@X^.V.#X#X@X@X@X@X@X[.#X#X@X@X@X@X@X@X$XD.qXOX$X*X$.W #X+X[.D.V.V.T.}.V.D.[.D.C.D.@X*X%X*X:X*X%X&X%X:XgXxXgX:X%X%XOXA.D #X+X8.8.8.C.O.C.T.T.T.B.B.[.#X*X*X&X@X@XOXOX@X@X&X@X@XfXfX$.l ",
"K.aX0X).0X0X$X0X0X0X0X).$XaXaXqX0X*X*X*X*X#X@X@X*X*X*XkXbXeXJ.z.1X#X@X[.[.[.^.^.@X@X@X[.}.}.}.}.@X@X@X@X@X#X#X#XOXS.*XH.H.$X_ U *X@XT.C.D.[.[.[.[.}.@X[.B.8.V.C.OX%X%X%XOXOX@X#XfXjXfX*X%X%XOXA.v Y.Y.2.,.| +.P Y.[.{.T.Y.Y.+X4X@X@X@X@X&X*X*X*XfX1XOXD.OXOX$.c ",
"J.kXaX0XaXaX0XeXm.).0XK.G.).0X$X$X$X*X*X1X*X#X#X4X*XqXkXkX0XK.*.*X#X}.[./.[.#X4X}.[.[.[.[.[.}.}.}.}.@X@X#X#X&X*X(.S.$XS.S.H.^ J :X+XT.T.}.+X[.D.T.[.[.[.T.T.[.[.T.OX%X%X&X&X:XgX%X:X*X&X%X:X%XT.s 9.9.9.2.,.T.{.9.P.I.P.9.9.{.>X4XfX1X&X@X@X@XOXOX*X*X&X*XOX[ v ",
").kXaX0XaX0X$X0X0X$X$X$XK.m.G.qX$XfXfX&XOX*X4X#XfX&XkX0XeXmXK.l.4X}.V.0.^.@X#X}.<X#X#X#X#X#X#X<X#X[.^.[.*X4X@XS.fX*XN.$.-.S.n./ #X4X[.V.+X@XC.[.V.}.#X[.C.[.+X+X&XOXOX%X:XfXfXfXxX%XOXOX%XgXfXA.M -X=X2.,.9.{.<.,.2.9.I.R.{.{.+X@X*XfXfX&XOXOX@XOXxXOXD.VXD.J W ",
"K.aXeX$XaX0X$X0X0X$X$X0XK.Z.K.0X$X*X&XOXOX*X*X[.fX&XkX0XeXmXK.x.1X}.C.C.}.#X1X#X#X#X#X@X@X#X#X#X}.[.^.@X1X4X*X^.;.N.N.N.H.&XS.^ @XfX#XB.[.}.D.[.V.[.[.C.V.[.[.D.OXOXOX&XfXgXgXgXfXOXOX&X%X:X%X$.D =X{.P.P.9.T.>.3.3.9.I.{.{.+X+X#X*X1X*X@XOX@X&XOXfXOXD.*XV.W W ",
"G.0X0X$XaXaX0XaX0X0X0X0X).K.$XaXkXfX*XOX*XfX4X#XfX&XxX0XeXmXF.k.fX#X^.^.@X*X1X*X#X#X@X@X@X@X#X#X#X}.@X#X4X*XOXS./ ;.S.H.qXfXS.W T.jX4X8.N.[.[.}.[.[.[.C.D.}.[.V.D.T.OX&XfXxXxXgX:XOX%X:X%X*XD.Q Q +XR.{.=XY.T.3.3.2.B.Y.R.+X=X+X*X*X*X@XOXOX@X*X@XfX*XOX^.D.:.W ",
"K.kXaX0XkXkX0XaX0X0X0X0X0X$X0XaXkXfXqX&X*X1X4X1X4X&XxXqXeXBXF.j.fX*XOXOXOX&X&X@X*X*X*X*X&X&X&X*X4X#X*X4X#X^.N.;.N.D.H.H.&XqXS.W A.xXfX8.8.T.[.[.#X#X@X[.@X#X+XC.T.OXOX&XfXxXxXfXfX&X:XfX*X:XOX| =.;XY.+XuXT.Q.B.A.B.B.B.T.Q.+X%X*X*X@XOXOXOX&X1X1X*XfX#X^.@XN.F ",
"$XNXnX0XbXkX0XaX0X0X0X0X0X0X0XpX$X&X*X@XD.V.[.#X4X#XxXqXeXbXL.*.*XOXOXOXOX&X*X*X*X*X*X*X*X*XqX*X4X#X*X4X@XN.;.4.$X*X&XOX&X*XN.W D.jX4X8.8.C.D.[.#X#X@X[.+X*X#XC.OX#X&XOX%XfXfX%XfX&X*X:X&X:X%X;.1.*XB.A.%XY.OXY.%XQ.A.B.B.Y.%X%X*X&XOX^.OXOX*X1X*XOX@X&X@X&X;.l ",
"0XNXnX0XbXkX0XaX0XaXaX0X0XaXaXqXOX&XfX1XOXN.D.1X4X#XxXqXyXbXz.` G.D.H.OX$X*XfXkXqXpXpXfXfXfXeX*X#X}.#X1X@X8.N.^.OX*XqX*XfXeXN.H [.fX#XV.C.V.N.T.}.#X@XT.[.#X+XD.OX%X%XT.OXfXfXOX:XOX&X%XOX%X%XN.$.%Xc.;.A.S.OXA.%XOXH.A.A.D.OX%X*X@XOX^.OX@X*X*X@XOXD.OX*XD.I p ",
").nXkX0XkXkX0XaX0XkXkX0X0XaX0X$X*X*XfXxX*X^.[.*X1X@XxXqXyXbXz.` J.OX$X$X*XqXkXkX0XqXeXfXfXqXqX*X1X@X#X4X@X8.S.*XD.$X*X*XfXpXN.H #X#X[.[.#XV.;.D.T.#X#X[.[.+X#X@X[.&XOXN.A.:XfX%XfX%X:X:XOX%X%XN.Q $XZ.-.v.S.%XS.H.H.!.!.!.OX$XOX*XOX^.^.OX&X*X&XOX&XD.OXfX;.c A ",
"G.aX0X$XaXaX0XaX0XkXkX0X0XaX0X).*XOX*XfXfX[.C.[.1X@XxXeXyXbXz.` 0XeXeX0X0X*X0XeX0X0XeXeXeXqX0X*XjX1X1XfX@X8.V.fXOX&XOXD.OX&XN.W *X@XC.@X4XB.%.C.T.#X4X#X@X#X:X:XD.@XT.8.A.4XgX*XfX:XgXxX*XfX*XN.H *XW.;.Z.OXqXN.l.N.!.*XqX%XOXD.&XOXD.^.OX*X&X@X&XxXOX@XjX/ s ^ ",
"kXkXnXkXaXaXaXkXkXkXkXaXaXaXeXpX$X*XqX&XOX^.@X*XfX*XxXqXkXNXx.Y $XkXeX$X$XJ.J.kX0X$X$X$X9XeXkXfX^.hX<X4XV.( C.@X4X@X#X*XOX@XD.( #X4X[.V.[.V.8.C.#X#X#X*X#X#X#X#X[.@XOXD.V.@X4XfX4X*X4XfX&X4X*X8.I #XT.N.A.8.A.;.N.;.;.;.A.#X:XfXfX%XOX@X*XfX*XOXxXT.%XCXT.v c V.",
"aXkXkXkXaXaXaXkXnXkXaX0X0X0XaXaXeX*X&X@X&X#X#X#X1X&XlX*XeXmXj.Y $XkXeX$X0X$X$XkXkXqX$X$X9X0XeXqXOX4X#X4XC.O.^.#X@X/.[.#X@X#X[.O.#X4X}.C.}.T.V.}.[.}.}.+X#X#X*X1X[.OX@XOX[.OX*XfX4X#X4XfX*X4X*X8.P #XC.N.D.C.}.N.}.D.V.V.D.@X#X#X*X%XOXOX*XfX*X%X&XT.&X%X^ t S %X",
"0XaXkXkXkXaXkXbXNXnXaX0X0X0XaXzXkX*X$X@X*X4X*X@X*XOXfX$X0XbXj.Y $XkXkX0XkX0X$XkXbXkX0X*X0X0X0X*X@X4X@X1X[.;.@X#X[.C.[.#X@X#X[.O.#X4X}.D.#X+X[.*XD.D.D.T.}.#X:X4XOXD.OX1X1XOXOXfXfX&XfXfX&XfX*X8.W @XB.N.[.@X4X[.4X#X}.[.}.+X#X#X&XOXOXOX*XfX:X%X%X&X%XOX$.J / #X",
"9X0XaXkXkXkXkXnXnXbXaX0X0X0XaXaXkX*X&X@X*X*X#X@X#XOXfX$X0XbXj.Y J.fXqXqXkXqX$XkXkXfXqXqXqXqX*X&X*X4X[.1X@XN.#X#X#X[.@X#X[.@XC.( #X4X@XT.#X+XT.*X[.D.D.D.[.#X:XfXOXS.OXxXxXOX[.4XfX&X1XfX&X1X*XN.W @XN.8.}.#X4X}.#X#X+X@X#X#X:X4XOXOXOX%X*XfX:X*XfX*X%XOX%XOX1.| ",
"$X0XaXkXkXkXkXbXkXkXkXkXaXaX0XqX*X*X*X&XOXOX@X#X&XOXfX$XeXBXx.Y J.qX*X&XfXqXOXpXfXqX*X*XqXpXpX*X*X4X^.*X#XV.*X#X1X@X#X#X[.[.V.W #X4X@XC.@X[.C.+X#X@X[.[.[.+X#X4X#XS.OXxXmX&XOX*XpX&XqXfX&XqX*X4.W @XV.8.[.}.4X[.@X@X+X+X#X#X4X4XOXOXOX%X:XfX:X*X%X&XOXOX*X:X;.S ",
").0XaXkXkXkXkXkXaXaXkXnXkXaX0X&X$X*XqX&XOX^.@X*X*XOXkX0XkXNXz.Y OX1X&XOXfX*XOX1X*X&X&X&X1XfX1X*X#X4X[.*X#XN.*X#X#X[.@X#X@X#X[.[ %X4XOXC.@XT.V.[.*X#X#X+X+X#X#X*X*XOXOXfXxX*XOX*XpX&XqXfX&X*X*X4.H }.D.V.[.D.#XD.+X#X#X+X@X[.+X#XOXOX%X*X:X*X*X%XT.:XfXOXD.D.&.K ",
").0XaXkXkXaXaXaXkXkXkXkXaXaX0XqX0X*X*X#X@X@X@X#X*XOXkX9XkXNXz.E *XfX&X@X4X*X@X4X#X@X@X#X*X1X*X#X@X4XOX1XOX8.@X*XOXD.@X*X&X1X&X&.OX*XOXV.OX[.A.#X&X#X&X#X&X#X#X&X*X*X&X*XfXfXqX&XqX$XqXpX&XqX*X;.A [.}.T.[.C.#X[.+X#X#X#X}.[.[.+XOXOX%X:X:X%X&X&X%XfXfX%XOXOXN.W ",
").0XaXbXkXaXaXaXnXkXaXaX0X0XaXpXkX*X$X@X*X1X#X@X#XOXkX$XyXNXz.E fXjX*X@X4X1X@X4X#X#X@X#X*X*X#X@X@XfXOX1XOX;.OX*X&X^.&X1X*XfX&X;.OX&XT.S.%XOXT.:X@XOX%X%X&X&X&X&XtXfX*X$X*XfXfX&XqX$X*XpX$X*X*X;.v [.#X@X[.D.*X+X[.+X#X#X@X}.+X*XOX%X*X:X:X%X%X%X&XOXA.OXxXxX1.M ",
"$XkXNXnXaXkXnXnXnXkXaXaXkXkXaX0XeXqXqX1X1X*X#X@X@XOX*XJ.bXNXj.! (.4X#X^.#X*X@X#X@X@X#X*X*X*X#X*XD.fXkX$XH.&X*XOX*XfX&XH.$XfX(._ %XfX%XOX*XOXD.%XtX*X*X*XtXtX*X*XfXxXCXxXkXzXkXpXxXmXS.OXmXfX&Xl.S #X+X+X4XT.D.[.@X+X#X#X#X#X@X}.OXOXOX%X:X:X&XOXOX:X#XfX4X:X%XM ",
"J.0XkXaX0X0X0X0XaX0X0X0X0X0X0X).OXOXOXOXOXOX[.[.@X&XfX*XmXmXh.! fXVXfX@X*X@XD.^.&X&X*X*X*X*X#X#XCX*X;.-.H.xXxX*X&XpX*XOXqXxX&X;.S.%XD.D.&XOXW.&X&XOXOXOXOXOXOXH.*XfXfX*X$X*X0X$X$XkX$XfXzXqX&X/ l @X}.[.4X}.@X@X#X+X@X[.[.}.@X+X%X%X%X&X%X%X&X&XOX:XOX:X:X*X[.v ",
"0XnXZXnXkXkXkXaXNXnXnXnXnXnXkXaX0X*XqX*X*X*X#X@X@X@XfX$XkXyX` ' H.1X&XOXfXfX1XfX*X&X&X@X@X#X#X&X$XD.S.(.$X$X$X*XOX*X*X$X*XfXOX;.%XfX*XOXtX&XW.*XfXqX*X*X*X*X%XOXqXkXkXqX*XeXkXeX$XeXeXnX0XqXkXU y #X*XC.#X}.#X[.#X@X[.C.D.[.+X#X*X*X%X#X%X%X%X:X%X:XT.%X%X&XS.p ",
").0XkXaX0X0X0X$X0X0X0X0X0X$X$X$X$X$X$XOXOXD.C.V.#XOX$XS.qXeXh.*.H.*XOXS.H.H.N.S.*X*X*X*X*X*XpXfXOX(.*XxXkXOXOXfXOX*X*X&X&X&XS.$.W.*XW.D.OXW.N.W.$XOXOX$X%X%XW.H.J.0XqX$X$X0XeX0XlXeXeXnXJ.eXNXJ p fXhXD.}.@X#XV.#X}.[.[.[.}.#X#X*X:X4X*X%X%X&X*X:X:XS.OX%X%XN.t ",
"0XkXnXkXaXnXnXaX0X0X0X0X0X0X0X&X0X*X*X*X*X*X#X@X4XOX*X$XmXbX` ' Z.$XOXG.qXfXqXfXH.H.H.J.OX$X*X*XCXS.$.Z.qXkXfXkX(.$XqX*X&X$XS.l.OXqX%X$XtXqX%XfX%X%X*XqXtXtX*X$XH.0XkXkXkXkXkXkXkX$X$XkXJ.9XeXz l jXjXT.@X#X#XC.}.@X@X+X#X#X#X#X#X*XfXfX:X%X%XOX:X*XV.T.OX%XN.t ",
"aXkXkX0X0XkXkXaXkXnXnXkXaX0XaXaXJ.OX$X*X1X4X4X4X*XOXpXeXNXeXE Y ` Z.l.-.H.J.H.OXH.H.J.$X$X$X$X$X^ U H ^ -.l.N.S.l.Z.G.H.H.S.S.S.qXkX*X!.%X!.Z.W.H.H.H.!.$X!.H.Z.x.H.$XJ.!.$X$XJ.mXeX0XZXkXeX$XZ M hX:XC.#X#X4X@X[.}.+X#X#X#X#X#X%X&X%X:XfX:X%XT.%X*XS.OXOX%XS.p ",
"Z.Z.l.} } k.k.*.x.l.m.l.k.*.*.k._ _ $.$.:.&.&.&.;.;.N.k.l.` n E k.Z.*.Y F n u u g f k z z k g f p H ;.-./ ^ _ ;.;.N.S.G.S.S.G.OXH.$XA.;.c.$.W _ *.$.*.=.=.../ ! _ ` X.' ! _ _ ' Y F f b m 8 7 = W fX[.V.#X@X#X@X[.[.[.@X+X#X#X#X*XOXOX%XfXfX%XT.%X*XT.OXOX%XT.c ",
"(.G.n.{ _ *.-.$.^ _ _ / ! E ! ^ ;.;.;.;.;.$.$.O.I J H k f g f ` z.J.m.j.z.l.*.j.l.m.F.G.G.m.k.*.(.&X).m.Z.&XeX$X(.$X0XqX$X$X&XkX$XfXqX*XlXkXqXxXqXqXqXqXqX$XA.l.0X0X$Xv.k.Z.H.H.$XJ.! ! Y g F _ $.jXD.B.#XD.C.C.}.[.T.I.T.[.#X:X4X@XA.D.*XfX*X[.OX*XOX#XOX#XOXA ",
"4X4X*X*X%X&X&X%X*XfXfXfXfXfXfXfXOX*X*XOX%XfXfX*XOXfXN.W Q N.%X;.K.cXDXNXcXcXkXaX&X&XpXzXzX2X&XiXMXaXaXnXnXaXcXAXAXAXMXMXMXMXMXAXmXCXzX*X&XzXzXfXlXlXlXlXlXlXlXlXmXxXxXxXmXxXkXqXOXS.OX&X(.$X$XN.$.$X*XD.[.@X[.}.'.}.#X#X+X+X#X:X*X#X4XjXjX1X#X#X*X#X#X@X@X4XN.v ",
"*X#X#X+X@X@X@X@X[.}.@X#X#X#X+X+XT.%XOXT.OX%X*X%X%X%XA.1.N.A.%XOXaXDXSXAXcXaXaXiX0X&XpXzXdX&X&XpXG.L.K.wXnXMXDXFXAXAXMXMXMXMXMXMXpXzXpX&X`.2XiX&XpXpXpXpXpXpXpXfXfXfXfXfXfXfX*X$XfX&XqX*XS.N.-.H _ ).&XD.[.@X}.|.3X3X-X{.{.{.-X4X1X#X4XjXjX1X#X#X#X@X#X#X#XhXD.A ",
"#X#X}.T.D.T.[.@X@X+X#X#X#X#X#X#XT.OX@XT.OX%X%X%X%XA.S.%X&XOXOXkXNXSXSXMXaXaXaXiXaXiXiXpXiX`.&XiX`.K.).aXnXMXAXDXAXAXMXnXvXvXvXvX0XiX&X&X`.&X&X`.iXiXiXiXiXiXiXpXpX*X*X*XqX*X&XOX*X&XfXfX$XOXN.U ' K.$XS.^.}.}.#X-X3X-X#X+X+X-X:X4X#X1XhXhX*X#X#X#X@X#X#X#XjX[.J ",
"*X#X[.C.C.D.[.@X#X#X*X:X4X4X:X*X%X&X&X%X&X*X:X:XOX&.A.OX:X:XA.&XNXMXnXaX0X0XaXaXaXaXiXiX&X`._.iXaXsXvXMXMXnXvXvXZXAXMXMXvXvXcXaXiXiXiX&X&X2X&X&XiXiXiXiXiXiXiXiXfXpXqXpXfXpX*X*XOXOXqXpX*XpX$X$._ (.OXN.D.[.[.|.0.'.-X3X>X>X;X;X4X#X1XhXfX*X#X*X#X#X1X#X#XhX[.J ",
":X#X}.T.D.[.}.#X[.}.@X+X#X#X+X@X*X%X&X*X:X:XfXfXT.$.S.A.&XxXN.;.CXdXiX&X0X0XaXaXaXwX0X0X0X).8XaXiXsXnXMXAXAXAXMXZXAXAXnXsXsXaXaXaXiXiXpXpX*X*XqXpXpXpXpXpXpXpXpXfXfXqXqXfXfXfXqXqX&X*XOXS.$XH.^ *.$X$XN.V.^.C.}.0.'.}.|.+X+X;X:X4X*X1XfX4X*X#X1X1X*X4X#X@X4X^.J ",
":X#X+X[.[.[.@X+X[.[.[.@X+X+X@X@X%XOXOX%X*X%X*XfXOX$.OXN.OXxX:.:.CXpX&X2XpXpXaXaXaXwX0XaX0X8X0XaXwXsXvXaXaXnXnXaXAXMXnXnXaXaXaXaXpX&X&X*XqX&X*XpXpXpXpXpXpXpXpXpXfXqX*X*XqXpXqX*XfX*X*XOXD.pX$X/ -.&X*XS.V.^.C.[.-X|.'.0.B.I.-XgX4X*X1XfX4X#X#X1X1X1X4X#X[.4X^.H ",
"#X#X+X@X[.[.[.[.#X#X#X#X*X*X#X#X%XOXOX%X*X%X%XfX&X/ OX[.OX%XQ D.pX`.^.2XzXdXpXaXaXwXwXcXaXwXwXcXnXAXnX0X0X0X0X).kXaXaXaXaXaXaXaXfX&XOX&X*X$X*XfXfXfXfXfXfXpXfXfXfXqX&X&X*XqXpXqX*X*XqX&X&XCXkX-.-.0X*XS.D.[.[.|.|.|.}.I.Y.R.;XfX4X1X1X4X4X#X#X4X*X1XfX*X@X4X@XW ",
"#X+X@X@X}.[.[.T.+X#X#X#X#X#X#X#X:XOXOX*X:X&X%XfX%XK OX%XOXN.J 1XV.5.4.`.zXzXdXsXaX0XaXcXcXwXwXvXaXMXkX0X0XaXkX0XaXaX0X0X0X0X0XaXxX*X$X*X*X&XqXxXpXfXfXfXpXpXpXpXfXpX*X*XqXfXfXfX$X&XqX&X$XxX&XW -.&X*XS.D.}.}.#X6.0.|.3X>X>X;X;X4X1X1X4X4X#X#X4X#X1XhX1X#XjX1X[ ",
":X4X@XD.#X[.N.C.@X#X4XhX4X#X#X4X*XfX:XOXOX:XfXfXA.N.OX%X*Xa W &XhX`.`.2XhXdXdXAXsXsXcXcXvXMXMXNXkXpX$X(.$X0X0X0X0X&X$X0XaXaX0X&X*X*XqXqXqX*X*X*XfXxXqXqXtXfXxXfXfXlXfXqXfXfXOX-.N.qXpXlX*X*X*XW *.qXkX&X*X#XC.C.I.'.{.-X>X-X-X+X1X1X4XhX4X@X@X#X4X4XhX@XN.[.[.[ ",
"#X4X#X[.#X}.C.@X[.+X#X:X#X@X#X*X%X4X:X%X%X*X*X%XT.A.OXOXfXK :.fXhX&X`.2XhXdXdXAXsXsXcXcXvXnXMXMXZXnXpX$X$X&XaXzXpX&X).$XpXkXkXkX&X*X*X*XqX*X*X*XfX$XOXxXmX&XqXlXfXlXkXqXpXfX$XN.(.fXqXkXqX*XqXW _ $XqXOX*X#X[.}.}.}.|.#X-X-X+X%X#X1XhXjX4X@X@X4X1X#X#X@XD.#X^.P ",
"[.4X#X@X#X[.[.4X[.+X#X#X+X#X#X#X#X%X%X%X&XfX:X%XOXA.[.T.gXN.A.fXzXiX2XpXzXzXzXnXnXnXsXcXvXnXnXnXkX*X(.OX&XqX*X*XzXfX*X*XfXkXqX$X%X%X*X*XqXqXqX*XfX*X*XtXfXfXtXtXfXxXlXfXqXpX*XOX*XkX*XfXqXfXfXE ! K.*XOX#X#X#X#X|.|.|.{.+X+X+X%X#X1XfXjX4X@X#XhXfX#X#X1X*X4XD.H ",
"C.4X:X+X#X[.D.4X+X#X#X+X#X:X4X#X&X*X*X%X%XfXfX:XD.N.S.A.fX%X&.N.pXpXdXdXzXzXzXnXnXzXzXsXsXsXsXsXqXH.S.$XkXkXqX$X*XqXqXfXxXzX$XZ.%X%X*X*XqXtXtXqXtXxXfX..$.xXxXOXfXlXlXfXqXpXfXfXqXfXOX&X*XfXfXU _ (.*XOX#X1X#X3X-X|.{.}.{.+X+X;X4X#X#X4X4X*X#X4X4X#X1X4X#X1XC.I ",
"C.:X*X@X+XC.V.#X#X#X#X[.#X4X*X[.*XfXfX%X&X:XfXfXT.N.A.S.&X:XW ^ &XaXnXMXvXsXnXMXzXzXzXsXdXdXpXpXeXqX*X$XS.l.OXxXOX*XtXtXkXxXkX$X%X%X*X:XtXtX:X:X:XA.=.i h A.Q.%XfXfXkXfXfXfXfXxX*X*XS.OX*XfXfXU -.qXfXOX#X1X#X5X|.}.{.'.{.+X>X4XfX[.C.@X4X4X#X@X[.^.#X1X[.[.C.[ ",
"C.#X#X}.#XT.V.@X@X#X@XD.@X4X@X8.D.:XjX4X%X%X&X&XOXN.T.OXOXfXM W K.aXMXMXcXsXMXMXzXzXzXzXdXpXiX2XOXW.N.H 6 * B OXkXCXxX*XOXfXkXfX*X*X:XtXtX*X*X*X:Xp 6 & 6 x J xXxXfXpXkXkXfXfXxX&X*XS.OX$XfXpXU m.kXkXOX#X1X#X3X}.}.{.[.{.#X:XfXhX[.V.[.1X1X@X[.[.C.#XhX#X#X@X8.",
"C.#X@X}.4X#XT.#X}.#X@XD.+X4X[.O.H N.:XfX%XOXOX%X%X1.T.%XT.:Xc -.Z.wXAXMXcXcXMXnXzXzXzXzXdXpX2X&XOX^ p $ o   $ l &XxXCXtXOX&XfX*XtXtXtXtX:X*X%X%XtX& . + , 4 e fXxXqX*XfXxXkXfXkX*XfXOX&X&X*X*XJ Z.kXkXOX@X#X#X3X|.}.}.}.+X+X;X:X4X@X[.@X@X[.[.@X*X[.1XxX4X#XV./ ",
"V.@X[.}.fX4X@X#X#X4X#X}.*XhX[.O.5 U OXfX%X+X#X:X%X&.A.%XA.*Xc G.z.wXAXnXaXcXMXMXzXzXzXzXdXpX2X&XCXJ . o X = X . H A.lXfX*XfXlXfXtXtXtXtX*X&X%X%XtX6 * + - e 5 W.xX*X$XfXmXxXfXfXpXxX*XqX&X&X$XJ S.kXfXOX@X#X|.3XXX|.{.{.{.+X+X+X*X*X1X1XOXC.[.4X4X^.@XfX*XV.( p ",
"N.#X#X[.1X4X#X4XfX4X#X#X<X#X[.V.z ^ $XxXxX:X+X+X+XT.B.:XOXqX^ m.0XaXaXwXaXAXZXMXzXMXMXaXaXaXaX&XkXG @ . & % @ % @ b $XBXrXlXNXtXkXfX*X*X*X*X*X*XtX3 - , * 4 y D.hX1X*X1X*X@X&XfX&XfX*XqX$X*XfX^ N.%X*XA.C.-X-XI.].].{.-X-X>X>X:X*X&X&X*X*X@XC.8./.}.5X:XOX%X=.h ",
"^.4X1X[.#X#X[.#X@X@X@X#X1X1X#X@Xk U Z.qXtX:X;X;X+XT.B.%XOX0XE x.nXNXnXaXaXnXnXaXnXNXMXaXaXaXaX$XyXG % X & @ @ & @ e =.BXBXyXlXlXpXqXqXfXfXkXfXtX*X, * - & 3 r A.hX4X#X@XV.V.OXxX$XfX*X*X$X*XfX/ / A.%XA.B.[.{.7.,X,XXX-X-X=XR.T.&X&X*X4X4X#X/.q.#X|.{.Y.B.;XQ.R ",
"^.4X1X[.*X#X@X#X[.@X#X*X*X*X1X1Xk.Z.$XtXtX:X;X=X=XY.1.Q.!.0XU } ZXZXnXaXaXzXaX0XnXMXMXaXaXaX0X$XeXG : + & @ + & @ O n rXBXyXyXlXpXpXpXfXkXkXfXqXOX, - - & 3 r B.1X1X4X#XD.8.OXxX$XfX&X*X$X*XkX_ U Z.qXOXC.}.}.9.XX].].{.-X,X=XR.OX&X1X4X4X<X'.q.}.'.C.,.&.+XQ.~ ",
"V.*X#X[.1X1X#X4X@X*X4X1X#X@X#X1XnXnXkXfXtX:X=X+X>XT.3.W.!.qXY } MXnXaXaXzXnXnXaXnXNXMXaXaXaX0X$XqXG , @ & @ + & & o < X.yXBXBXyXkXfXpXqXfXpX*X&XD.- , , ; w y A.[.@XfXxXfX@X@XfX$XfX&X*X$X*XkX_ R A.qXW.B.[.#X}.].].].R.R.{.=X;X&X*X1X4X3X<X}. X'.'.'.9.2.T.2.M ",
"C.1X#X[.*X1X#X4X#X1X4X1X@X[.@X1XpX0X$X$X*X:X>X>XgXT.1.Q.OXeXE *.nXpXqXpXzXmXzXkXzXmXnXpX0XpX0X$X9XG : @ : & @ & : . + f =.NXSXrXxXfXqX*XqXfXtXtXN.- , , ; e h Q.[.^.#XjXVXhX1X*X&XfX&X*XOX*XkX_ ' K.$XN.:.V.#X|.-X-X-X{.9.2.P.+X*X1X<X#X|.|.7X7X|.|.XX'.P.{.2.N ",
"OXhX4X}.*X#X[.@X@X#X*X#X#X#X4XfX0X$X$X$X%X:X>X>XgX+Xb.OX$XeX! l.AXpX&XaXzXzXaXaXkXzXzXpX0XpXqX$X%XV & @ 1 < & & , & + @ j yXSX%XzXfXqXqXfXfXfXfX1.* , - & r x %X#XC.V.@X4X4XfXfX*XlX&X&XOX&XfX_ *.!.qXS.1.T.#X}.I.{.-X{.B.9.T.-X*X1X<X#X}.}.|.3X|. X X7.<.{.B.L ",
"OXjXfX@X*X#XOX@X&X@XOX@X1XfXjXlXkXkXkXkXtX:X;X=X>X+XB.%X!.qX' Z.NXqXOXqXkXfXqX*XpXkXkXpXqXfXqX%X%Xb + @ 8 8 : @ : , : . , X.BXyXkXpXfXfXqX*XOXS.%.= - & # y B tX#X[.^.@X*X#X*XfXfXxX*X&X(.$XpX_ *.$XkX*XOX*X@X6.6.9.Y.{.+X=X+XT.@X<X4X<X|.}. X X X'.y.6.,.I.B.L ",
"D.fX*XOX*X*X@X*X1X@XOX@X1XjXjXfX0XeXkXlXfX:X;X-X-XT.B.%XW.0X' G.xX$XG.*XkXkXqXqXqXfXkXqXqXkXfX*X%Xn X @ e e , @ @ < < X . B rXBXfXfXfXfX*XS.$.Q ..% & + O r B gX[.@X4XjXhX#X@X*XfXxX*X&XH.$XqX^ E F.kXfX*X*X8.P C.9.C.+XgX:XP.$.^.@X4X6X<X}.'.s. X|.|.'.t.#XY.D ",
"OX*X*X*X&X*X*X*XxX*X*XfXfX*XqXzXkXkXkXtX%XOXR.R.=XY.T.D.$XH.' z.kX$XA.D.qXxXfXOX*X*X*X*XqXtXfXfXyXh X @ i 8 . 8 & : , < : 1 R lXzXpXqXfXlXfXqX*XA., O & ; 4 B tX4XjXVXjX1X#X*XfXfXxX&XqXOXG.$X^ x.Z.$XpXfX*X#X#X[.{.#X+X+X%X%X%XA.C.[.3X<X'.q.q.y. X0.0.9.>XK K ",
"$X*XqX*XpXxXxXpXfX&X&XqX*X$X&XpXaXkXkXtX:X%X;X;X{.B.Y.A.%X$X*.$XkXqX$X$XqXfXtX*X*X*X*X*XqXqXtXtX%Xh @ & r e , Y f & X < 1 , j l.CXCXlXfXfXkXfX*XN.6 % - & 4 V tX[.#X1X#X@X@X*XfXlXxX*XpX$XOXqX_ *.Z.0XzXkX*X#X#X}.#X#X#X%X%X%X*X@XD.V.[.}. X X|.|.3X'.'.P.;XD B ",
"OXpXfX$XqXmXxXOX$XOX$XpXfXpXfXkX).$X$XOXW.Y.T.T.-XT.+XD.$XH.` ).xXfXtX*X*X*XtXtXtX*X:X*X*X*X*X*X!.h & & e 4 8 c...4 . < r , 1 n fXxXxXpXqXlXlX*XN.e , - # w G :X#X1X1X@XC.V.D.OX*XpX(.OXS.H.&X^ E x.9XkXqX&XOX@X#X#X*X*X#X%X%X*XmXpX&X1X4X<X|.7X0.0.,.8.9.;XG G ",
"N.*XfX$X$XfX&X;.*X*XqXfXfXqX*XqX0XeXeX*XOXT.T.T.R.B.Q.A.D.l.! G.xXfXOXW.OX*XtXfXfXfXtX*X*X*X&X%X%Xj : & 1 : , x.rXV : , e 1 < r / (.xXfX*XfXfX*XA.t , & & y K %XhXhX4X#X[.^.OXOXOX*XS.S.S.H.$XE Z g.).0X$XOX@X*X#X*X4X:X:X:XtXfX$X&X*XfX1X[.C.C.'.I.8.T.T.lX~ ..",
"-.$XzXqX&XqX$XN.fXkXkXfXqX*X$XK.0X0X0X$XW.A.Y.Y.9.2.T.D.W.S.` 0XmX%XN.1.T.:XfX:XfX:X:X:X%X%X%X%XtXj & : 8 & & _ BXv.x , : 4 e 7 p { fXxXqX&X%XOX%Xt & & - a L Q.#X#X*X*X1X4XxXVX$XfXOXOXJ.*XpX! b g.).0X).&XpX1X@X#X4XfXfXfXlXBX0XpXBXmXfX[.[.#XC.T.B.%XY.W.j j ",
"l.H.qXqX*XqX&X(.OX&XqXqXpXkXxXkX$X$X9X%XOXOX+X+X;X+XgX%XOXH.x.nXxX%X1.1.OXfXfX%X:X:X:X%X%X%X%X%XtXh @ : r , : ..BXyXX.r & < e 7 5 H OXCXkX$XOXOX*Xe @ - , r V %X#X#X1X1X4X4XfXjXOXfXOXOX$XqXpXU m ] F.K.G.(.OXD.^.OX%X&X&X*XyXyXNXnXkX$Xl._ $.8.:XhXxXZXlXyXV V ",
"$XZ.;.N.S.S.Z.Z.;.N.S.N.S.$X*X$XK.J.$X!.W.Y.T.R.T.B.Y.=.*.-.*.CXlX%XT.[.:XfX4X#X:X:X%X#X#X%X%X%X%Xf @ : e : < c.yXlX!.T e , < 7 t l _ *XxX*X%XfX*X5 % 6 , , x tX4X4X4X4X4X*X@XOXH.fXOX$X$XpXqXZ m ) K.K.K.(.N.[ &.;.;.;.;.;.l.v.z.` ! U J c c M H H G T B V 1 m ",
"lX;.H W $._ ^ ^ -.;.$.U J J J b b b b b z h l l v a l i z F _ ZXfXfXfXfXjXfX*X%X%X%X%X#X#X#X%X%X%Xi @ * 4 @ , A.yXlXkXA.B , & 7 u 5 x N.kXtXfXmX%X6 * e , + h xX#X#X1XfXjXfX1X*X$XxXpXfXpXxXkXF Y x.wXaXaXqXS.^ W W Q W K H H T Y b b ^ l.c.;.$.:.Q v i < h r X.",
"fXfXfXfXfXfXfX*X*XOXS.S.OXOXD.N.H.G.G.G.S.H.H.G.$X*.;.Z.l.$XNX0XnXpX0X&XqXpXpXpXpX*X*X#XOX@XOXOX%Xh # # , * 5 !.tX*XkXkX-.u 9 t 5 t 6 B lXmXQ.lX=.& , * 5 * M OX#X*XfXjXjXfX*X$XOXCXmXkX0XeXkXU ! kXkXeXkXkXZXmXlXfX;X{.T.+X;X>XjXxX>X[.[.8.| O.[.#XOX*XH.S.fXH.",
"xXxXfXfXfXfX1X*X1X&XOXOX&X*X@X(.zXkXkXaXaXaXaXkXaXm.m.Z.m.0XZXaXiXaXsXsXaXaXdXzX*X*X*X&X&X*X4XfX:Xx ; & 3 - e OXtX*XfXkXS.F t 5 e 6 e x ~ %XlX:XA.3 3 = , % G lX*X1XfXfXfXfX*X&XOXmXkXkXeXkXyXY v.ZXlX%X%XW.*XY.%X+XR.R.R.+X+X+XR.,X{.{.5X5X:XhX#X*XOXfXOX(.fXN.",
"xXfX&XOXOXOXOX^.&X&X&X*X*X*X*X*X&X0X$X).).).).).ZX$XK.K.G.0XNXaXG._.wXaXiX0XaXdXfXpX*X&XOXOX#X&XtXN , ; 3 - e OXtX*XqXfXqXN.S t i , i i w ..CXtXb.3 4 = - & T CXfX4XfXfXfXpXqX*XOXzXkXxXkXbXeXF S.NX%XS.W.W.%XB.1.B.T.R.{.{.R.T.Y.{.P.I.5XgX4XxX*X*X@XfX*XOXpX$.",
"fX&XD.V.V.S.S.D.D.OX@X&X@X&X*XpX0X0X0X0X0X0X0X0XZXkX0X0X0XkXnXaXK.`.8X0X0X0XiXaXlXfXpX*X#XOX#X%XtXN - & 2 & 4 D.tXfXtXqXkXpX*.z p 5 r 5 - B %XlX~ % 3 * 4 3 T lXfXfXfXfXpXqXqXqX$XkXeXnXnXnXeXF Z.kXZ.c.!.OX:XY.1.9.T.R.{.R.T.Y.R.{.9.9.#X#X[.#X#X*XD.*X&X$X&XH ",
"fX*X^.D.D.^.OXOXD.^.OX@X@XOX@X*XqX0X0X0XaXaXkXkXZXNXaXaXnXnX0X).MXaX_.8XaXzXzXaXpXpXpXpX4X4X4XfXtXN , ; , = 6 D.qXkXfX*XfXlX(./ a a , - w e D fX~ % , & w 5 Q tXxXjXfXfX*XqXpXpX*XkXqXnXnXnXeXY %XBXS.v.W.W.%XN.T.T.R.R.R.R.T.I.T.{.9.9.-X5X#X4X*X*XD.&X*X&XOXZ ",
"*XOXD.S.D.OX@X&XOXOX@X&X*X*X@XOX).).).).$X0X0X0XnXNXaXaXZXkXG.Z.SXsX`.`.0XsXdXiXfXfXfX*XOXD.N.N.gXM , - 3 * 5 W.qXkXkX*X*XfX*XD.B x - * y * , %..., 5 & , 3 ~ lXxXjXfXfXfXqXpXpXfXzXeXnXnXkXkX^ *XBXS.N.OXW.%XB.+X+X+X{.R.T.I.P.I.].9.9.-X5X+X#X*XfXOX*X*X*X&XZ ",
"&XOXD.D.D.OXOXOX&X@XOX&X*X*XOXD.kXaXaXaXaXaXkXaXaXNX0X$XNX0Xl.m.AXiX`.S.`.&XiX0XpXfXfX*X@XN.$./ tXN , ; 3 * 5 W.qXtXfXqXqXpXqX*X=.G r 5 5 & & e G * y , , , ~ CXxXjXjXfXfXpXqX*XkXmXeXxXkXkXbX-.!.fXN.N.%XOX;X+X+X+X+XR.T.P.9.9.t.P.<.7.#X-XT.T.%XfX@X@X&X*X&XZ ",
"fX*X@XOX@X*X*X*X*XOX(.OX*X*X^.n.kXaX0X0X0X$X$X$XaXNX$XK.kX0X*.l.nXaX_.`.).&XaXaX(.&XfXlXfX4X@XT.%Xj & # , % 6 D.tX*X*XfXfXpX*X*XtXT M h * , 5 o 5 . i 5 2 * Q CXxXjXjXjXfXpXqX*XxXmXkXnXeXeXBXZ.$XlXA.S.%XA.+XT.T.T.R.R.I.9.<.,.,.<.+.9.5XjX-X:X@X*X[.OX(.OXOXc ",
"^.*XS.;.D.V.[ W OX@X*X&XOXOX*XpXkXaX0X0X0X0X0X0XkX0XNX0XkXnX) *.sXaXiXiXiXiXaXpXlXkXfX*X*X:XfXgXtXa w - * 3 5 A.tX*X&X*XqXfXpXpXxX%X..M e , * - @ 3 r y 3 & D CXfXfXfXfX*X*XqXfXkXqXeXkXkXZXkX*.S.kXT.A.%XOX+X9.+X{.{.9.,.,.9.P.9.<.<.0.#X5X:X+X[.*X&XOXpXfXn.c ",
"^.*XOXN.OXOX4.:.OXOXOXOXOXOX*X*XkXaX0X0X0X0X0X0X0XaXnX0X0XZ.! k.aXwXiXiX0XiXaXpXlXfXfXpX*X*X*X:X%Xy 4 & % , 6 A.fX*X*X*XqXfXpXqXlX:X;.B y w , % + , 6 w 2 * D CX*X4XfX1X*X&X*XqXkXqXfXkXkXNXkX-.N.fXT.D.#X#X5X#X+X#X{.I.9.,.<.9.9.9.9.9.I.{.#X:X#X*X*X@X*X*X;.S ",
"D.*XOXD.OXOXS.D.^.^.^.OX@X*X*X&XkXaX0X0XeXaX0X0X0XnX0XaXG.Y ! Z.0X0X0X0X0XiXpXpXfXfXfXfX*X&X#X%X%Xy 4 & % , 4 D.fXqX*X*XqXqXqX*XfXfXD.R v i 3 + + & * , 2 , D mX*X*X1X*X&X&X*X*XfXqXkXfX0XkXeX=.;.fX[.D.%X+XhX4X+X-X-X{.9.<.<.7.9.0.I.'.T.[.+X-XfX*X&X*X*XD.$.U ",
"D.*XOXD.OXOXD.@XOX^.D.OX*XfX1X*XkXeX0X0XaXaXaXaX$XNXK.aXG.z ' `.0X0X8X_.&XiXaXaXpXfXfXfX*X#X[.D.%Xy w ; = 2 e OXfXtX*X*X*XqX*X*XtXtX%XN.T i 2 , % % + * 2 3 G xX&X1XfXfX*X*X*XqXfXpXkXfX$XyX0X-.$.fXOXD.[.I.-X+X-X-X{.I.7.<.7.y.7.P.{.-X-X#X[.T.gX%X#X*X*XS.$./ ",
"OX1X@X^.@XOXD.*XOXOXOX&XfXjXfX*XkXaX0X0XaXkXaXaX0XnXZ.0X).F *.).0X0X0X_.&X0XaXaXpXpXfXfX*XOX[.S.Q.r w , & 3 t %XfXfX*X*X*XqX*X*XtX%XtXgX=.i 3 y - % O & 2 6 G xX*X4XfXfXfXpXfXfXfXpXkXfX$XeX$X$.$.4X@X[.+XI.#X[.-X|.I.7.,.<.I.XX].P.0.I.+X#X[.I.fX#X@X*X&XS.;.$.",
"fXfXOXOX*X@XOXfXOX@X&X1XfXfXfXpXkXaX0X0XaXkXaXaX0XaXK.0X0X*.k.).iXiX0X0X0X0XaXpXpXfXfXfX*X#X[.D.N.w w , & , e OXfXqX*X*XqXqXqX*XtX%XgXmXQ.B t a , & O % , 2 D lX*X4XjXjXfXfXfXfXfXqXkXkX9XkX$X/ &.fX@X}.-X#X5X#X-X{.t.<.+.<.].6X6XI.+.@.8.T.+X+X4X#X@XOX&XOXN.$.",
"fX*XD.D.1X&XOXfXOX&X1XfXfX1X1XpXzXkXaX0XaXaXaX0X0X0XkX0XaX).*.G.aXaXiXiX0XiXaXpXfXfXfXfX*X&X@XOX&.4 w 3 - 3 e Q.fX*X*X*XqXfXpXqX*XuXgXlX%X1.B e 3 * O + = & M fX&X1XfXjXfXfXfXfXfX0XtXkXeXkXJ.U S.jX[.V.#X{.5X{.{.].t.<.+.,.I.,X,XI.<.+.,.I.#X:X4X4X#X^.&X*XS.^ ",
"*XOXn.N.*X&XOXfX(.&XfXfX*X&X*XpXnXkXaXaXaXaXaX0X$X$XDX0XaXaX) m.dXaXaXiXiXiXpXpXfXfXfXpX*X&XOXOX&.4 e 5 3 4 t OXtX*X&X*XqXfXpXpX%XlXfXOX*XtX~ - 2 * O O + + x :XOX*XfXfXfXfXtXqXfX*XqXkXkXbXJ.H &XVXD.1.C.C.+XY.{.{.I.7.>.#.t.].I.{.{.{.[.[.#X:XfXgX*XD.OXfXS.H ",
"pXG.l.n.(.*X&X(.pX&X&XpXlXfXpXqXkXkXaX0X0XkXnXaX0XnXZX0X0X).{ *.pX2X*XpXfXfXpX&XxX*XOX@X@X^.S.S.^ p 6 t 6 = z OXOXOX$X&X*X*X*X&XpXfX*X$XpXlXS.W f 2 = , % & J lX%X*X&XOX%XfX4X#XfXfXtX$XqXyXJ.' lXxX%XA.%X:X+X#X>X+XI.I.R.U.7.>.t.{.,XU.P.I.+X+XgX4X%XD.*XfX;.c ",
"zXqXG.S.(.$X$XG.pX&X$X&XqXfXzXNX0XaXaX0X0XaXaXaX0X0XnX0XaX0X{ k.pX1X*X*XfXfX1X*XfX@XOX@X&XOXOXOXN.z = X $ 9 J *X$X$X$X&X*X*X*X*X&XpXpX&XpXzXfXD.x * o . & i ..xXxXxXfX%X#X4X4X:X#XfXfXOX$X9X!.x.kXxX%XA.%X:X+X:X-X{.I.P.P.9.,.+.+.t.{.I.P.I.{.T.:X:X%XOX%X*XN.J ",
"kXqX$XOXOXOXOX(.*X*X*X*X&X*XfXkX9XaXaX0X0XaXaX0X0X).0X0XnX$X) k.pX*X*X*X*X1X1X1X*XOXOX&X*X*X*XfX*XW 6 $ 9 l -.pX*X*X&X&X&X*XpXfX`.dXzXiX&XkXmXxX=.c , 2 M ;.%XlXfXfX:X#X#X#X}.C.|.4XfXOXH.$X$XK.fXxXOXA.%X:X;XgX>X-X{.P.7.,.+.+. .,.I.I.I.R.{.T.#X:X:X%XOX%XN.^ ",
"&X$X$X(.H.H.OX$XH.*XkXkXqX$XH.Z.).aXzXaXaXaXaX0XaX).0X0X0Xm.Y k.pX1X*X*X*X*X1X1X&XOXOX*X1X*X1XjXpXN.U b U l.$XqXqX*X*X&X*XqXfXlX&XzXzXiX$X*XfXlXxXOX=.$.W.xXlX%XOX*X4X*X#X|.C.w.|.4X:XOXW.%X!.v.$XfX%XD.%X:X;XfX5X>X-XI.9.,.,.,.+.9.I.U.R.{.+X+X:X4X%X%X%X%XN./ ",
"$X$XOXH.S.S.OX$X(.qXxXfXqX*XH.l.).aXmXmXzXzXkXqXzX&XaXqX&Xl.U S.*X*X*X*X&X&X*X*X*X@X@X*X*X&X1XjX&X*XOXS.(.fXkX*XpXqX*X&X*XpXfXlX&XpXzXpXqXiXqX*XxXmXxXtXfXlXtXY.*X4X4X#X|.7X X0.|.3X#XOX%XtXH...S.*X&XOX:XfX#X:X5X>X+XP.<.,.,.<.P.t.P.I.I.R.+X;XjX4X%X%X*X&XN.W ",
"fXqX%XH.S.S.W.OXqXkXfX&X*XkXfXOX(.kXCXAXnXzXkXaXkXqXkXqX0X`._ (.OX&X*X*X&X@X@X&X1X&X*X1X*XOX&XfX&XfXpX$X$XfXfX&X*X*X*X*X*XpXfXfXiXiXpXzXlXlXfXqX*XkXxXtX%X%XtXtXfX4X}.q.q.'.|.}.|.<X|.[.%XfXD./ S.*X*XOX:X:X+X:X>X+XY.2.,.>.,.<.I.9.9.9.B.B.T.+XxX:XOX%XtX%X;.W ",
"fX*XW.N.N.S.OXOXfXfX*XOX&XxXfXH.OXfXCXmXkXkXkXpXfXqXfX&XkXpX*.;.H.@X1X1X*X@XOXOX*X&X*X1X*XOX@XfXfXfX*XOXOX*X*XOX&X*X*X*X*XpXpXpXpXiXpXzXlXfXfXfXtXqXfXfXtX*XfXxX4X#XC.6.w.0.'.s. X|.|.[.}.*XW.=.D.tX&XD.%X%X+XgX>X{.9.,.,.<.2.<.P.<.<.9.P.9.Y.{.:X+X%X;X*XW.;.^ ",
"&XT.c.&.c.D.OX&X*XtX*XOXtXxX%X$.H.fXmXxXfXfXfXqXfXqXqXOXzXxX/ J D.OX1XfX*X@XOXOX&X@X&X*X&XOX@XfXxXpX$X$X*X*X$XH.$X&X*X*XqXqXqXqXfXzXzXhXiX&X*XfXxXqXqXxXBXfX:X:X#X#X|.'.'. Xs.6.s.|.|.C.C.@XOXN.OXfX%XA.T.%X;XjX5X{.2.>.2.P.P.t.t.,.<.I.{.P.Y.{.T.[.%XfX*XD.;.$.",
":X%XOXT.A.A.OXfX:X[.N.N.A.N.:.^ ;.S.%XfXfXfXfXfXqXOX*XOXtX*XQ / N.D.OX@XOXOX^.^.*X*X@X@X&X*X*X*XxXfX*X*X*X*X*X*XqXpXfXfXkXkXfXfXiXpXzXzXpX&XOXH.OX&XtXfXfXtXtX:XC.0.0.s. X X Xs.@.'.<X|.#XfXfXOXfXfX%XT.A.A.+X:X+X{.R.T.I.I.U.U.{.U.{.,X-X+X+X-X+X+XN.&.D.D.N.OX",
":X+XOXT.A.:.| $.N.1.1.B.T.T.A.1.S.D.OXOXOXOXOX%XqX*XfX$XfX*X/ / &X&X*X*X*X*X*X1X1X*X*X1XfXxXxXxXfXfXqXqXfXkXlXkXlXkXfXqX*X&X$XOXzXzXpXpXfXlXxXxX*XqXfXkXfXtXtXfX:X#X|.|.7X|.'.f.w.0.C.0.[.fX*XS.tX*X%XOXT.OX;XhX+X{.{.{.U.U.R.{.U.I.{.6XgX5X5XjX+X:X%X%XfX*XN.N.",
";XT.B.T.T.B.1.>.$.%.1.B.B.B.8.1.$X$XOXW.D.D.OX%X*X*XfX&XfX*X^ / fX1X*X@X#X*XfXjXOXOXOXOX@X&X1X1X*X$XOXOX*XqXqX*XfXfX*X*X*XpXfXlXfXiX&X&XiXfXfXfXqXtXfXfX:X*X:XtX+X}.'.'.'.0.q.w.0.0.6.&.[.fXqXS.qX*X*X$XOXOX%X:X;X-X-X=X.X.X.X=X{.R..X>X6X-X+X-X:XgX%X:XmXfXN.;.",
"hXT.1.8.T.{.+X#XB.C.T.C.2.&.%.%.OXOXD.D.D.D.OXOX&X*XlXOXtX&XQ W *X&XOXOXOX&X*X*XfXfXfX1X*X*X1XfXkXfXpXpXfXfXpXqXqX*X*X*XqXkXmXCXzXdXpXzXzXxXfX*XxXxXxXlXfXfXfXlX%X#X#X#X|. X'./.}.'.8.N.%XlXeXH.*X*X&XOXOXOX[.+X-X-X=X{.{.{..X.X{.U.R..X=X{.{.-XgXgXOX[.fX*XN.;.",
"jX{.>.2.B.B.B.9.+X+X+XY.2.>.2.B.A.A.A.A.A.A.A.N.%X%XgX+XfXtXQ H &X@XOX@X*X*X@XOX*X1X1X*X@XOX&X1X*X*X&X&X*X*X&XOXfXfXqX*X*X*XqXpXkXiX&X&XiXpXqX&XqXtXtX*XOXOXOX%XOX#X#X#X}.[.C.C.}.#X+XOXOX%X!.Z.$XOXOXOXOXOX+XOX+X+X{.{.{.{.{.{.{.I.P.U.{.=X>XxX:X4XOX[.fX*XN.;.",
">XT.9.Y.{.Y.2.%.Y.C.B.2.%.2.Y.+XT.T.T.OXOXT.N.1.%X%XfXOXlXxX/ S &X@X@X*XfXfX@XD.^.OX@XOXOXOX&X1XOXOXOX*XpXfXfXqX&X*X*XfXfXfXfXpXkXiX&X`.&X*XkXxXtXtXfXtX*X%X%X*XOX%X%X@XT.V.8.8.}.#X%XOXH.v.x.x.H.S.S.D.OX%X+X%X>X-X-X-X.X.X=X-X-XU.t.t.P.9.T.+X+X:X%X:XxX*XN.l.",
"-XI.P.{.-X+XT.T.9.9.2.>.>.9.Y.[.;X#X+X%X:X;XOXT.[.T.+XA.hXxXQ l D.D.D.OX@XOXD.4.OX&X*X*XOXOX*XfX*X*X*XfXxXxXxXkX;.N.H.*XpXpXqX&X&XiXpXiX&X&X*XfX*XfXfXfXtX*X*X*XOX%X*X&X@XD.C.D.C.D.W.D.v.x.z.v.S.N.1.1.N.A.B.A.+X{.{.R.U.U.R.R.I.7.<.9.2.,.>.2.A.#X%XOX%XS.-.;.",
"jX+XY.B.Y.Y.T.+X-X{.{.I.I.I.I.T.+X[.[.+X:X4X:X#XB.8.B.&.:XxXK i N.;.-.;.N.N.;.{ { $.-.$.^ W ^ $.^ ^ ^ / { { / ^ ! _ l.Z.S.m.-.{ k Y } -.^ S c l S J H H J S S B U W / _ / ( / O.8.;.;.v.Z.Z.J.%XD.N.&.$.$.$.$.| &.&.%.%.%.%.%.%. . .+.9.T.T.T.%XA.OXN.$.$./ ^ ;.",
">X-XT.2.P.=XR.2.I.{..X{.U.I.I.{.[.*XhX4X#XI.C.'.}.C.N.8.W.fX*.: F =.K.Z.S.N.N.*Xn.N.Z.S.D.D.D.D.;.S.m.m.(.`.G.&XkXG.G.0X).K.F.x.] ) Y n b U W F W W K W Q ^ ^ U ^ -.S.(.*XfXfX*XOX(.(.OX&XqXpXpX@X#X*X@XOXD.S.D.l.N.S.S.H.J.H.S.N.C.+X:XfXfX*X%X*XOXH.G.G.K.G.G.",
"gX>XR.B.P.R.P.>.R.{.XX.X].].].{.+X*X4X3X|.'.'.}.#X#X#X@X%XlXv.e R J.kXkXnXkXeXxX&X*X*XpXfXzXzXzX&XpXiX0XnXnXaXAXnX0XeXcXwX0X8Xz.g.g.M.).0XqXfXxXxXhXfX:XfXfX0X$X$X*XqX&X*XfXfXpXOXOX$X*XpXlXxXxX*X1XfX1X*X*X*X*XkXkXnXNXNXNXNXNXtX:XfXfXfXfXfXtXfXqXeXpXaX0X).G.",
">X;XR.B.2.P.B.2.{..XXXXX{.{..XXX:X:X*X#X#X|.|.#X}.|.#X@XOXqXl.u Z.BXNXeXkXkX0X$XkXkXfXpXpXpXpXpXS.&X(.(.&X&X`.0X0X0XeXeX0XaXK.Y g.g.K.nXkXH.D.:X%X+X+X%X*XpXpXqXxXxXpXOXD.OX&X@XD.^.(.OXOX*XpXfX[.@X*X*X&X&X*XqX$X$X9X0X0X0X0XqXxXhX:X%X&X%XqXtX*X*XpXaXaX).m.k.",
"T.T.B.2.2.Y.R.R.{..X.X{.{.{..XXX:X*X#X#X3X3X3X#XC.C.[.T.D.$X*.7 0XZXkXv.F.$X$XH.$XOXOX^.^.^.^.(.OXiX&X`.pXiX_.aX`.K.).J.8XbXL.g M.8XAXSXaXS.N.C.C.C.C.T.OX$X*X*X4X:X@XN.N.D.@X@XD.D.D.V.V.V.V.D.D.^.OX@XOXOXOX$X*X0X0X0X0X0X0XqXfX:X%X%X%X%X*XfX$X$X0X0X0XK.k.) ",
"Y.b.2.2.2.Y.{.-X{.{.].].].{..X{.#X#X*X5X5X5X#X}.|.C.T.[.%XqX-.7 !.kX9Xl.J.eXeXqXS.S.S.D.OX@X*X1X*XzXiX&XkXpX&XkX$XK.K.K.eXZXF.7 g.cXFXAXqX*X:X+X>X:X;X%XOXH.H.H.+X#X+XI.T.+X#X#X[.+X+X[.C.C.C.[.@X#X*X*X&XOX&X&XkXkXkXkXkXkXkXkXtX:XfXfXfXtXtXtXpXpXpXpX0X).m.k.",
"+XY.2.2.B.P.T.{.{.U.y.y.U.].{.{.}.#X4X4X5X3X|.}.#XC.C.OX&XqX*.7 K.eX0X$XqX*XH.H.OXOX&X#X*X#X#X@X(.*XOX(.*X&X(.0X$XK.H.).eXZXF.0 ] wXZX).n.OX:XT.+X{.{.T.S.S.S.H.[.#X{.[.T.{.{.I.I.[.{.{.I.I.{.#X*X1XfX1X&XOXOX$X%X$X$XOX!.!.!.!.&X;X:X:X*X&XOXOXfXpXeXaX0X).G.m.",
"gXT.3.2.P.P.Y.I.{.I.t.t.U.].{.{.+X*X4X4X-X|.|.|.}.V.T.@XOXOX..u H.$X$X*X0XZ.$.l.OX&X%X*X#X[.C.V.*XjX1X*XxXfX*XzXH.S.J.$X$X0Xl.k M.cXZXaXD.OX+X+X{.{.+X+X%X%XfXxXT.}.{.I.P.I.t.6.t.I.{.{.P.P.{.-X+X#X%X&XOXOXOXOXfXqX*X$XOX$X%X%XT.OX%X%X&X%XOXOX$X$X&X0X0X).G.l.",
"jXT.3.2.P.P.I.I.{.I.t.t.U..XXX{.#X:XfX4X}.[.|.3X}.[.#X:XOXW.*.f Z.H.Z.OX$X;.$.OX&.8.A.+X:X:X-X+XOX*X@XOXfX*X$XfXS.H.qXkX$XJ.z.Y L.0XnXaXOXS.T.-X{.{.{.T.C.A.OX&X{.{.{.I.I.U.I.9.].XX,X{.I.t.].-X+X&X%X%X%XOX%X%XfX:X%X%XOXOXOX%XT.[.%X%XtXfXkXkX(.OX0XpXaX0XG.m.",
"gX+X2.2.P.R.T.9.R.I.t.7.t.{.{.I.[.+X#X#X#X|.}.}.8.|.#X[.&XfX*.7 S.pX_ OX&XW W.OX1.C.[.{.+X-X-X+XV.fX#XN.S.OXOXOXtX*XqX%X$XeXv.k ' nXaX$XOXC.Y.+.2.U.{.B.B.OX&X[.-X].9.9.I.{.|.|.XXXX{.].I.I.{.-X#X%X%X:X:XOXOXOXfX%XOXT.T.OXOXOXB.OX%XT.OX:XxXxX*X&XaX&XzXaXk.l.",
">XR.2.b.T.+XR.P.I.I.t.9.y.{.].I.[.+X#X#X#X}.}.}.C.#X+XA.%XfX*.u S.xXn.*XfX$.OXT.B.T.{.I.T.{.=X{.+X4XD.;.OXxX*XOXtX*XqX%X$XeXv.z j.NXaX$XOXT.{.7.P.U.R.Y.Y.OX+X[.{.{.{.I.P.I.{.-X{.{.{.{.U.{.-X>XhXtX4XgXfX%XOXOX[.T.T.T.[.[.[.T.A.+X%XT.T.%XfXfXkX*XeX&XMXMXk.k.",
"+XT.B.Y.R.=X+XR.P.I.t.t.y.].].P.[.@X#X#X#X}.}.}.|.#X[.A.OXtX*.u -.xX(.*XfXV.*XT.B.T.R.P.P.P.R.I.{.}.&.O.@XxX&XS.*X*XqX%X$XqXv.z Z.ZXpXOXOXT.-XR..XU.I.{.{.[.[.{.{.#X-X{.P.C.{.5X{.{.{.{.{.{.-X4XgXtXtXlXgX%X+X+XT.T.[.+X+X+XT.B.[.%X%XT.D.OXqXfXmXqX0X$XMXAX-.{ ",
"+XR.Y.T.R.+X{.I.9.P.I.t.y.].].I.[.+X#X#X#X}.}.}.#X#XT.A.%XtX..t _ fXOXOX*X@XfXT.2.Y.R.E.t.t.E.t.9.[.8.&.@X*XD.A.%XOX*X%X!.%Xv.z K.ZXeXOXOXT.-XoX,XE.t.{.{.Y.C.[.+X:X4X#XT.C.+X:X+X+X#X+X+X+X:X4X%X%X%XfXfX;X#X:X-X#X#X#X#X}.I.9.+XOXOXT.D.OXqXfXxXpXaX&XnXaX{ { ",
"=X+XR.R.T.T.Y.P.9.P.y.9.t.].].].{.#X*X#X#X}.}.}.}.}.T.D.*X*X_ 7 } fX*XD.OX&X:X[.| 9.R.R.E.t.t.<.,.#X:X#X+XT.B.[.T.OX%XOXY.%Xl.z H.CX*XOX+XT.=X{.,Xy.t.{.{.B.B.[.#X*X*X#X@X@X@X#X#X*X*X*X#X%X#X*X%X%X%XuXgX;X-X>X>X-X{.{.{.I.I.C.[.T.T.T.OX&XtXkXfXpXmXqXaX0X) } ",
";X=X+XT.B.2.9.9.9.t.t.7.7.y.].{.#X*X4X4X#X|.}.}.'.}.[.OX*X%X_ u n.zXhX(.@X*X+X[. .2..X.XU.t.r.<.O.+XhX:X+X8.1.+XT.OX%XOXD.OXl.z G.nX$XOX;XT..XU.U.U.E.U.I.9.B.[.OX&X*X*X&X@XOXOX*X1XpX1X*X@X&X*XgXtXuXlXgX-X+X+X{.I.9.7.9.y.].'.+XT.A.OX*X*XtXkXfXkXZXaXaX).) k.",
"=X=X+XY.2.3.2.P.9.t.t.<.<.y.{.XX:X4XfX4X3X#X|.|.}.#X#X@X&X$X..x -.`.pXOX*X*XY.{.| P.=X~.E.r.r.<.+.[.{.[.[.8.1.OXT.OX:X%XW.%Xc.x (.mXOXOX:XT.,XXXt.oXXXU.9.P.T.+XS.OXpXpX$X(.OX*X&X*XpXpX*X*X*XpXlXtXuXgXuX+XT.{.I.9.7.6.9.y.'.'.#X[.T.%XfX*X*XtXzXzXCXpXzX0X{ k.",
"+X+XR.B.,.3.9.I.7.P.t.<.,.t.{.-X4XfXgXfX4X#X#X#X#X*X#XOX%XOX=.J W ;.OXOX4X:XB.+X>.I.=XR.t.<.<.<.I.[.C.C.-X+XT.%XOX%XfX*XOX%XN.b $XmXOXOX-X[.-X,X<.,X6XU.9.Y.+X+XN.OXfXfX(.S.OXpXOX&XpXpXiXpXpXkX*X%X%X:X;X{.R.{.].I.9.9.t.y.y.I.:X+XOXfXlXtX%X*XCXzXNXpXAXnXk.k.",
"4X#X[.P.9.,.>.,.I.I.P.P.I.'.}.#X#X*XfXfXfXfXfX*XfX&X*X&X&XqXl.f Z D.fX*XjXVX4X+XC.9.I.I.7.+.>.P.-X#XB.&.&.V.@XOXOX*XlX%X*Xl.tXp $XxX*X[.jX5XI.'.}.|.#X#X[.OX%XtXA.D.%X%XOXS.D.*X*XqXqXqX0XeXkXnXaX0XqXfXhX,XI.7.i.#.p.oXU.6.9.#X1.[.:X+X%XtXfX*XkXpXnXzXaXaX).! ",
"3X|.'.9.6.<.7.t.t.t.P.I.[.|.#X<X#X*XfXfXkXfXpX*XfX*XqX*X&X*X;.u ^ *XxX*X4XfX#XT.C.C.C.I.9.>.,.0.C.V.8.1.N.@X&X%XD.OXtX&XkXH.kXx $XfX*XD.[.[.0.C.}.|.#X@X[.D.W.OXOXOX%X;X+XA.OX:X&X*XqXqXpXfXpXaXMXnXaXfX4X{.7.#.i.p.i.u.I.9.P.{.&.A.%X%X*XgXxXxXfXpXzXzXaXaX).E ",
"'.'.0.6.,.<.t.U.I.I.U.{.|.#X#X#X#X*XfXfXfXfXpX*XfXqXfXqX*X*X-.7 -.pXjXOXOX@XD.D.[.C.C.I.P.9.6.9.C.[.T.C.D.}.OXA.OXOX*X*XBXqXqXb tX*XtXOX;.8.}.'.|.#X#X#X[.D.D.T.*X%X%X%XOXD.OX4XOXOX%XfXfXfXfXpXnXzXfXfX4X{.7.@.u.u.u.7.t.].}.T.T.%X:X%X*XtXtX*XfXqXkXzXaXaXK.Y ",
"@.8.q.,.+.,.t.I..X.X=X-X#X|.}.[.#X*XfXfXfXfXpXqX*X*XfX*X&XqX-.5 -.&X&XN.S.^.D.@X[.T.C.C.Y.0.9.9.I.[.}.[.[.+XOXA.*X*X*XqXBXtXN.x &XS.%XOX&.V.5X'.3X3X4X*X#XOXOXOXfX*X&X&XOXD.OX*X[.[.+X:X5XhXjXfXqXaXpXfX5X6X].<.u.oXu.<.9.-X-XC.#X:XfX:X*X*X&X$XfXqXkXkXaXaXG.F ",
"( 8.C.9.,.2.t.P.=X-X-X-X-X#X}.[.&X*XfXkXfXfXpX*XOX*XfX&X&XfX;.7 -.OXOXN.S.^.[.#X}.[.T.Y.I.I.P.9.8.B.V.C.}.4XfX*XtX&XOX*XkXtX/ b N.$.c.A.&.[.3Xq.|.#X#X*X*X%X%X$XpX&XOXOX^.S.D.+X+X{.].{.,X6X6XjXqXkXfX4X5X5X{.<.].,XoX<.9.6X5XC.[.[.%X;XfXfXfXkXfXqXkXkXaXaXG.Z ",
"O.'.:X[.9.B.R.R.R.{.+X-X-X#X#X*X&X*XfXfXfXfXpX*XOX*XpXOXOXfXl.0 ;.&X*X(.OXOXD.#X[.+X+XT.Y.I.I.B.I.[.[.T.}.:X4X&XOXW.A.%XtXfXU T N.;.N.A.C.#X3X0.'.}.}.#X*X%X%XOXqX`.`.`.^.V.V.[.-X}.y.].oX,X,X,XfXmXxX4X:X>XI.@.].,XXXt.I.>X5XT.%X[.OX%XfXtXtXfXkXqXkXzXaXzXG.Z ",
"8.1XjX{.2.B.{.=X{.{.{.+X+X#X1X1X&X*XfXfXkXfXpX*XOXqXfXOXH.fXl.5 { (.&XOX&X^.N.[.T.#X-X[.B.Y.T.Y.4X4X:X+X@X#X[.N.D.D.N.OX%XkXF *.D.*XOXD.#X3X|.|.}.}.}.#X:X:X&XOX&X`.(.`.(.D.V.I.-X].u.u.d.d.u.i.+XfXfX#X-X4X{.+.{.-X-X{.{.-X-X+X:X[.T.%XtX*X&XqXxXpXkXnXnXnXG.Z ",
"C.hXjXT.%.2.{.=X=X=X+X{.{.@X#X*X&X*XfXkXkXfXpX*X*XfXfXH.S.qX;.5 U l.H.OX&XD.N.V.T.:X4X{.B.Y.T.T.#X#X*X#X#X*XOXA.W.D.S.OX$XfXB l.OXmXtXA.+X[.q.|.|.|.#X*XfXfX*XOX&X`.(.$X@X^.C.I.XX].u.u.u.i.e.a.>.C.[.T.-XxX5XY.{.-X5X>X+X+X#X#XT.8.N.OXfXfXkXmXnXpXkXnXnXMXK.Z ",
"V.xXjXB.2.B.R.>X=X;X+XT.T.#X#XD.D.$XfXfX*X$X$X*XqXqXxXxX&XD._ l z _ J.$X*XqX&XA.%X+X+X[.{.{.{.[.:X#X}.[.}.}.OXT.D.N.OXOXkX%XR ~ D.OXT.D.#X'.6.q.|.#X4XhXjXfX*X*X&X`.`.2XOXV.B.I.].XXoXu.e.e.#.#.>.2.Y.+X:X:X%XT.B.fX+XB.;X+XB.:XC.T.%X:XfXfXfXtXkXkX&XK.0XnX).) ",
"D.xXfXN.1.1.P.=XY.R.R.T.+X4X4X@XD.(.$XqXfXfX*X&X*XOXOX$X$XOXW * U n.$X$XJ.OXOXS.Q.%X:X:X:X-X{.Y.}.#X*X4X4X#X%XOXN.N.OXOXtX$XQ _ $X*XOXA.#X}.0.'.5XI.8.D.gXCXkXOXpX&X&XfXfX%X[.#X9.U.U.i.#.#.#.#.<.9.I.+X>X:X%XQ.c.tX*X%XxXgXT.:XB.C.T.+X&X*XtXfXmXzX0X(.0XnX).{ ",
"OXxXfXA.b.b.P.Q.Q.+X+XT.Q.OXT.N.fXfXfXxXmXxXqXOXlXfX*X$X&XfX$.2 U m.eX0X!.OX$XW.A.T.%X;X;X+XT.Y.}.#X4XfX:X#X%X&XOXOXfX%X*XA.J W *XtXW.V.@X}.'.|.'.}.#X*X*X:XfXfX&XH.D.OX%XT.C.B.t.U.U.t.r.r.<.#.#.,.2.I.=X:X:X*XOXqX$XW.:X+X+XgXT.OX%X%XfXlXxXmXCXmXkX&XaXnX0Xk.",
"^.fX*XA.R.R.Y.+X>X;X=X+XQ.T.N.;.OXOXOX&X*XOXS.n.OX&X*XS.l.D._ 6 z _ $X0X$X%X9X$XQ.OX%X%X+X+X+X+X+X#X4X*X[.[.%XfX*XtXmXtX%XZ.H _ *XtXD.A.}.}.C.|.q.<XVXjX#XT.OX*XkX*XOX%X:X:X+XI.Y.R.U.t.r.t.r.#.r.r.t.I.+X%X%X$X*X$X!.H.W.A.Y.OXOX+X%XfXfXlXlXlXkXkXkXpXkXnX).k.",
"S.&XOXY.;X;XQ.;X;X%X+X;X:X*X*X&XH.$XqXfXqX*X*X*XS.D.OXH.(.&X$.6 z ' Z.Z.z.S.!.H.%X*X:X%X+XQ.Y.C.B.[.*X*X#X@X%XfX&X*XxX*X*XW._ S.*XtXOXA.#X}.C.}.|.|.'.V.@X*XOXb.gX:X+XQ.%X;XQ.B.B.I.T.P.P.R.E.t.~.~.U.R.=X;X%X$XJ.G.$XkXtXOXY.B.T.[.%X:XfXfX*X&XfXkXkXkXaX0Xm.{ ",
"OX*XW.Y.:XuX+X;XuX+XQ.%X*X%X&X*XpXkXxXfX*XOX$X*XN.{ $.S.*XqXW X ! j.x.' ^ *.v.v.H.W.%X%XY.2.| Q O.8.#X4X4X#XOXOXfX*XlXOX!.A._ H.*XfXOXA.#X}.C.}.3X#XC.&.;.OXtX%X;X=XQ.Y.R.+XQ.B.Y.R.R.R.Q.;X+XR.#.#.<.P.=XgXlXnX0Xz.z.!.S.W.tXfX%X%XfXxXxXxXkXfXxXmXmXnXaX0XS.k.",
"*XOX=.| b.b.3.B.Y.3.X.=.=.:.=.l.;.;.$._ ^ W ^ ^ U c b U W J t . -.Z.Z.-.*.Z.A.v.v.c.1.=.%...| / 1.8.C.[.D.V.1.&.&XW.OXc.Z.Z...!.*XtXS.;.V.0.8.C.0.|.}.&./ ;.OX%XR.=XQ.R.R.;X>X;XY.Y.A.b.b.b.=. .C C L  .1.A.J.K.z.F Y _ T / A.Y.B.C.A.T.OX&X*XtXqX&X$X&X).).`.`.",
"D.;.S h B V N L L N j M J J W / H S c S U / $.$./ U ^ W p 6 p z ) m.J.$X0XkXqXH.D.c.| Q ~ %.Y.+X:X[.1.O.( ( Q Q $.^ ..Q c.!.A.BX*X%X;./ $.&.@.9.6.&.O.W $.N.$.B L  . .o.o.X.3.3.b.3.X.T G B h q d d d N B B n z g > g _ U B B i J S S S H Q $.;.$._ _ { } k.G.$X"
};
