/* XPM */
static char *_fa2f4fa0a95413dd2ee7cd704bd2af1oooV5iA3mh0ZH1mO[] = {
/* columns rows colors chars-per-pixel */
"128 128 254 2 ",
"   c #5A370B",
".  c #5B3612",
"X  c #5D3A13",
"o  c #4B2C06",
"O  c #623C15",
"+  c #633C1A",
"@  c #653C1B",
"#  c #603F0E",
"$  c #5F4319",
"%  c #644114",
"&  c #66421C",
"*  c #6A441D",
"=  c #6B4A1C",
"-  c #6A4717",
";  c #714D1F",
":  c #72521A",
">  c #6C4522",
",  c #6D4A24",
"<  c #634928",
"1  c #724D25",
"2  c #744D2A",
"3  c #714726",
"4  c #745224",
"5  c #75522C",
"6  c #7A532C",
"7  c #7C5A2C",
"8  c #795625",
"9  c #7C5432",
"0  c #7C5B33",
"q  c #775B34",
"w  c #6C532B",
"e  c #7D623A",
"r  c #7E6143",
"t  c #825D34",
"y  c #835C37",
"u  c #825F27",
"i  c #836233",
"p  c #8C6B3C",
"a  c #896638",
"s  c #96733B",
"d  c #896631",
"f  c #A36D38",
"g  c #8D6A43",
"h  c #8A6D4B",
"j  c #946D45",
"k  c #947343",
"l  c #9B7A45",
"z  c #9C7C4C",
"x  c #977649",
"c  c #9C7B52",
"v  c #977853",
"b  c #8E7041",
"n  c #A27948",
"m  c #A27C53",
"M  c #B47B44",
"N  c #9D8356",
"B  c #9D824E",
"V  c #A3834D",
"C  c #AB864B",
"Z  c #A48354",
"A  c #A98554",
"S  c #AB8A55",
"D  c #A4845C",
"F  c #A5895B",
"G  c #AC8C5C",
"H  c #A98759",
"J  c #B28E5D",
"K  c #B38A56",
"L  c #B3935C",
"P  c #BA975A",
"I  c #AD915F",
"U  c #AC8A63",
"Y  c #A78A63",
"T  c #B38E66",
"R  c #AD9262",
"E  c #AD946A",
"W  c #B49464",
"Q  c #BA9464",
"!  c #BC9A65",
"~  c #B4936B",
"^  c #BA956A",
"/  c #BB9B6C",
"(  c #B59B6A",
")  c #B69B74",
"_  c #BC9C74",
"`  c #B99976",
"'  c #BDA26C",
"]  c #BCA373",
"[  c #BDA27B",
"{  c #BBA776",
"}  c #9C8462",
"|  c #C8995B",
" . c #D39C59",
".. c #D9A25C",
"X. c #C3A05C",
"o. c #C29C65",
"O. c #C39C6C",
"+. c #CB9B65",
"@. c #C29C73",
"#. c #C79E73",
"$. c #D69D71",
"%. c #C4A36C",
"&. c #CBA46C",
"*. c #CCAA6D",
"=. c #C7A465",
"-. c #D3A364",
";. c #D2A56C",
":. c #D3AB6D",
">. c #DBAC6C",
",. c #D9A665",
"<. c #DBB26E",
"1. c #D5B16C",
"2. c #C4A474",
"3. c #CBA673",
"4. c #C5AA75",
"5. c #CCAB74",
"6. c #C3A57B",
"7. c #C9A67A",
"8. c #C5AA7A",
"9. c #CCAC7B",
"0. c #D3AC74",
"q. c #DBAD73",
"w. c #D3AD7B",
"e. c #DAAD7B",
"r. c #D5A574",
"t. c #CCB17C",
"y. c #CCB078",
"u. c #D4B275",
"i. c #DBB375",
"p. c #DDBA75",
"a. c #D5B37C",
"s. c #DBB47C",
"d. c #D5B97C",
"f. c #DCBA7C",
"g. c #D7B877",
"h. c #CFB06F",
"j. c #E7B26E",
"k. c #E1AD78",
"l. c #E2B375",
"z. c #E2BA76",
"x. c #E3B57B",
"c. c #E9B67B",
"v. c #E3BB7D",
"b. c #EABC7C",
"n. c #E9B575",
"m. c #F1BA76",
"M. c #E3AC69",
"N. c #E2A65D",
"B. c #DFC07F",
"V. c #E5C17D",
"C. c #EAC27E",
"Z. c #E7C57B",
"A. c #F2C07C",
"S. c #BBA381",
"D. c #C5AB83",
"F. c #CCAC83",
"G. c #C5A985",
"H. c #D2AE82",
"J. c #D8AE84",
"K. c #CDB383",
"L. c #CCB588",
"P. c #D4B483",
"I. c #DBB583",
"U. c #D5B985",
"Y. c #DCBB84",
"T. c #D4B48B",
"R. c #DAB68A",
"E. c #D5BB8B",
"W. c #DDBC8B",
"Q. c #DCBC92",
"!. c #D6B994",
"~. c #E2B683",
"^. c #E3BC84",
"/. c #EABD83",
"(. c #E3BD8B",
"). c #EABE8B",
"_. c #E7B684",
"`. c #F1BE85",
"'. c #E2BE92",
"]. c #E4BE95",
"[. c #E8AE80",
"{. c #D2AF90",
"}. c #DEC183",
"|. c #DEC18C",
" X c #D6C18D",
".X c #DDC393",
"XX c #DEC895",
"oX c #DEC49B",
"OX c #DFCA98",
"+X c #E4C284",
"@X c #EBC385",
"#X c #ECC985",
"$X c #E4C38C",
"%X c #EAC48C",
"&X c #E6C98C",
"*X c #EBCA8D",
"=X c #E7C887",
"-X c #F2CB86",
";X c #F2C58B",
":X c #F2CB8C",
">X c #F5C586",
",X c #F6D18D",
"<X c #E4C493",
"1X c #EAC693",
"2X c #E6C994",
"3X c #ECCB94",
"4X c #E5C59A",
"5X c #EAC69A",
"6X c #E4CB9B",
"7X c #ECCC9B",
"8X c #F1C692",
"9X c #F2CC94",
"0X c #F1CD9B",
"qX c #F6CB98",
"wX c #EED094",
"eX c #E6D19D",
"rX c #EED19D",
"tX c #F2D195",
"yX c #FAD295",
"uX c #F3D29C",
"iX c #FBD49B",
"pX c #F6DA9D",
"aX c #FAD99D",
"sX c #EFD08D",
"dX c #E5CBA2",
"fX c #ECCDA2",
"gX c #EBCDAA",
"hX c #E7C7A4",
"jX c #F1CEA2",
"kX c #F5CEA8",
"lX c #ECD2A3",
"zX c #EDD9A6",
"xX c #EDD3AB",
"cX c #EFDAA9",
"vX c #E7D2A1",
"bX c #F3D4A3",
"nX c #FAD5A4",
"mX c #F5D9A5",
"MX c #FBDAA5",
"NX c #F3D5AA",
"BX c #FAD6AA",
"VX c #F4DAAB",
"CX c #FBDBAB",
"ZX c #EED5B1",
"AX c #F5DBB3",
"SX c #FBDCB2",
"DX c #F6D9B7",
"FX c #F5CEB1",
"GX c #FDE2AC",
"HX c #FAE2A9",
"JX c #FDE3B3",
"KX c #FCE5B6",
"LX c #DFC5A4",
"PX c #FFEAC3",
/* pixels */
"/ W.<X|.<XE.9.P.E.4./ 4.t.P.U.$XR.(.7XuXuX0X3X3X2X3XrXeXvXgXxXxXNXSXKXJXNXfXbXCX4X7XfXbXNXbXfX7X}.}.$X&X2X2X2X2XW.K.<XW.<XlXK.8.9.%.%.a.$X+X+X@Xv.%X9X%X0.o.#.w.I.I.Y.$X1X<X5X7XW.jXmX1XY.Y.Y.d.] T.] { T.K.E.E.K.K.D.K.L.L.E.L.<XY.&XMXnX(.a.Y.5.a.a.9.a.$XY.%.",
"P.bXmXrXbX7X<X<XCXmXmXCXCXmXmXJX5X7X7X3X&X$X$X$X2X2XrXlXvXxXxXxXKXCXNX7X7X7X7X4X<X4X7X7XfX7X7X2X|.|.&X&X&X&X2X2XrX2XmX2X2X2X/ G P.9.a.$X&X+Xv.+X^.u.:.s.9XnXqX).%X%X&X1X1X<X4X4X4XnXmX1XY.Y.f.5.B .XOXzXJXzXVXvXVXVXVXVXHXJXJXHXCXuXuXMXuXa.%.3.%.&XCXGXnX1X%.V ",
"W.mXmX7XbXrX2X7X<X2XrXbX7XW.W.<XbX0X7X(.Y.I.Y.$X2X2XrXlXcXcXxXxXKXmX<XW.4X7X4XW..X<X<X2X7X2X<X<X$X$X&X&X&X&X2X1X7X1XmX7X7X7X/ F W.W.1X7X3X+Xf.f.+X;.| 0.9XnXqXI.(.+X$X$X$X(.'.'.7XmXjX<X(.&XY.5.p XXVXVXlX6XvX|.6X6X6XeX6X6X6X6XMX7X3XuX3XI.9.a.1XCXKXMX3XW.3.S ",
"W.bX7X<X7X7X<X7XW.<X7X7X<XW.W.W.7X5X<X(.Y.Y.$X1X1X2XrXlXNXxXxXdXCX7XW.W.5XuX7X<X|.$X<X1X1X<X<X$X&X&X&X&X&X&X$X$X<XW.rX<X<X2X/ G <X5X7X3X$Xf.f.v.f.i.0.q.s.~.I.e.I.f.I.W.$X<X<X4X5X7X5X$X1XuX&Xy.s 2XrXP.4.t.|.9.|.<X2X2X2X<X<X<X5X$X$X3X5X$X$X1XbXMXuXW.I.Y.9.! ",
"<XmXrX<X7X7X2XrX7X2X<X<X7X7X7X<X<X5X5X1X$X$X&X1X1X2XrXlXNXxXdXoX6X2X$X$X2X5X1X$X$X$X$X1X<X$X$X$X&X&X&X&X&X&X$X$XuX1XbX<XQ.<X/ G <X5X5X$Xf.f.^.@Xi.v.^.^.I.I.(.1X$X$X&X1X7X7XjXbX7X7X5X$X1XuX&Xu.V uX3X5.5.Y.uXY.&X1X3X3X1X2X5X3XuX5X1X1X1X$X(.$X(.1X1X1X7X5X3.l ",
"<XmX7X|.7X7X2X7X|.W.P.t.E.<X<XW.<X7X0X0X5X&X$X$X3X2XrXlXNXxXoXT.2X2X2X&X}.Y.Y.Y.&X&X&X&X&X$X$X$X$X&X&X&X1X&X1X1X7X$X7X|.<X7X6./ <X5X$Xa.a.f.+X=X%Xv.s.s.^.).(.~.1X&X1X1X5X5X5X5XbXmXjX1X1XuX$X5.C uX3Xu.0.s.+X=.g.f.^.I.s.s.^.&X3X5X1X1X1X$X&X1X$X1X$X1XuX0X%.p ",
"<XbX2XW.7X7X<X2X<X2X<XW.|.7XrX7X<X7X0X3X1X&X$X$X3X2X7XlXzXdX!.D.2X3X&X+X}.}.Y.}.&X&X&X$X$X$X$X$X+X$X$X&X1X1X1X2XW.P.5XW.<X7X4./ <X<X(.a.a.v.+Xf.:X@Xs.s.s.s.J.w.$X$X$X$X$X<X<X<XjXBXnX1X1XtX&Xu.s ^.^.0.:.=.&.K v.^.+X^.f.^.*XuX$X1X1X1X1X5X7X7XuXuX$XY.$X$X%.l ",
"<XmX7X<XrXbX2X7XW.7X7X<XW.<X7X<X<X5X5X1X&X&X&X3X3X2X7XlXcXdX!.6.rX*X+X}.+X*XwXwX&X&X+X}.}.}.}.+X+X+X$X&X1X1X5X5X1XW.7XW.E.R.H x <X<X(.a.f.=X^.u.i.^.%X^.w.0.~.1X^.+X$X1X5X7X7XfX<XbXbX5X1XuX3XY.u :.i.i.0.;.v.i.s.v.v.f.i.f.#XiX3X3X3X1X1X1X1X$X&X5X1X$X$XW./ k ",
"<XCXbX7XrX7X<X2X7X2X<X<XE.t.U.7X'.7X0X1X$X1X3X1X3X$XbX6XvXAXL.6.rX$Xd.u.d.}.}.d.3X&X+X&X*XwX*X$X$X%X$X$X3X9X3X$XuX$X3.Q 2.R.w.W 5X7X$XY.%X=Xf.+Xi.i.s.^.).).).).I.Y.Y.$X1X<X7XnXfX'.<X7X7XnXtX:.s yX;X:.i.:.i.;.i.:.i.v.@Xb.@X:X%X1X1X1X1X1X$X(.1X$XY.$XuX$X! G ",
"W.bXrX<X7X7X<X7X7X<X<X<XE.P.E.7X7X0X7X$X1XuXuX&XrX<XmX6XvXAXL.6.3X}.d.d.}.&X&X&X*X$X$X$X&X3X&X$X+X^.^.$X3X0X3X$X9.w.9.9.W.5Xw.G W.7X$Xa.I.+Xf.+Xs.s.s.^._.~.~.~.Y.Y.+X1X7XbXnXBX7XW.<X7X3XuX$X=.C yX%Xi.v.i.i.:.0.:.i.v.@X@X@X:X%X1X5X1X&X&X&X&X5X1X&X$X$XI./ A ",
"U.7X7X<X7X7X<X7X2X<X<X<XW.U.|.7XbX0X5X$X5XuXuX&XrX2XmX7XxXAXL.8.rX$XY.Y.$X3X3X3X&X$X$X$X&X2X$X$X$X^.I.$X9X9X$XY.O.9.I.(.5X0XJ.G P.uX1X5.0.f.f.v.v.v.^.^.~.~.I.s.I.Y.Y.&XuXCXCXmX7X'.5XuX3X3XY.P P yX^.s.%Xi.i.i.u.:.i.v.@X@X@X9X1X5X5X1X$XW.&X3X7X5X3X&XI.Y.5.S ",
"E.rX7X<XlXrX2X7X7X7X7X2X<X<X2XuXjX0X5X$X1X5X3X1XuX2XmXvXxXAXL.6.lX3X$X}.$X2X2X2X2X2X1X2X2X2X1X&X9X%X^.%X3X$XP.w.I.(.1X<X5X7XI.Q P.mX7X5.*.f.f.f.@X%X%X).(.).(.~.Y.Y.Y.(.7XCXmX7XjX4X7XuX3X3X$X=.o.:Xs.f.8Xs.g.v.v.i.u.s.v.v.@X9X1X5X5X$XY.Y.1XrX5X&X3X1XW.1XY.S ",
"<XmXbX7XbXbX2X7X7X7X7X7X7X7XrXbX<X7X0X3X$XY.$X3XuX2XmXeXvXAXL.6.7X2X$X|.$X1X1X2X2X3X7X5X5X5X3X3XqX%X@X%X%XI.w.w.1X0X5X].5X5XJ.Q W.CXuXa.0.i.i.f.^.%X%X/.).8X5X(.+X+XY.W.5XnXbX<XbX<X7X7X1X3X&X5.o.*Xu.u.*Xg.g.f.%Xf.a.u.g.g.+X9X1X1X1XW.Y.Y.1X0X&X$X$X&X5X5X5.l ",
"<XCXmX7XbXbX2XrX7XbXrX7X7XbXbX7X'.5X0X0X$Xa.Y.3XuX2XmX6XvXxXD.[ .X|.W.|.<X2X7X7X2X7XfX7X7X7X7X7X3X@X%X8X%Xs.s.(.I.(.1X1X0X0Xw.H <XMX7XY.I.g.u.f.s.@X%X^.(.8X5X(.$X&X&XY.1XmXnX4X7X<X<X1X(.1X1Xu.P 3Xa.5.$Xf.Y.f.%XY.a.a.s.f.^.3X1X&X(.Y.W.$X1X3X$X5XY.W.uXY.V s ",
"W.bXbX7XbXbX7XbX7XbXrX2X7XbXrX5X<X5X0XuX1XY.Y.1XrX2XmX6XdXxXD._ Q..X.X.X<X4X7XlX2X7XfX7X2X<X7X7X3X%X%X9X^.0.s.9X~.(.(.(.0X0Xw.m 5X7X$X$X%Xf.:.v.v.#X:X^.(.9X5X(.^.&X&XI.R.0XNX7X7X<X7X7X$X3X3Xa.L uXY.%.Y.Y.$XY.I.a.a.Y.$XY.(.1X5X$XY.Y.$X1X1X&XY.bXW.Y.MX%.d A ",
"U.7X7X<XlXbX7XbX7XrX7X<X<XrX7X<X7X5X7XnXuX$XY.$XrX<XbX6X6XxXG.) 4X4X4X4X<X<X4X7X<X2X7X7X4X<X4X7XuX9XqXqX~.+.0.9XqX8X(.R.5X0XH.A 1X(.I.$XtXf.*.+X+XtXyX%X%XqXqX(.a.+X+Xw.a.5XbX7X0X7XbXnX3XuX3Xu.G MX$X%.a.Y.&XY.5.5.a.&X3X&X$X$X3X(.P.Y.1X3X1X(.P.GX$XY.GX! d 5.",
"zXzXXXVXVXXXlXeXlXlXlX7X7X7X7X7X7X7X5X1X1X1X&X1XuX2XbX<XdXNXG.Y !.bXNX7X<XU.U.fX<X<X.X.X<X2X7XbXW.jX5X0XP.! I.%X9X$X1X1X(.].I.Q (.3X$XI.+Xs.:.i.%X%X%X%X%X%X%X%X^.$X$XY.d.$X5X3X0X1XuXuX3XtX3Xu.L 5XW.a.a.5.f.*.*.*.=.5.Y.5XuXuXbX(.P.(.7X7X5X5XuXa.Y.nXY.l l a.",
"vXzXXXzXVXOXlXvXVXbXfX7X5X7X7XfX0X0X7X3X1X1X1X1XrX2XbXXXdXxXS.Y 4XbXfX<X2X<X.XbX7X7X4X<X<X<X7X7X(.jX1X0X~.O.^.%X^.s.^.%X(.5X'.O.%X8X^.s.@X^.s.@X^.^.^.+X%X%X%X*X+X$X$X+XY.+X&XtXtX&XtXuX3XtX3Xy.S 5X$XY.a.u.+Xf.+Xf.a.f.Y.$X<X<XuX$XR.1X7X<X1X1XY.$XCXbXL 4 n MX",
"6XzXXXzXVXOXVXvXVXNX7X4X<X5XfXbXjX0X7X3X5X5X1X3X3X<XrX.X6XxX[ D 6XbX4X|.fX7X2XbXbXrX7X2X<X<X<X2X'.0X(.9X(.0.@X#X^.s.^.%X(.5X(.O.1XqX^.s.@X+X^.9Xs.s.s.^.^.%X8X9X%XY.+X3X3X+X$XuX3X&XtXuX3XtX3Xy.S 5X1XY.Y.f.*X*XtX=X+X+X$X$X$XW.5X1X1X7X3X1X<X1X5X5X5X$X/ V ! <X",
".XvXOXzXzX6XVXvXVXNXfX7X5X7X7XfX0X7X7X3X1X1X1X1X2X|.rXXX6XxX[ D .X7X2X1XuXrX2XbXuXrX7X5X2X<X2X2X1X0X(.9X%Xi.#X#X#Xv.@X%X(.).I.Q 1XqX%X^.%X%X^.8X^.^.s.f.^.%X8X9X3XY.+XpXpX$X+XuX3X&XtXtX&XtX3X5.G 1XW.a.}.+XtX=X=X=X+X$X&X1X5X5XW.1X7X0X7X1X1X5XMX5XY.W.5X5X9.W ",
"E.vXOXzXlX6XVXvXlXlXbXbXfX7X7X5X7X7X5X1X&X&X&X&X&X}.rXXXdXxX[ D U.3X7X3XuX5X$XrX3X5X5X5X5X5X3X3X1X0XY.1X%Xg.*X#X:X+X%X*X^.(.P.W $X9X$X^.%X(.s.^.%X$X^.^.^.%X3X9X9XY.$XaXnX&X$XuX3X&X3XuX1X3X1X5.W <XP.a.+X=XwXf.f.f.+X$X&X1X7X7XP.$X7XuX3X1X3X7XY.7XnX0X5X1Xa.! ",
"E.vX6XzXvX6XVX6XfXlXbXbXbXfX7X4X5X5X5X$X$X&X$X&X$X}.rX<XdXAXS.D U.wXuXwXuX&X}.3X&X&X&X2X3X3X3X3X1X9XY.*X%Xu.#X#X=Xv.@X#X%X1X(.O.(.3X$X^.1X^.a.I.3X3X1X%X$X%X1X3X3X$X$XuXbX3X1XtX3X&X3XuX1X3X1X5.J $XP.a.+X=X*Xg.f.+X=X$X$X$X<X5XP.1XuX7X5X3X7X7XP.3XbX1XW.W.a.! ",
"L.zXvXzXvXOXVX6XlXlXbXbXfX7X7X5X5X5X5X$X&X&X&X&X$X}.lX6XvXAXG.F rXpXwX&XwX&X}.&X$X$X&X&X&X&X&X1X$X0X^.*X+X:.=X#X+Xf.@X*X*X9X1X3.(.1X(.Y.$X(.I.$X1X1X1X1X1X1X1X1X5X1X1X1X0XuX7X5X3X&X7XuX1X3X1X5.V $X(.Y.+Xf.*XB.+X=X&X&X$X(.<X1X$X3XuX1X1X7X3X1X1X1XY.Y.1X3Xa.S ",
"L.zXvXzXvXOXVX6XNXlXfX7X7X7X7XfX7X7X5X1X1X1X&X1X&X|.bX2XxXAXG.Y GXHX&X}.wXwX+X&X&X&X&X&X&X&X&X$X$X0X(.*X+X*.+X#X=XV.=X:X*XuX3X5.(.1XY.a.(.(.W.3X$X%X1X1X1X1X1X1X1X5X1X$X5XuXuX1X3X&X3X0X1X3X1X5.k $X7X1X+Xd.*X=X=X=X3X1X&X$X<X1X1XuXuX&X1X3X5X+X$X&X1X3XuX3X5.C ",
"L.OXvXeX6X6XvXlXNXlX7X7XjXjX7X4X0X7X5X3X7XuX3X&X$XU.2X6XKXNXE F Y.wX&Xd.&X*X}.&X&X&X&X&X&X&X*X3XY.uXnX$Xu.f.=X*X+XsXtX=X3XuXY.W 7XbX<XW.5X$XY.1X7X5X5X5X5X7X5X1X5XbXMXbXuXbXbXuXbXCXY.1XMX5X1XP.H 5X(.$XuX}.f.f.f.+X$X&X1X1X<X$X$X+X$X&X3X3X&X+X$X3X$X3X&X*X&XV ",
"OXzXJXVXlXzXVXVX7X2X<X<X4X4X<XQ.R.I.I.Y.$X$XY.Y.2X|.2XW.cXxXG.6.mXGXpX$X3X3X&X3XwX3X3X*X*X3XwXwXuX|.5.5.$XaXaX*X*XtX*X+X1XuX5X9.R.1XW.U.1X$XW.5X7X5X<X1X5X1X$XW.7XuX7X5X7XuXuX5X$X0X<XuXuX1X<X/ k $XW.Y.3X=X+XB.=X=X$X$X&X$X<X$X&X$X$X&X&X&X&X&X&XtX$X3X3XtX$Xl ",
" XeXzXvX6X6X6XXXVXNXbXbXbXbXjX7X5X7X5X3X7X3X1X&X}.2XmX<XcXxX) R t.$XY.d.&X3X&X3X3X1X&X$X$X&X2X2XE.K.P.}.3X3X$X+X=X*X&X}.&X7XQ.6.7XbX<X.X7X<XW.7XuX7X7X7X7X2X<XW.bX0X5X1X7XmXbX<X<X7X7XbX(.<X7XG a 1X1XY.&X=X=XV.*X=X=X+XW.(.<X1X3X3X&X=X$X$X&X3X&X3X^.&X3X3Xf.d ",
"OXvXcXzXvXvXvX6X6X2X4X4X<X<X<X<X5X5X5X1X$X$XY.Y.}.2XbX|.vXxX) Y W.uXuX3XbX7XY.U.3X5X2X2X2X3X7XuXfX<X.X7XrX$X$X3XY.&X3X3X7X2XF.W W.2XW.U.<XW.U.|.<X.X|.<X<X|.E.U.R.$X<X$X<X7X7X(.mX0X7X0XP.5XCXZ a uXbXY.$X=X=Xf.=X=X+X+XW.$X<X1X3X3XtX3X&X$X=X3X$X=Xg.+X&X$Xu.8 ",
" XOX6XOXOX6X6XXXfXfXfX7X7X5X5X5X1X5X5X1X1X&X$X$X3X2X2XK.dXAXD.[ 8.W.U.P.$X$XU.W.W.|.$X<X<X5X7X7XPX!.~ 4.<XrXrXrXY.$X2X7X7X4XT._ W.7X<X<XlX7X4XbX7X7X7XrXbXbX7X<XR.7XCXBXnXnXmXnXmX5X<X5XP.5XjXp k MXMXY.$X=X*XB.f.f.+X+X&X1X<X1X&X*XtXtX*X=X&X=X=X=Xf.+X=X=Xh.8 ",
"VXJXJXVXVXJXKXVXNXVXVXNXbXfXjXbX(.<X5X3X3X3XwXuX2X|.7X<XcXdXE Y E.<XP.4.P.|.<XbXP.P.E.W.<X<X<XQ.~ D D ~ 6.8.9.t.Y.U.P.P.T.!.!.T.4XbX2X<X7X<XU.W.W.E.W..X<X.XE.P.2.W.7X5XW.E.W.<XCXBX7XCXbXbX5Xk z bXuXY.&X=XtX=Xf.f.Y.+X&X1X5X1X&X=X=XtXtXwX&X}.=X*X+X=X*X=Xd.d ",
"{ { ] E R ' ] ( 8.8.9.9.2.2.2.6.@.3.9.5.5.5.5.u.4.' P.K.L.E e v D.K.W k b p i a 7 0 a p g a i 0 0 Y G.6.~ R / 2.W.P.K.K.T.!.oX4XP.W.P.8.K.2.W / ] ] ] ] ] / R H U / 2.^ G G W W Z H k x k i 7 o J bX5XY.&X+X&X=XB.f.Y.Y.W.$X<X5X3X=X+X=XtXtX=X}.=XtX+X*X=X=Xf.s ",
"E.E.8.' ( 4.8.4.R W W W G H G J 3.9.w.5.%.! ! %.L l k e e q e F.6.U.P.8.P.K.8.8.F.P.W..X.XU.9.6.dXgXoXG.[ T.4X6X6X6XdXgXxXgXgXhXQ.7X2X2XVXVXlXVXlXlXlX7X7X<XU.F.7X7X<XU.H.P.R.P.R.<XW H H k z z 2.CX<XY.&Xd.f.v.=X=Xf.f.f.Y.1X5XtX+Xa.f.*XyX3X+X+X3X+X=X=X=XY.s ",
"uXuX0X7X3X3X5X1XuX0X9X3X3X0XuXbX&XwXwX&X%X9X9X%X%X0Xw.T ~ T.hXG.D.XXJXKXlXW.<XNXW.fXlXNXNXXXE.fXAXLXgXDXxXgXZXZXDXDXKXDXDXZXDXKXVXCXmX7X7XNXCXbXmXmXmXmXbXbXbXbX7XlXmXbXmXmX7X<XU.P.<X7XW.<X<X9.I |.2XU.$XtX+X:.@X#X#X@X+X$X&X3X1X&X3XuXuX3X&X&X3X$X$X+X+X3Xu.d ",
"9X3X3X%X%X%X%X%X%X%X1X3X3X3X3X1X}.&X&X}.v.=X;X@X8X1XI.7.F.!.hXhXdXVXKXKXNX6X6X7X.XvXvXlXNXXXE.vX!.G.!.ZXZXZXPXPXDXDXDXDXZXZXZXDXlXbXrX<X<X7XrX7XbXbXbXbXrXrX7X7X7XrXbXbXbXmX7X|.7X<X2X<XU.P.4.Z ] .X.Xt.f.=X#X:Xz.v.#X#X#X*XtXpX1X&X3XuXuX3X&X1X3X&X&X$X&XuXf.l ",
"3X%X$X^.I.^.(.$X^.$X%X8X8X3X%X$X$X&X+Xd.f.@X;X%X8XI.I.'.4X!.LXxXJXKXKXVXlXVXlX6X4XlX7X6XlX.XW.lX!.L.oXxXxXZXKXDXDXDXDXZXxXgXxXNXlXrX7X<X|.<X2X<X7X7X7X7X7X7X7X7X2X7XrX7XrXbX7X|.bX<X2X2X|.|.P.G ]  X|.t.f.v.@XiX#X-X:X:X#X&X&X*X3X&X3XuXuX3X&X3X3X&X1X&X3XnX$XV ",
"3X%X^.I.s.I.^.$X%X%X1X3X9X3X3X&X3X&X&X+X=X#X9XyX%X3.J.Q.4X4XT.oXAXKXCX2X6XVXVX6X7XlX2X4X7X.X.XNXxXdXxXDXxXxXAXgXAXAXAXxXxXgXxXlXNXbX7X2X<X2X7X7X7X7X7X7X7X7X7X7X2X7X7X7X7XrX7X|.7X|..X<X<XbX<X( R t.|.|.+Xu.u.#X:X:X:X@X+X+X+X$X3X&X3XuXuX3X&X3XtX3X3X1X1XnX$XC ",
"3X%X(.I.I.I.(.$X1X%X%X%X%X%X3X3XwX2X&X$X=X:XyXiX^.&.P.H.].NXG.G.NXCXNX<X.XvXNXlXlXlX4X.X6XXX.XVXvX6XNXSXcXAXKXNXSXAXNXcXxXxXvXfXNXbX7X7X7X7X7X7X7X7X7X7X7X7X7X7X7X7X7X<X2X7X7X<XbX<X<XW.W.7XU.Z R K.2X2X$Xu.*.z.v.v.v.v.f.+X3XpX3X1X3XuXuX3X1X3XuX3X3X1X&XuXY.V ",
"9X3X%X^.^.^.$X%X%X%X(.^.^.$X%X3X3X$X$X&X*X#X:XiX%X&.(.w.Q.NX6.[ VXNXfX2X2X7XlXlXlXlX<X.X7X<X.XNXlX6XNXNX2XlXCX7XCXVXlXlXlXlXlX7XlX7X2X7X7X<X2X7X7X7X7X7XrXrXrXrX7XrX7X<X<X7X7X<XrX7X2X<X|.bX|.F { OX2X}.Y.f.i.C.v.v.z.p.p.f.&XtXtX1X3XuXuX3X1XwXuX3XtX&X$XuXY.C ",
"3X3X%X%X$X$X$X$X%X%X$X%X%X%X%X1X2X|.}.&X*X%X:XyX%X! (.R.'.4X~ !.VX.XT.2XVXlXvXNXlXlXXX.XfX4X.XNXCXNXmX7XW.2XbX|.mXlX7X7XrXlX7X7X7X<X<X7X7X<X2XrX7X7X7X7X7XrXrXrXrXbX7X<X<X7XrX2X7X7X7X<X<XCX7X/ t.eX2Xy.a.+X+X#XC.C.C.@Xv.f.+X$XwX1X1XuXuX1X1XwX3X3XtX&X$XuX$XS ",
"1X1X%X%X%X$X$X(.%X%X3X9X9X9X3X1X2X}.$X3XtX*X:XiX%XK (.5X<XT.Y xXfX6._ XXKXCXlXNXlXlXXX.XvX6X.XlXVXbXbX7XW.7XmX2XuX7X2X2X7XrX7X5X7X<X<XrXbX7X7XmX2X7X7X7X7X7XrXrXbXbX7X<X<XrXrX7X7X7XrX<XW.7X<XG ] 6XXX4.a.=X@Xz.:.<.v.@X#X*X3X3XtX1X1XtXtX1X1XtX1X1XwX1X&XuX&XL ",
"$XuX%X^.%X%Xs.s.$X1XqXuX9X%X%X7X7X<XW.$X%X*X9X9Xs.0.~.$X5Xp U oXlX.X.XlXVX2X7XJXvXvXvXvXlXlXNXmXbXrX1X$X1X5X3X3X2X1X5X5X5X3XuXuX2X2X<X<X<X2X7X7XrX7X7X7XrXbXbXbXmXmXrX2X7XrX<X9.W.7X<X7X7X7X7XF { eXeXd.d.=X+XC.<.z.V.#X*X*X%X$X3X1X3XuX1XY.+X1X1XtXpX&Xa.Y.Y.%.",
"$XuX%X^.%X%X^.%X(.%X3X9X1X$X%X3X7X2X5X5X1X%X:X9Xx.u.(.(.7XH ] vXlX.X.XlXVXfXfXCXNXNXNXNXVXVXVXCXuX3X&X$X1X5X3X3XuX1X$X$X3XuXuXbX7X7XrXbXNXmXmXmX7X7X7XrXbXbXrXrXmXmXbX2X2X7X<XU.<X7X<X7X2X7XrXR R  XeX|.&X*Xv.p.b.C.@X@X=X=X%X$XwX3XuXuXtX&X&X3X$X$X1X$XY.&XY.P ",
"(.uX3X^.$X%X%XuX(.$X%X%X%X%X%X1X<X6XrX7X1X%X:X9Xv.s.~.I.bX9.K.7XNX6XXXlXVXlXlXVXVXVXVXVXVXVXVXVX7X5X<X<X5X5X7X7XuX5X<X5XbXbX7X|.2X2X7X7X2X<XW.U.<X2X7XrXrXrX7X7XbXmXbX7X<X7X7X<X2XrX|.<X<XrXbX( N E.2X|.&X:X+Xz.:X-X@X@X+X=X$X&XtXwXuXnXuX1X&X3X1X$X1X3X1XtXY.L ",
"I.uX9X^.$X$X(.9X$X%X%X$X%X3X3X1X<X2X7X1X$X*X8X:Xs.0.s.a.7X<X2.K.lX7X6XlXVXVXNXlXNXNXNXNXNXNXlXNX<X1X<X$X5X7X7X5X<X5X0XCXGXMX5XY.uXbXbXbXbXrX7X7X<X2X7X7X7X7X7X7XrXbXbX7X2X5X7XrX<X7XW.<X2XbXbXR E .X2XU.}.#X@X#X;X-X#X@X+X=X$X$X3X&X3XuXuX1X&X&XtX&X3XtX1X1Xf.S ",
"a.9XuX%X%X^.I.$X%X3X%X(.%XqX3X(.7XlX7X<X&X9X9X%Xf.0.s.a.1X2XG R 6XvXlXlXNXVXVXlXNXNXNXNXNXlXlXfX<X<X'.<X5X7X5X1X1X7XnXbX5XI.H.9./ / ' 8.P.<X7XmX7X7XrXrX7X2X7X7XrXrXrX7X7X7XrXmXW.<XE.2X7XbX7XZ ] eXeXY.+X*X%X@Xv.C.@X@X@X=X$X$X&X$X$X3X3X$X+X$X&X+X1X3X$XY.a.L ",
"a.9X9X%X3X$Xs.I.3X9X3X$X3XiX3Xa.<XlXNX5X1X9X8X^.^.0.I.Y.$X7Xx R W.vXVXlXfXNXVXNXVXVXVXVXVXNXlX7X<X'.<X1X5X5X1X'.nX0XW./ z a a p 4 4 4 8 i k Z G U.<X7XbX7X2X2X7XbX7X7XbXbXrXrXmXW.<XE.<X7XlX2Xz ] eXmX2X3X9X@Xv.z.z.V.@X@X&X$X$X&XY.Y.&X&X$XY.$X&XY.3XuX1X&XY.%.",
"s.9X1X(.3X3X^.^.1X9X3X$X3XiX%X3.F K.lX7X<X1X1X%X%X*.^.$XY.3Xk ] 8.fXJXlX2XlXCXVXNXVXVXVXVXlX7X2X<X'.<X5X5X5X].R.H.2.U p 1     X ; = = - = ; 4 8 x I P.2X7X7X7X7XmX7X2XbXCXNXrXbX2X7XE.<X7XrX2XB { rXmX$X&X*X@Xv.C.C.C.+X=X=X&X&X3X$XY.$X&X&X$X&XtX+X1XaXuX1Xa.L ",
"~.3X$XI.9X0X%X3X%X3X1X$X3XuX^.! = U <X7X(.(.1X8X%X=.s.$Xa.1Xk U.{ 6XKXvXXXvXVXCXlXlXlXlXlX6X<X<X<X'.<X5X5X5X'.R.g a a t t 7 8 4 - = - - - = = =   7 G U.7XrX7X7XMX2X1XbXGXmX7X7XuXuXY.<X<X7X7XZ 8.vXrXa.f.%X#X:X-X-XC.v.^.@X*X9XuX%X(.$X3X1X*X9X9Xs.I.9X3X^.! a ",
"u.&X$XY.*X3X%XwXtXtX9X3X%X+Xf.a.p R W.bXuX%X^./.%Xs.0.$X$X7XR 8.XXeXeX6XvXHXJXVXNXVXVXlXlXlX7X<X7XW.W.<X7XkXF.g g y 1 = 4 7 7 = 1 1 , > , , 4 4 4 4 a / 5XMXuX3XY.+X1XpXaX3X&X1X0X7X3XY.5XW.bXW 9.<X2Xa.a.#X:XV.#XZ.C.b.@X%X9XyX%X1X%X%X9XyX@X:.x.@XqX8X~.(.r.n ",
"Y.tX3X+X1X&X$X&X$X$X&X&X&X&X&X&Xp F 9.1X3X*X%X:X8Xs.3.(.$X7XU ] zXcXzXeXeXzXzXeXmXCXVXlXfXlX7X1X0XW.<XjXR._ c 9 2 5 5 1 - # % -   O * 1 5 5 4 1 - 4 x 3.1X3X5X&XHXyX=Xf.*.*.Y.pX1X3X7X(.0X$XbXG ! P.&Xf.g.+X@Xi.,X-X-X#X@X/././.).8X8X8X9XqX@Xq.:X;X;X~.~.8X_.K ",
"Y.uX3X$X3X3X$X1XY.+X$X&X3X3X3X3X2.K.Q.5X3X1X%X%XyX^.&.Y.$XrXG ( JXJXVXvXvXvXeX2XVXCXCXlX7XfX7X<X5XR.7XjX^ y , > 2 + . & 4 i V / 2.2.2./ D p 4 % 8 p L Y.1X&XW.}.$X=X*X=Xf.h.Y.tX$X1XuX&XbX<XuXS G P.7X$Xf.=X+Xi.C.Z.#X#X@X@X/./.).5X9X8X:X:X%Xc.;Xc.i.0.e.8X(.K ",
"a.3X&X+X3X3X&XtX$X$X&X&X&X&X&X1XNXNXfX7X3X1X%X@XqX^.0.(.W.2XF ( HXcXvXvXvXzXlXeXVXCXVXlX7X7X7X<XI.R.7XE.x > & & 9 .   y / R.0XCXmXBXBXnX7XE.9.%.H ! a.1XuX1X+Xd.u.f.tXHXaX&X$X&X$X1XuX$XbX$XuXS G U.7X$Xf.+X@XV.v.v.v.b.@X@X@X%X^.1XqXqX:X;X@X@Xv.i.x.i.i.%Xe.n ",
"a.1X&X}.1X1X&X3X1X1X1X1X1X1X1X1X7X<XQ.(.$X3X8X:X%X^.s.$XY.|.F { VXeX6XeXzXmXlXeXNXVXCXrX7X7X7X<XP.1X7X/ 0 1 5 & + & g F.SXJX0X$X7X7X7X0XbXnXMXMXa.Y.&X1X3X1X+Xd.pX*X&X*X3X&X3XtX5X3X7XY.7X(.bXL G P.$Xa.=.u.+XV.:X#X@Xv.v.x.x.x.(.1XqXyX;X@X#X-XC.@X-Xv.i.^.s.A ",
"Y.uX3X+X1X&XY.$X&X&X&X&X5X3XuXuX<X.XW.(.$X1X8X:X@X^.I.1XY.|.G t.HXeXXX6XzXlX7X6XlXmXmXrX7X7X7X<XW.uX7XG , 5 0 &   g F.NXCX0X5X1XbXuX7X1X$X$X1X&X}.$X$X+X+X=X+Xg.tX+Xf.+X*XtXtXuXuX7X3XY.5XW.bXW W U.<Xa.5.f.=XV.V.v.v.v.v.v.^.~.%X%X:X9X;XV.C.-X:X-X-Xi.=.s.s.K ",
"$XuX7X$X1X&XW.$X&X&X&X&X5X3XuXbX7X7XfX7X3X%X%X%X@X^.s.1X$X7XW K.VXXX X2XlXrX2X2X7XbXbX7X7XuX7X1X&X7X7XW 1 * 5 > + D 4XfX<X5XnXGX1X1X5X5X1X&X$X+X*.a.}.f.u.f.+X=Xu.u.B.tXaXuXtXtX0X7X3XY.5XW.bXW W U.7X$X}.&X=Xu.=.:.s.+X@X%X%X^.1X%X%X:X;XV.v.Z.-X#XV.1.&.s.0.C ",
"Y.uX3X$X3X3X1X7X5X1X1X1X1X3XuXuX.X2XbXuX0X1X%X%X%Xs.0.$X5XbX( K.vX XU.XXlXrX7X7X3XuXbX7X7XuX0X5X$X$X<X/ 6 X , 5 X D ].fX7XmXuXW.0XuXuXuX&Xa.=.L S *.f.g.h.f.*XyX=X=X*XtX3X$X$X3X3X3X3XY.7XW.bXW F F.7X5X1X3Xf.P *.u.+X#X:X/.s.0.9X%X@X;X#Xv.z.V.-X#X#X+X+X9Xs.n ",
"5X$X<X3X7X5X7XbX5X5X3X3X7X7X7X7XNX7X7XbX3X^.^.%X:Xs.^.(.5XU.W E.mXU.t.|.rXrX2X1X5X3X3X9X3X3X1X1XuXY.(./ & O y > o c ].fX<X5X0XuXuXuX3X1X&X&X&X&Xf.=X*X+Xh.*.f.tX*XyXaXaXwX&X3XtXuX3X1XuXY.P.$XS ~ T.lXbX3X$X+X+XB.+X=X%X%X%X%X1X(.I.f.#XtX#Xp.1.#XZ.p.v.u.9XK l ",
"uX7X7XuXnXCXCXCX0X7X7X5X5X7X7X7XvX6X7XuX3X$X%X9Xs.s.(.a.W.<X8.XXmX2X|.2XrXrX3X3X3X3X3X3X3X3X1X1X0X<X7X^ X X 0 + & j F.kXBX7X$X$X$X5XbXMXMXuX1X+Xd.+X=X}.u.u.+X*Xf.=X*X*X=X+X&XtXnXuX7XnX(.W.7XW R T.lXmXrX2X&X+X+X=X=X=X%X$X%X1X(.^.^.^.f.i.V.,X,X@Xv.@Xg.0XS l ",
"<X7X7X<X7XCXnX<X<X<X<X<X5X7XbXbX.XW.W.W.Y.a.s.v.s.%X3X5.a.|.8.W.mXmXrX2X2XwX3X&X3X3X3X3X3X1X1X1X$X5XbX_ * O 9 & , 1 x T.BXnXbXCX7X7X7X3X7XuXuXuX}.+X$X$X$X=X*X*X=X*X*X=Xf.a.f.Y.uX3X1X7XY.W.7XW N 6.6XlX7X2X$XB.+X=X&X&X&X$X$X1X1X1XuXMXuX+Xf.v.f.:.*.a.0.0XL Z ",
"9.<X0X<X(.7X<X9.<X<X<X<X5X5X<X<X7X6X7X1X(.s.s.s.s.f.%X5.9.9.( U.mXmX3Xd.Y.3XwX$X3X3X3X%X%X%X%X1X(.$XbXU.p & , > > X & g / U.5XMXCXnXbX7X5X7X7XuX$X+X+X$X3XwX&X+XpXpXtX*X+Xf.Y.Y.5X1XW.&Xa.W.0XG c ) E.2X2X2X&X+X+X&X*X3X3X1X3X0XCX5XI.I.(.Y.f.f.@Xg.u.(.I.nX/ ^ ",
"2.7XCX7X<X7X5XR.jXbXmXmXbX7X<XW.2X7X7X$XY.s.s.s.v.0.^.(.W.4.W eXHXuXY.*.d.tXuX$X3X*X%X%X%X%X%X1X$XY.5X7XT , . & 2 , O   = p V V w.E.7XCXCXnX5XW.$XY.Y.$X&X&XY.a.&X*X*X*X3X3XuXuX5X1X$X1XY.5XmXR c ) L..X2X2XwX&X+X*XwXtXuXuXbXnX0X7XbXCXbX1XY.f.+Xd.Y.1Xw.E.x g ",
"2.'.bX7X<X5X5X<XW.<X7XjXnXnXbXfX.X2X7X<X(.$X%X@XiX^.8XuX5X4.( JXGXwXd.y.+XpXpX&X3X*X%X%X%X%X%X1X1XY.(.bXH.a X + 5 y 6 X   = = # 7 p m ^ F.'.7X7X<X1X5X5X1X&X$X$X&X=X*XwXtXtXtXtX&X1X(.&XY.5XbXF x E D.E.E.|.}.d.Y.+X&X1X1X5X7XjXQ.fXSXCXE.! L %.1X1XMXKX7X7XH U ",
"P.H.7.9.7.9.H.P.2.4.9.9.P.E.W.Q.P..X<XY.I.^./.^.s.&.s.5.5./ ( JXMX*XY.$XwXtX3X3X9X3X%X%X%X%X%X3X(.$X<X5X5X_ g 5 , 5 6 5 4 ; = % % O X * 0 c _ P.W.7XbXuX1X$X5XuX3XwXtXtXtX*X$X+X$X&X$X1XY.7XbXB v E L. X XU.y.' %.*.5.5.5.5.5.7.!.6.D g 7 0 V %.S V Z G g c 0 c ",
"7X9.W W ~ / / / 9.4./ G Z Z Z Z b z z s a s s d 8 u s i p Z ( HXrX$X$XuXmX1X$X&X9X3X%X$X%X%X%X3Xa.5X<XW.NXNX6.x > X % 8 7 = - 4 0 5 , & & > 1 5 7.W.7X<XI.a.(.uX+X=X*XyXaXuX3X&X1XuX3XuX1XMXCXZ Y D.OXlXlX.Xt.! S G L J S A H H x a g W U.Y.%.S 5.L z a % i a _ ",
"lXNXNXlX6X2X7XlX2X.XU.W.XX<XE.K.8.K.K.K.t.9.P.U.2X( 4.4.4.mXHXeX6XlXvX6X<X7XrX7X1X1X1X1X%X$X(.Y.<X5X7X7X<X'.W.W.G p -   % = = - 2 y y > O & , > 6 j O.<XqX3X$X%Xf.+X1XuXuXtX1X$X1XMXuX7X7XmXjXZ E AXAXfXfX4XNXfXSXbX<XR.R.R.(.).iXMX9X$X$X5.L L 5.CXW.U.mXW.K.<X",
"NXVXVXNX7X7XlXNX7X<X<X<X6X6X<XW.vXzXzXlXeXeXlXmXVXt.U.8.4.zXmX6X6XvXlXvXvXNXNX7XbXuX7X5X1X$X&X$X$X5X7X7X7X5X5X7X5XP.W z p i 8 1 = 1 6 9 y y 3 . > 6 x 2.1XuXqX*X^.$X3XuXuX3X1X$X1XMXbXbXjXnX7Xc ~ NXfX].].Q.fX].<X'.R.~.(.].1X1X^.#X@X%XiXtX&XtXU.nX}.<XbX|.|.U.",
"lXrX7X2X<X<X<X2X<X<X2X7X7X7X7X2X2X2X2XOX.X.X.X2XVXL. Xt.K.HXJXVXE.oXdXdXfXlX7X<X7X7X5X$X$X$X1X3X(.<X7X7X7X7X0XbXbXbX0XW.3.W J W n p 7 2 3 > , 3 + + 1 x w.uXiX%X*X3XtXtXuX3X3X1X$XbXbXmXnXnX5Xz 2.NX].T.W.R.<XI.w.e.J.(.).1X1X).s.^.f.^.yXiXtXnX&X3X}.rX7X<X2X' ",
"5X1X$XW.Y.I.Y.W.Y.(.1X1X1X1X5X7X<X.XXX.X.XOX2X6XVX.X6X XOXKXVXVX.X6X6X6X2XvX7X<X5X<X5X1X1X3X3X0XW.<X<X5X5X5X7X0XE.5XbXmX7X<X5X7X(.9.T x 2 . @ 9 > @ O 7 J (.0X(.uXuXuXtXwX3X3X3X$XbX0XCXBXnX<Xz R.BXW.H.(.R.].I.w.w.I.(.).)./.x.v.+Xi.i.*X*X$X3X3XY.Y.uX|.|.7XB ",
"0X1X(.Y.Y.Y.W.(.I.Y.(.$X$X$X$X1X<X.X.X<X2X7XrXlXKXCXJX6XlXCXE.E.VXNXvX6X2XlXmXfX7X7XuXuXuX3X1X$X$X<X5X<X<X<X5X7X<X7X0XbX0X7X7X7X0X1X1X'.7.c 2 O 3 3 * * j 7.5X$XMXaXuXtX3X3X0XuX<XuX7XCXBXnX5XZ 1XCXI.w.(.~.).I.~.~.~._././.x.k.c.+Xi.i.9XtX3XuXuXY.Y.uXW.<XrXk ",
"8X$X^.s.I.Y.^.^.^.^.(.$X%X%X%X$X}.W.U.|..X2X2X2XVXCXJX7XmXVX9.K.KXAX6XQ..XvXNXlX7X7X0X7X1XY.a.3.5X7X7X5X<X<X5X7XmXbX0X7X7X5X<XW.3X(.(.5XnX].m O @ 2 3 + y @.5X0XMXaXuXtX3X3XuXuX7XbX7XnXNXnXjXW %XnXw.3.~.s./.x./._.x.c./.b.c.l./.@Xi.i.:XtX%X3XuX$X$XuXW.2XrXk ",
"8X$Xs.g.x.^.%X%X%X+X^.^.%X%X^.I.bXrX7X7XlXbXbXrX<XlXmX.XmXVX9.U.SXlX.XK.E.6XlX7X5X5X5X1X(.a.5.3.1X5X5X<X<X<X<X7X7X7X7X0X7X7X5X1X%X+Xs.w.<XjX7.j + 9 2 O 6 @.kXnXiXuXtXtX3X3X0XuXbXbX<XbXnXnXBX@.(.yX0.0.~.e./.c././.b.b.b.c.j.,.c.^.0.0.%X:X^.+X3X1X$X5XW.1X5Xl ",
"iX8X@X^.%X9XtXyX:X^.v.^.@X@Xv.0.uX7X<X<X2X2X<X|.7XCXmXW.rX7X/ 8.CXlXXXE..XlXNXlXuXuX7X3X1X$X$X(.W.(.(.W.R.W.<X5X(.7XbXbX0X7X7X7Xg.iXaX~.I.5X'.@.+ 9 2 . 2 @.kXkXuXuXtXtX3X3X0X0XnXbX<XbXnXnXCX9.~.qXq.q./.l.`./.`.`.`.`.m.j.,.| q.i.;.i.qXiX8X9X$X3XY.W.Y.$X$Xl ",
"v.%Xs.&.s.s.o.K %X@X^.v.^.@X%X8X7X7X<X<X7X7X7X7XMXW.bX7XmX7XG 2.VXvXoXoX2XfXfX7XbXuX7X3X3X3X0X0X7X(.R.5X7X<X1X7XR.R.<X<X7X7X0XuX3X%X$XI.I.5X]._ 3 O 9 y + c fXjX0X3X3X*X3X3X7X7X7XbX<X0XbXCXCXQ 3.yX%X^./.x.`.c./.`.b.l.,.-.,.>.x.q.;.:.x.%X8X8X~.3X3X1X0XbX9.x ",
"^.8X^.u.^.^.;.&.%X%X%X%X%X3X8X3X7X7X<X<X7X7X7X7XuX7XbX5X1X9.W K.lXdX6XoX2X7X7X7XbXuX0X5X3X3X3X9XW.R.<X7X7XR.U.E.CXmX0X7X<X<X<X1X9X^.s.I.'.BX5X~ @ + y 9 O c 5X5X3X3X&X&X1X1X5X3X7XbX5X7X7XbXnXQ 3.yX/.^.@X/.,X>X/.>X>Xn.,. .,.j.q.:.;.q./.%X%X/.%X3X1X1X3X1X3.z ",
"^.8X%Xs.$X^.s.s.s.I.^.%X1X%X%X$X0X7X5X5X7X7X7X7X<XCX7X<Xw.H / W.4X6X6X6X6X2X7XlXbXuX7X3X1X1X&X$XY.(.7X0X7X<X5XmX(.(.W.W.<X7XbXbXMX%X~.(.5X5X@.9 + * 9 2 * H 0X5X3X&X&X&X1X&X1X5X7XMX7X7X<X7XbXQ 0.yX^.v.@X/.yX;X/.>X>Xc.-. .,.c.q.q.q.c.;X;X).^.qX1X%X1X1XI.O.S ",
"Y.3X$XI.(.Y.a.(.a.I.^.$X1X1X1X1X0X7X5X5X7X7X7X7X(.JX(.<X9.x O.W.Q.oX6X6X4X<X7XbX7X7XuXuX0X1X^.I.$X5X1XU.2.O.P.7X7X7X7X7X7X<X(.W.%XY.$X7X5XQ.T 2 > 3 2 * 6 2.nX3X3X3X3X3X3X3X5X5X5XMX0X0X<X5XnXO.3.qX~.f.+X^.%X^./.@X@Xx.,.,.l.@Xx.x.x./.;X;X;X/.iX1X(.1X(.w.O./ ",
"1X7X$XY.$XY.P.<X<X1X5X5X7XuXbXbX0X0X7X7X7X0X0X7X(.CXR.5XR.H 2.P.Q.oX6X6X4X<X7XbX<X7XbXnXuX1XY.w.$X<XR.T a 4 i k 2.9.<XbXCXnX0X5XnXbXBX5X_ m y @ 3 , * * p Y.CX3X9X3XtXtXtXtX3X3X5XMX0XbX5X7XmXO.%.3XY.Y.1X$X3X^.%X^.i.q.q.l.b.;Xb.x.x.x.^./.%X%XiX1X(.1X1XI.9.3.",
"7X7X.XW.4X|.U.7X<X<X4X7X7XrXbXbXbX0X7X7X0X0X0X7X(.0X<X7X7X2.O.9.4X6X6X6X6X2X7XlX<X7XbXnXuX1XY.a.I.<XE.G 7 % # % X 4 k W w.R.(.(.5X(.T.T 6 . O . 2 > + 4 J 1XiX%X9XtXtXuXuXuX0X3X5XbX7XbX7X7XbXW 3.3XY.Y.7X3XuX%X%Xv.0.:.q.v.@X;Xc.x.q.q.q.x.).;XyX8X).%X1X<XP.3.",
"7X<XP.P.2X.XW.7XQ..X<X2X6X2X2X4XbX0X7X7X0X0X0X0X1X<X0X0XbX(./ P.lXdX6XoX2X7X7X7X7X7XuX0X3X1X$XY.Y.<X(.W a ; = = X % = 4 7 i i i t 6 9 6 + @ 9 9 2 6 7 n s.9X%X%X*X3XtXuXuXuX3X5X5XbX7X7X7X5X<XZ U.bXY.P.1X$X7X$X%X^.u.:.:.i.^.>Xx.x.l.q.i.x.%X,X9X9X%X(.1X0XP.W ",
"<XE.6.8.<X.XE.7X.X<X7XNXNXlX2X<XbXfX7X7X7XuX0X7X5XR.CXbXnX7X^ W.VXvX<XXX2X7XrX7XmXbX7X1X$X$X1X1X5X0XI.Z 4 % % - 1 = % O # % = 1 4 O > 5 , , >   6 y x 2.uXuX$X3X%X1X9XtXuX3X3X1X7XbX5X7X5X<XR.k 5XGXY.5.P.a.$Xg.%X@Xv.:.-.;.x.>Xb.b.c.c.b.@X9XiX8XqX1X~.1X0XJ.Z ",
"7XE.8.9.E.<X<XW.4X<X<XfXNXlX7X<XfXgXdX.X<XlXbXrXrX2XlX6X7XQ.E 6.bX7X1X1X7XuX7X7X7X$XY.Y.$XY.a.a.(.0X5XO.t O O 2 2 * > 2 2 * * 3 & & > , , 2 1 , X c !.fX7X<X7X7X1X3X3X%X3X9X1X^.0X1X5X5X<X7X(.W 3XpX3Xd.$X$Xv.@X;Xv.l.c.>X@X>.| <.b.z.<.<.v.@X+XiX3XI.P.7XnX7.p ",
"mX5XW.E.W.<X'.W.7X<X<X<X7X7XmXNXdXdXdXoX6XeXeX2X2X6XlXoXvXvX[ [ uX3X1X1X3XuX7X5X3X$XW.&X&X(.Y.R.R.(.1X5XR.^ p ; @ O O > 3 > 3 6 9 4 & $ % = 6 0 _ E.fXfX4X4X4X<XuXtX9X&X3XiXnXuX1X1X0X1XR.5X<X2.wXpX&Xd.+X=X+X-X:X@Xl.>.M.M.,.,...<.z.<.<.v.v.v.3X3X(.I.<X7X9.c ",
"jX7X<X'.W.W.W.(.'.<X<X'.<X5X7XbXoXdXdX6X6XeXeXXX.X2XlX.XvXxX[ ) rX3X1X1X5X3X5X5X3X$X$X1X3X1X1X5X1X(.~.5XnX5Xw.J g y t 9 2 * * > , = = 4 i z ( 8.4X7X7X4X4X7XfX<X3X9X*X%X*XtX9X%X%X1XqX1XI.$X1Xa.3XpX+Xu.f.=X@X,X;X>XA.l.-. ...,.| ,.<.z.z.v.v.f.+X1X1X(.W.(.9.W ",
"<X<X<XW.R.R.W.<XU.<X7X7X<X<XW.T.Q.dXxXvXvXeX6XXXeX.XeXXX6XT.Y [ 7X5X1X1X1X5X1X1X1X$X&X3X7X5X3XuX1X%X(.~.(.1X0XnX~.H.@.T m j p a a g z W 8.E.7XbX<X<X<X2XlXbX7X$X=X:X,X*X*X#X^.0.%X%X9X%XI.%X1X5.$XwX+Xu.+X=X@X9X@X>X>XA.<.,. .....1.z.v.v.v.^.v.%X3X1X(.W.R.9.W ",
"<X<X<XW.P.P.(.5XI.5X0X7X5X5X(.H.Q.gXNXNXlXlXrX2XmX|.2X7X6X[ N T.5X5X5X5X1X1X1X1X$X(.$X5X5X1X5XuXa.~.1X1X$X$X1X0XnXbX7X'.R.R.R.R.E.|.2X7XrX7X<X|.bXbXbXmXbX7X<X$XtX,X:X@X@X=X+Xi.*X%X3X*X$X9X$X! Y.3X$Xf.$X*X@X;X:X>XA.c.j.>.-. .<.<.p.z.p.i.v.+XtX3X$X(.$XW.5.L ",
"0X7X5XR.P.P.R.1X5X0X7X(.1XjX0X<X!.gXAXVXNXrXrX2XbX|.6XlXfXD.E 4X<X1X3X5X1X$X$X$X$X(.$X1X1X$X1X7X%X^.I.^.1X3X%XY.1X1X1X5X5XnXBXnXbXbXuXuXrX7X5X2XmXuX7X7X2X$X2XuXyX-XV.1.1.V.#X=X#X+X%X%X%X9X+XP a.&X$XY.&X*X@X%XiX@X>.-.-.,.,.,.<.<.:.<.:.:.i.+XiX*X^.$X5X$X4.G ",
"0X1X(.P.w.P.(.1X1X0X1X(.1XnX0XR.!.gXCXVXbXrX7X2X3X2XuX2XlX6X_ 9.<X1X3X5X&X(.(.$X$X$X&X5X&XW.$X5XMX*Xg.a.Y.%X%X$XY.$X1X(.$X7X0X5X&X&X2X3XrXuXmXMXuX2X}.&X2X&X3XuX#XZ.p.1.1.z.Z.V.V.+X@X+Xf.%X+Xo.f.1X$Xs.%X*X@X%XyX/.:. .-.>.>.i.<.-.-.<.1.:.s.@X9X$X^.1X3X$X5.L ",
"1XR.w.3.5.P.(.1X(.1X5X(.0XnX(./ E.fXCXmX7X3X3X1X$XuXmXY.7XCX_ Z <X1X3X5X$XW.W.$X1X&X1X5X$XY.Y.1X%X=X*X%X^.I.^.$X(.3X9X1X5XuXuX5XrXuXuXuXuX3X$X}.MX3X2XuXpX3X$X+X#X-X#XC.#X#XV.1.f.v.@X+Xu.^.@X0.^.3X^.a.^.%X%X8X%Xv.l.q.q.l.i.l.>.-.:.z.v.i.v.:X%X^.$X3X0X$X5.! ",
"9X~.I.(.R.0.s.9X1XR.0.w.I.P.3.Q 9.T.4XuXuXrXuXuX&XW.5X<XbX4X~ ~ R.$X$XW.$X1X$XP.1X$X$X&X1X5X5X3XaXtX*X=X&X&X&X$XW.$X1X3X0X0X7X7XuXrXwXrXuX3X$XY.a.}.2X2XwXpXuX+XZ.V.p.p.V.#X#XZ.=.i.+Xv.@XtX:Xf.qX0X$Xs.w.s.%X9X^.c.c.c.c.x.x.x.;Xv.x.@X;X:X:X9X=X%Xu.*.Y.f.y.d.",
"qX(.~.%XI.o.Q o.w.0.3.s.(.(.P.3.H.T.W.W.W.}.$X&X2X$X3X1XbX7X~ W 5X3X1X$X&X3X7X1X1X&X&X1X5X7XuXuXtX3X&X*XwXuXuXuX7X7X3X5X5X<X<X$XMXuXrXrXuXmXmXuX$X3XuX3XrXuX3X+XZ.V.V.V.#X#X#X#X:.f.f.u.f.*X*Xf.%X1X1X1X%X$X%X8X/.^./.c.c.c.c.c.v.v.c.:XyX9XtXyX+X*X+X$XuX*Xa.y.",
"9X^.s.(.).e.3.3.O.&.0.s.~.~.s.0.R.E.E.Y.I.Y.$X&X&X$X3X$XbX7XW G 5X7X3X$X$X5XuXuX$X$X$X$X$X&X1X1X+XY.Y.}.&X3X3X3X3X7X5X2X7X7XfXbX7X5X2X5X7XrXrX7X2X7XrX5X2X3X2X$X+XV.v.p.p.p.u.:.f.f.u.*.g.*X9X^.1X1X8X1X%X%X%X;X8X;X%X@X/.@X@X@X^.^.%X9X:X@X^.%X%X9X%X*XMXtXu.=.",
"iX^.0.s.^.%X%X%Xs.s.~.s.s.0.&.&.R.R.I.P.I.Y.+X$X$X$X3XW.0X7XG Z R.&X1X(.Y.$X1X1XuXuXuX0X3X5X3XrX7X3X2X3X3X7X7X5X<X<X<X<X2X7XNXVX7XrXmXCXCXbX7X2XbXbXmXbXbXbXmXmX*X#X#X@X+Xv.i.u.^.v.s.g.$XqX3X~.qX5X).R.I.~.%X8X8X;X%X/././.@X@X@X@X;X9X%Xv.^.%X9X9X^.^.tX&X5.=.",
"MX%X0.;.i.s.i.q.%X%X).x.0.0.0.s.I.P.P.I.s.a.a.u.%X%X3X(.0X0XT m P.$X1X1X&X1X1XW.&X1X1X1X$X$X1X5X5X1X$X$X1X1X<XW.7X7X4X4X4X4X4X4X7X7XfXfX7X7X<X<X<X<X4X<X<X.X<X7Xg.p.v.v.v.f.f.f.^.+X(.$X3X1XI.3.qX)._.I.I.^.%X8X%X%X+X^.^.^.@X@X/.^./.%X%X^.:XaX9X9X+X+XtX&X*.=.",
"9X/.i.s.~.~.0.&.x.s.q.;.;.0.i.~.'.'.(.(.(.I.u.*.$X=X9X(.uXnX^ m W.&X5X5X3X7X1XI.P.W.$X$XW.$X5XuX1X<X<X2X7X7X7X2X<X4XfXgXNXNXgXfXlXfXfX4X4X7XbXCXlXfXlXfX4XW.<X7X$X@X%X+X^.s.g.s.^.(.$X$X(.P.3.Q I.~.~._.).%X).(.8X8X;X;X%X%X%X%X%X^.i.i.q.0.s.@X+XtX*X:XaX=X*.=.",
";X/.x.x./.%X/.x.e.0.;.;.;.q.i.I.5X1X5X1X3X*X+Xf.f.+X&XY.0XnXQ z W.W.Y.Y.$X1XY.5.&X5X7X7X1X1X7XmX7X2X7XlXVXVXVXNX[ G.!.dXxXxXgXdXfXfXNXlXfX7XfXbXfXfXNXNXfX.X4XbXnXiXiX3X+XI.I.~.Y.Y.Y.I.w.9.9.w.e.e.e.J.~.~.e.0.^.(.%X%X%X^.^.v.~.0.&.;.;.&.&.0.g.%X=X+X=Xg.=.=.",
"iX8Xs.0.0.x.^.^.;X/.x.x.x.x.i.q.~.R.I.(.1X9X:X#Xu.g.^.w.1X0XJ j R.H.2.2.9.I.9.W O.3.3.' W G W / W W ( / ] ] _ _ Y ~ 6.L.!.L.G._ c Y ) 6._ U c k c c D U D c N T S K L K K L ! %.I.P.w.w.3.w.'.nX(.e.#.o.o.O.o.o.%.&.5.0.5.5.%.O.&.o.o.0.~.$X%X*Xu.f.0.' =.P P *.",
"1X9XI.0.^.%Xs.0.x.^././.x.l.x.c.(.3XqX9X+Xf.v.+Xf.u.0.w.$XnX@.O U G.T.R.T.6.7.7XP.9.4.6.F.T.T.F.2.U.P.8.U..XE.Q.gXK.T.dXhX!.G.~ } Y N h g c m x G m n Z T ~ T U L 3.P.E.W.1X5X1X5X1XW.Y.Y.$X7XMX%X%X$X^.Y.s.a.t.2.4.t.P.E.E.L.P.w.P.~.).1X3X3X3X1XW.a.a.Y.}.Y.d.",
"0XuX~.5.I.^.0.:.^.@X@X@Xb.c.c./.).1X9X9X%X+X+X+X%X%X%X$X7XBXw.6 ~ {.gXFXSXkX5XmXbXbXbXbXbXNXSXKX<XmXlX<XNXVXbXVXVX4XdXxXhXdXQ.[ ` S.G.!.4X4X5XnXjX5X1X5XjXfX4XQ.<X7XbX7X5X7XuX7XU.W.7XuXbXuXbXbXtXtXtXtX3X1X1X2X7XrXmXVXJXJXAXVXjXnXnXnXnXnXnXnX0X5X1X1XwX3X|.d.",
"3XuXI.3.a.s.0.s.@X@X;X@X/.b./.@X%X%X3X*X*X#X@X@X%X%X3X%X<X0X7.y F.FXSXkXBXNX<X$XbXMXCXbX7X4XkXCXW.7X<XU.<X4X<X7XfXfXfXfX].fX!.E ) S.!.NXfXR.R.0X(.(.(.1X7XjX5X<XCXCXbX$XW.$X5X1X5.P.$X5X7X1X1X&X%X*X3X3X3X3X5X5X|..X2X6X6XeX6X6X<X1X1X1X1X(.$X$X1X1X1XrXrX&Xt.%.",
"^.$Xw.%.0.s.s.;X@X@X@X@X/./.@X@X%X%X%X*X9XtX*X=X@X^.^.I.R.'.O.6 hXSXkXH.T.<XW.I.Y.W.Y.U.P.P.R.W.7XbX2XW.7X7X<XlXQ.Q.4X!.!.hXF.h G.!.AXDX5Xw.5.I.I.s.I.(.1X5X<XW.3X3X(.a.w.I.$X$XI.I.s.a.w.a.I.^.f.f.Y.^.$X$XW.W.<X<X2X6X6X6X6X6X7X0X9X0X3X0X0X0X(.$X&X1X2XY.4.! ",
"I.I.3.%.w.g.^.yX@X/.b.b.b././.@X%X%X%X9XtXtX:X#X9X^.s.I.(.5X@.6 5XSX4X6.P.1X3X3Xs.a.a.f.(.1X7X7XuXmX7X2XbX7X<XmXE.!.Q.Q.4XAXF.q ) dXPXVX<X$X%X(.9X8X8X%X$X(.U.w.(.%X^.s.s.+X%X@X%X^.f.u.0.s.^.%X+X$X$X$X$X$X$X}.7X7XeXeXeXvXvXvX0XqXqXqX0XqXuXuX1X3X3X7X5X}.t.4.",
"$X^.3.%.s.s.s.:X@Xv.c.x.b./.`./.%X%X3X9X9X:X:X#XtXf.a.I.(.5X@.8 '.NX5XP.W.&XY.^.=X+X^.$X9X0X1X(.$X2XW.|.7X|.T.4XR.T.E.Q.fXAXF.5 Y oXKX<X9.^.%Xv.@X@X/.^.I.I.P.a.^.@X/.v.^.@X/.s.i.v.^.v.v.v.^.@X*X*X*X*X1X&X&X$XW.W.W.W.W.W.W.W.(.(.(.(.(.(.Y.Y.5X3X3X3X2X}.P.t.",
"9X$X3.3.I.g.0.^.@X^.x.x.c./.@X@X(.%XqXtX*X=X=X*X@Xg.f.(.(.'./ 0 R.5X<XR.(.a.&.u.v.V.=X@X%X^.I.a.1X3X1X7XMX7X(.bXR.P.Q.4X4XfX6.a ] vXKXbXY.^.@Xv./.@X/.^.+X%X3XqX^././.v.c./.x.:.q.i.c.v.c.v.x.v.%X&X&X%X&X&X$X$X1X1X1X$X$X$X<X$X$X%X1X9X9X3X3X1XW.$X<X2X1XW.P.t.",
"0X(.&.3.^.^.0.^.%X^.x.x.b.@X@X@X^.3XuXtX%X+X@X*X=X^.%X9X1X'.#.p 6.P.P.I.^.u.:.=XX.:.v.;X:X;X;X9XY.$XW.1XbX<XU.<XW.W.5XfX4X4XF.m 2.|.mXbX$Xu.i.b.C.b.c.i.i.s.^.$X^./.c.x.c.@Xc.q.@X@X/.c.l.i.x.c.+X$X&X&X&X&X&X&X3X3X1X&X&X&X&X&Xa.s.^.%X9X0X0X0XP.W.5X7X7X<XU.K.",
"uX$Xw.0.s.^.s.0.c.x.i.x.b.b.b.x.(.%X3X:X*X@X@X@Xu.+X$Xs.(.7X@.t / |.! 1X%XC v.,X:.i.z.v./.;X%X^.I.9X(.5.I.$X(.Y.0XjX(.<X5X5XR.g R bXbX1X^.u.i.;.;.b.@X:.:.%X*Xf.;X@Xc.l.i.x./.@X@X@X@Xv.x.c./.%X%X&X3XuX&XY.Y.^.1X&X$XY.Y.I.^.%X^.+X%X%X%X%X9XuX$X<XbX<X7X7X] 8.",
"0X(.w.w.I.^.^.s.s.i.q.i.x.b.c.x.^.%X3X*X%X@X@X@Xg.%X$XI.<X0X@.0 P.bX3.3XuX=.+XV.i.z.z.l.x././.^.1X0XI.5.1XMX7X(.0XjX'.1X1X<XR.a 9.GXbX&X%X^.;Xl.l.b.b.i.i.@X%X^./.@X/.v.q.i.c.%X@X@X@Xv.x.c./.%X3X1X3XuXtX$X+X$Xf.I.^.^.^.^.^.^.f.^.@X%X$X%X0XnX5X1X7X<XbXbX] 2.",
"3X^.a.a.^.%X/.^.i.q.q.i.l.c.b.c.^.$X1X*X%X+X+X+X^.%X^.I.1X0XO.7 W.CXP.1XMXY.#X1.i.z.l.q.q.x._.x.%X$X&.o.1XMX1XI.1X0X(.5X1X'.H.t U.CX<XI.^.^.;Xl.b.c.c.c.^./.^.^.v.@X;X^.q.0.^.:X@X@X@X+X^.^.@X%X9X1X1XuXuX3X$X%Xs.f.^.@X@X^.v.i.v.+X+X^.^.$X3XuXbX<X7X.XmXNX_ / ",
"1X(.I.s.^.^.^.^.q.q.q.i.l.b./.@X^.%X1X*X%X+X+X+X+X%XI.s.1X5X^ 6 P.mXU.Y.0X%X:Xi.;.i.x.l.k.x._.k.s.^.0.3.$X3XY.a.(.1X(.5X1X(.H.t P.NXR.a.I.s./.n.>Xc.l./.@Xx.s.^.^.%X*X%Xs.g.^.8X%X%X%X%X^.^.%X3X3X$X$X3XuX3X$X+X%X@X%X%X@XC.z.i.@X@X+Xv.^.^.&X1XbX7XfX<XNXfX_ _ ",
"3X&X(.I.s.s.s.s.:.:.>.q.q.l.b.@X%X%X3X*X%X+X+X+X+X+Xf.s.$X1X^ 7 F.bX<XP.(.$X%Xv.| ;.x.c.x.[.k.r.&.@X8X%X%XI.w.~.I.%X(.1X1X(.I.a P.CX7X(.).~.;X>X;Xl.k././.e.e.(.$X%X%X%X$X$X$X1X(.%X1X%X$X$X1X3X3X$X$X3XuX3X$X+X:X@Xv.v.b.b.c.l.@XV.v.v.^.$X1X3XuX0XCX7XlX6X) [ ",
"3X1X$XY.s.0.0.i.;.;.:.:.:.>.x./.%X1X9X9X%X+X+X+X+X+XI.I.(.'.^ a F.fXfXW.$X(.^./.| r._./.[.[.k.$.| +XyX:X^.3.3.(.P.%X~.1X].(.R.j T.SX7X5X8X_.;X8X`.x.x./.~.e.e.(.$X$X<X1X5X1X1X$X$X&X5X1X1X1X5X3X7X1X1XuXuX3X%X@X+Xs.:.:.l.b.b.b.v.f.f.v.%X9X9X0XuXbXCX7XfX4X) 6.",
"&X1X%XY.0.*.0.0.:.0.q.>.>.q.c.@X%X9XqX9X*X@X=X+X+X%X$X(.<X(.^ j 6.Q.7X<X0X1Xs.).+.q.`./.x.k.$.$.+.^.%X+X^.0.3.).I.1X(.1X(.(.R.x R.NXQ.'.8X_.8X;Xc._.`.).~.e.~.1XI.W.<X<X<X|.<X1X$X1X5X5X5X5X7X7X3X5X3XuXtX$X+X@Xv.u.-.-.i.c.b.b.v.v.v.@X*X9X3X1XbXbXNX6XNXgX) [ ",
"^.$X$X^.0.&.:.q.x.x.x.l.i.l.@X:X:X9XtXtX*X@X@X@X+X%X1X1X1X(.@.m ~ 6.'.5XnXqXe./.;.x.`._.k.r.$.+.s.+X^.^.*X$X~.9X(.9X(.1X(.(.I.x 4XBXR.R.qX%XqX8Xk.`.9X).e.e.(.8X9.W.5X2XW.U.W.<X|.<X2X2X2X2X7X7X<X<X7XuX1XI.f.^.@Xl.>.>.l.b.b.l.;X=X@X#X:X*X$XY.MX7XlX<XVXNX) ) ",
"tX^.+X0.;.q.-.x.q.q.l.x.c.^.@X+X=X&X*XtXtX3X3X&X3XY.1X5X(.<X7.t Z W.jX1XqXiX:Xv.q.>.i.x.q.+.$.x.%X=Xg.*.*.g.f.f.3X3X1XY.1Xw.0Xd I.GXuXI.qXnXs.&.%X%X8X8X%X(.(.$XU.Y.1X5X|.P.P.|.eX6X2XOXOXeXzXzXvXdXfXbXuX1X^.i.q.>.l.c.x.i.^.8X*.f.%X+X+X&X1X$X$X5X7XeXVXmXK.F ",
"tX^.@X0.;.i.-.x.q.q.k.x.c.@X#X*X=X$X*XtXtX3X5X1X7XY.5X7XW.<X3.7 Q 5XnX1X8X9X/.v.>.>.q.l.q.;.r.x.i.u.u.*.u.+X&X$Xf.Y.1X1XnX$X7Xd 9X(.Y.3X9X0.&.(.$X%X3X%X^.I.I.I.W.}.2X3X$XU.U.2X2X2X2X2X6XeXvXvXZXxXcXbX7X^.q.-.>.,.>.l.i.0.s.$X%.a.+X+X$XtXuXuX5XrXrXrXzXrXt.B ",
"@Xf.@X:.-.q.-.l.x.x.x.x.v.@X#X*X=X$X3XtXtX3X5X1X3X(.7X7XW.<X4.4 #.5XjX(.(.%Xv.x.i.>.q.i.k.q.q.i.g.f.f.u.f.=X$XY.Y.+X1X3XMX1X$Xp $X3XqX(.0.I.%X~.%X1X3X%X^.I.s.Y.2X<X2X5X$XY.}.2X$X$X<X3XrXrXrX6XzXzXlXrX3X^.q.-.c.l.<.x.c.^.^.$Xs.+X*X%X&X3X3X1X7XrXrXrXlXrXt.N ",
"*.*.^.:.+.q.+.q.`.`././.@X+X+X+X=X$X3XtXtX3X5X1X1X(.7X7X(.5X7.1 @.].1Xw.s.^.s.v.c.l.i.l.x.k.e.q.f.f.f.f.f.=X+Xf.tX3X1X&X3X$X5.k I.$XuXs.o.%XMXs.3X8X3X3X%X$X^.(.3X2X1X1X}.Y.}.3X$X$X$X&XtXiXiXuX6XeXlXrX9X:X^.<.A.z.l.c.@X@X$X+X%X*X3X3X1X1X2X&X2X7X7X6XlXlXK.F ",
"P &.%Xi.;.x.-.q./.;X;X:X*X+X^.f.$X$X3XtX0X3X5X1X$XR.7X7XW.7X7.4 7.<X<XJ.s.s.s.@X@X/.c.x.x.x.e.0.u.f.a.a.Y.3XuX3XuX5X$X$X5X$XL l (.P &.$Xs.a.$X^.%X%X%X1X3X1X%X$X7X<X|.|.Y.U.Y.%X%X^.v.^.:XiXiXiX3XrXuX3X9X:X@X>.C.z.l.i.v.@X^.f.^.^.$X1X3X0XuXuX2XrX7X6XzXlXK.F ",
"=.u.yX^.0.^.q./.c./.%X;X:X*X=X+X$X&X3XtX0X3X5X1X(.W.7X5XW.jXH.5 H.5X5XR.Y.s.i.^./.@X@Xx.x.~.x.q.+X+XY.f.Y.&X1X&X(.Y.Y.1XuXuXA Z a.&.0.I.I.%X1XI.$X(.(.%X%X1X%X$X7X.XW.W.Y.a.Y.+X:X/.l.n.A.,X,X,XtXMXMX3X=X#Xv.=.C.#XC.v.v.@X@X^.$X^.^.%X3X5X5X7X7XbXNXlXzXvX8.z ",
"a.$XMX^.&.^.x.;X/./././.$X$X&X&X$X&X3XuXuX7X5X1X<X<XjX<XT.7XH.5 6.Q.<XR.R.I.u.v.s.@X;X^.x.~./.~.3X3X3X$X$X&XY.a.Y.I.a.1XbXCXZ Q 5.uX9X5.s.nXuXI.%X$X$X$X%X1X$X(.7X|.W.W.W.s.s.v.:Xb.j.j.m.A.m.j.+XwXtX%X@X*Xv.-.#X,X,X#X@X#X*X%X3X$XY.&X1X$XW.$X7XbXVXmXVXvX8.x ",
"$XwXGXg.o.s.x.8X9X;X).^.I.Y.$X&X$X&X3XuXuX7X5X5X7X5XbX<XP.7XF.2 U F.T.P.R.s.0.^.0.@X:X^.s._.).%X^.$X&X&X3X3X$Xa.7XW.9.E.<XCXZ 9.(.9X^.I.3Xs.0.iX9X3X%X1X9X3X%X(.7X.XW.$X(.I.s.v.>Xb.j.j.m.j.N. .=.f.+Xv.@XyX,Xv.V.:X:X@Xv.+X@X+X^.a.a.^.1X1X2X7X|.7XlXVXHXzXD.c ",
"%.uXCXI.&.&.e.9X^.).(.s.Y.$X}.a.Y.$X5X3X5X1X<X7X5X5XmXBX7XQ._ g j ~ ].Q.5X3Xa.9X+Xs.^.:X8X_.~.1X3X$X}.Y.W.W.Y.Y.W.a.R.W.jX<XH H I.$XI.s.$X^.0.s.%X%X1XuXiX9X%X$XW.W.1X5X$Xs.s./.b.b.m.m.M... ...-.;.u.v.@X%X+Xv.u.tX%Xf.:X@Xs.9X^.Y.Y.$X5X7X5X<X9.7XSX8..XKXD.D.",
"a.uXuXa.&.3.w./.~.~.~.s.Y.1X3X$XP.Y.$X3XuXuX7X5XmX5X4X4X4XQ.H . Y 6.4XT.E.(.5.$X^.^.%XqXqX].(.(.(.$X1X3X3X1X$XW.Y.P.W.W.7XQ.H G $X3XI.s.$X^.I.$X%X%X%X3X9X9X9XuX<X<X5X7X3X%X/.;Xl.l.n.j.M. . ...>.i.z.@X#X*X%X^.=.+X$X+XyX%Xi.$XI.(.1X1X<X<X7XfXlXVXVX4XAXPXE.E ",
"2XmX2X9.a.I.e.I.).1X(.I.Y.}.Y.a.7X7X0XnXCXCX7XW.BXfX4X].4XgX@., U 6.4XE.Q.1X9.$Xa.^.$X(.(.1X].~.(.1X0XuX5X&X<X1X5X<X7X<X4XH.c Z 9X9X~.a.(.(.I.%X^.%X3X3X3X3X9X9XW.I.U.W.(.I.s.x.i.l.n.l.>.,.,.,.-.;.i.c.%X9X3X1X&XuX5X&XuX9X%XnXa.(.3X3X<X(.7XnXNXNX6XNXAXxXoXD ",
"2XrX$Xa.$X1X~.~.qX8X%X(.Y.Y.P.t.<X$X$X1X<X<XR.H.Q.].].F.F.Q.6.0 v ) 4XE.7XbXY.5Xs.$X$Xs.I.1X5X(.$X1X3X1X(.Y.1X7X7X7XBX7X4XH.D W 3X9X~.a.^.^.I.%XI.%XqX9X3X%X^.I.0X$X(.1X1X%X^.^.i.x.x.q.q.q.>.-.,.,.q.x.).$X(.E.<X<XW.E.W.I.s.(.P.R.1X1X<X<X4XfX7XNX4XVXdX6XNXN ",
"U.2X|.Y.5X1X(.1X0X1X1X1X5X7X7X7X<X7X7X5X<X<X7XbX].Q.Q.R.!.4X` , v ~ T.6.P.2Xa.$XY.3X0X$X(.1X(.9.P.W.5X3X1X$X5X0X<X<XnX5X5X'._ R.3X9X^.I.%X$Xs.^.$X9X9X%X$X%X%X~.qX$X~.(.1X(.I.~.e.s.~.e.s.~.x.q.c.c.b.).1X1X'.!.Q.T.4XNXbX<XR.w.<X<X1X5X7X7X7X7XbXKXgXDXAXAXxXq ",
"|.rX|.Y.5X5X1X0XqX1X(.1X5X2X2X2XCXCXnX7X<XW.5XkXH._ _ T.hXfXT . ~ G.D.D R 8.' t.a.Y.1X$X(.w.O.G %.a.1XuXuX5X<X<X7X5XfXQ.].Q.@.W.3X9X(.I.%X(.s.^.3X3X^.5.w.%XqX3X1X(.R.(.(.~.I.(.I.(.(.I.~.1X%XI.-.,.q._.5XnXNXNXNX!.!.fX4X5XBXBX5X<X<X5X7X7X5X<XNXxXQ.dXAXAX) o ",
"2X.X4.! 5.5.3.R.P.3.%.5.9.2.' 4.9.9.4./ ~ W ~ ^ m g j U ~ U g . ` T.!.~ / U.4.a.a.5.5.5.3.O.^ ^ w.a.Y.W.W.P.9.9.7XQ.Q.9.T.T._ W.1X3Xs.0.I.s.0.I.(.^.0.! &.^.$Xa.%X^.(.1X1X%X1XuXR.(.R.9.7.P.7.Q M M K o.w.R.Q.Q.G.v c ~ U ~ J.P.9.9.w.w.7.7.7.7.F._ [ [ D.) q w ",
"|.4.z a l n n S n s k V S Z F W Z Z Z H ~ _ _ / ^ U ~ T g 9 y g ` !.gXT..XCX$X$X1X5.Q Q ^ O.P.jX7X$X9.O.! Q W W 9./ _ ~ F.Q.H.nX(.^.3.! &.&.&.a.5.0.&.! &.s.&.C K K Q o.o.o.3.I.w.P.3.G m Z k 8 f f f n n c v v r < h _ T m m a A J Q T Z c Z H Z x ~ D v w $ L."
};
