/* XPM */
static char *e4a5eea3fa054a678f2cd9cb67e2cc2ayMF9s6Q8LlNGgb1j[] = {
/* columns rows colors chars-per-pixel */
"128 128 254 2 ",
"   c #5D3915",
".  c #55330A",
"X  c #643C17",
"o  c #623C0B",
"O  c #643D20",
"+  c #644315",
"@  c #66431B",
"#  c #6A451C",
"$  c #6C4B1D",
"%  c #6B4616",
"&  c #714D1C",
"*  c #72501A",
"=  c #6B4522",
"-  c #6E4B23",
";  c #6E4A2A",
":  c #694426",
">  c #724D24",
",  c #734D2A",
"<  c #764B28",
"1  c #745224",
"2  c #75522B",
"3  c #7A552C",
"4  c #7C5B2C",
"5  c #795727",
"6  c #754E31",
"7  c #7B5532",
"8  c #7E5A33",
"9  c #765332",
"0  c #7D6230",
"q  c #825C2C",
"w  c #815D33",
"e  c #845B38",
"r  c #87642C",
"t  c #846334",
"y  c #85623B",
"u  c #8B6B3C",
"i  c #8A6737",
"p  c #936D3B",
"a  c #96743B",
"s  c #8C723C",
"d  c #A4703C",
"f  c #8B6943",
"g  c #926D45",
"h  c #8E7343",
"j  c #947443",
"k  c #9C7C4C",
"l  c #987748",
"z  c #9C7B52",
"x  c #926D50",
"c  c #A47B49",
"v  c #A27D54",
"b  c #A67B58",
"n  c #AD7144",
"m  c #9D8354",
"M  c #9A814E",
"N  c #A7834A",
"B  c #A48354",
"V  c #A98554",
"C  c #A48A54",
"Z  c #AC8A55",
"A  c #A4845B",
"S  c #AC8C5C",
"D  c #A7885B",
"F  c #B28E5C",
"G  c #B48C54",
"H  c #AD925B",
"J  c #BC9A5E",
"K  c #B6945B",
"L  c #B68A4D",
"P  c #AC8D62",
"I  c #A88562",
"U  c #B38E64",
"Y  c #AD9263",
"T  c #AB946A",
"R  c #B49464",
"E  c #BA9463",
"W  c #BC9B64",
"Q  c #B5946B",
"!  c #B9976B",
"~  c #B69B6C",
"^  c #BC9B6C",
"/  c #B49965",
"(  c #BD9C72",
")  c #B89872",
"_  c #AD9B74",
"`  c #BDA26E",
"'  c #BCA165",
"]  c #BCA272",
"[  c #BDA479",
"{  c #AFA17C",
"}  c #BFA05F",
"|  c #CC9D5B",
" . c #C5995A",
".. c #D49D54",
"X. c #CAA15D",
"o. c #D7A45C",
"O. c #E2A458",
"+. c #C39D64",
"@. c #C29D6B",
"#. c #C89964",
"$. c #C19F72",
"%. c #C69E79",
"&. c #D59D67",
"*. c #C4A265",
"=. c #CBA365",
"-. c #C4A26B",
";. c #CBA46B",
":. c #CCAA6D",
">. c #C8A969",
",. c #D2A464",
"<. c #D5A965",
"1. c #DAAA65",
"2. c #D3A66A",
"3. c #D4AB6D",
"4. c #DAAC6C",
"5. c #DAA668",
"6. c #DCB26D",
"7. c #D6B36C",
"8. c #C4A473",
"9. c #CAA673",
"0. c #C4AA74",
"q. c #CCAB74",
"w. c #C4A47A",
"e. c #CAA67B",
"r. c #C5AA7B",
"t. c #CCAC7B",
"y. c #D3AD73",
"u. c #DBAD72",
"i. c #D3AE7B",
"p. c #D6AC77",
"a. c #CDB27C",
"s. c #CCB175",
"d. c #D4B275",
"f. c #DBB374",
"g. c #DDBA75",
"h. c #D4B37B",
"j. c #DBB57B",
"k. c #D5B97C",
"l. c #DCBB7D",
"z. c #D7B975",
"x. c #CFB06F",
"c. c #E4AE6A",
"v. c #E2B26E",
"b. c #E6B46C",
"n. c #E3AE74",
"m. c #E4AB76",
"M. c #E3B474",
"N. c #E4BA75",
"B. c #EABA76",
"V. c #E3B57A",
"C. c #E9B67B",
"Z. c #E4BB7C",
"A. c #EABC7C",
"S. c #E9B673",
"D. c #F2BD78",
"F. c #F1B66C",
"G. c #DFC07E",
"H. c #E4C27C",
"J. c #EBC27D",
"K. c #EBC379",
"L. c #F2C37D",
"P. c #BDAB83",
"I. c #CCAD82",
"U. c #C7AA83",
"Y. c #D2AE82",
"T. c #D7AD87",
"R. c #CDB383",
"E. c #CDB687",
"W. c #D4B483",
"Q. c #DBB683",
"!. c #D6BA84",
"~. c #DDBC84",
"^. c #D5B58A",
"/. c #DAB68A",
"(. c #D5BB8B",
"). c #DCBC8B",
"_. c #DDBD91",
"`. c #D6BA93",
"'. c #E2B681",
"]. c #E3BD83",
"[. c #EBBD83",
"{. c #E3BE8A",
"}. c #EABE8A",
"|. c #E5B685",
" X c #F1BE86",
".X c #E2BE92",
"XX c #E6BE97",
"oX c #E4BFA2",
"OX c #DEC184",
"+X c #DDC18C",
"@X c #D8C289",
"#X c #DDC392",
"$X c #DEC39A",
"%X c #DFC894",
"&X c #E4C285",
"*X c #EBC384",
"=X c #E7C885",
"-X c #EBCA84",
";X c #E4C38C",
":X c #EBC48B",
">X c #E6C98C",
",X c #EBCA8D",
"<X c #F2C585",
"1X c #F3CA85",
"2X c #F2C58B",
"3X c #F2CA8C",
"4X c #FBCA8A",
"5X c #F3D18B",
"6X c #FAD18D",
"7X c #E4C492",
"8X c #EAC693",
"9X c #E5C994",
"0X c #ECCB94",
"qX c #E5C599",
"wX c #EAC69A",
"eX c #E5CB9A",
"rX c #ECCC9B",
"tX c #F1C692",
"yX c #F2CC93",
"uX c #F2CE9B",
"iX c #F9CD95",
"pX c #EDD194",
"aX c #EDD19C",
"sX c #E7D09B",
"dX c #F2D295",
"fX c #FAD294",
"gX c #F3D39C",
"hX c #FAD49B",
"jX c #FADA9C",
"kX c #F7D99A",
"lX c #EDD08F",
"zX c #E6CDA1",
"xX c #EDCDA1",
"cX c #E8C6A3",
"vX c #F2CEA2",
"bX c #F3CCA6",
"nX c #EDD3A2",
"mX c #EED5A9",
"MX c #EFD9A6",
"NX c #F3D4A3",
"BX c #FAD6A3",
"VX c #F4D9A5",
"CX c #FBDAA4",
"ZX c #F5D4A9",
"AX c #F9D6AA",
"SX c #F4DBAB",
"DX c #FBDCAB",
"FX c #FCDDB1",
"GX c #F8DBB2",
"HX c #FDE2AD",
"JX c #FDE3A7",
"KX c #FDE3B2",
"LX c #FEE8B8",
"PX c #FFE8C1",
/* pixels */
"R (.7X).+X!.t.W.).` R ^ W.!.(.(.h.Q.{.>XrX0X0X,X>X9X0XeXeXeXzXzXNXDXLXKXNXrXrXNXwXeXuXNXNXNXuXrXwX;X;X7XrXrXqX7X.X/.qX)..XxXU.$.h.*.W :.l.&X>XdXj.yXyX].p.+. .f.~.~.~.~.;X>X>X>X~.>XgX0Xh.~.;Xs.` (.] U.`.R.E.R.E.R.[ r.E.(.E.R.~.l.;XBXBX&Xh.h.-.t.i.t.W.).W.@.",
"a.NXSXNXNXeX7XrXDXaXrXNXDXSXVXDX9X0XuXyXrX,X>X;X0XpXaXaXnXnXnXnXKXSXNXuXrX9X7X;X7X8XeXrXuXrXrX9X>X;X7X7X9X9XwX7XSXvXFXxXcXxX( S q.:.d.;X,X&X].].Z.j.;.p.fXjX2X:X>X>X>X>X>X>X>X>X0XrXgX0Xk.~.~.8.C #XeXnXKXnXSXnXSXmXMXmXSXHXHXSXVXrXdXCXgXh.^ -.-.;XDXDXNX7X$.k ",
").DXDXNXNXrX9XNX7X7XeXrXrX+X).;XrX0X8X>X;X~.l.l.0XpXaXaXnXmXnXnXLXgX;X).8X0X7X~.;X;X7X0X9X8X7X;X;X>X0X9XwX7X7XwXrX7XAXrXwXwX) D ~.~.,XdXdX&Xj.j.].d. .=.fXCX:XZ.].].~.~.~.~.~.~.rX0XgX>Xl.;X;X-.h eXSXnXaX%XnX#X@X#XeXeXeX%XeXeXgX0X0XkXrXh.q.t.7XDXLXDXrX).8.D ",
"+XVXNX9XeX9X7XrX7X7X7X9X7X).!.!.7X;X{.].~.~.l.~.>X>X9XaXnXnXzXqXDX9X~.~.8XuX0X).;X;X>X>X7X>X;X;X).7X0X9X7X;X7XrX{./.rX.X.XqX( S rX0X0X>X].k.l.&Xj.Z.y.3.Z.V.y.j.j.j.~.~.~.;X;X>X0X>X0X;X~.rX0Xq.j aXaXa.0.t.+Xa.W.+X9X9X+X+X7X0X>X&X&X,X0X&X).7XNXDXNX7X(.(.t.^ ",
"7XSXNX7XeX9X7XrXrX9X7X7X9XrX9X;XwX8X;X;X;X;X>X>X>X>X9XaXnXnXeX_.rX,X&X&X;X>X;X~.;X;X;X;X;X;X;X;X).>X0X9X7X;X8XrXNXwXNX7XqXwX%.R rXpX,X~.d.j.].:Xp.&X].j.].V.j.3X&X;X;X>X0XrXrXgX0X>X,X;X;XgXrXq.N gXaXs.q.~.rXQ.~.>XaXrX9X;X0XgXdX,X;X>X;X~.).;X).7XwXwXvXrX8.l ",
"7XNXrX+X9X9X7XrX+X(.W.t.!.7X7X(.7X8X>X>X;X;X&X&X,X9X0XnXSXmX$X(.>X>X>X&X~.k.k.k.>X>X;X&X;X&X;X;X;X>X8X0X8X7X7X9XrX.XrX.X7XxXe.$.OX>X;X~.l.~.].l.*X:Xj.f.*X}.j.].>X>X>X>X>X>X>X>XkX0XrX,X;XrX0X>.N gXyXj.k.j.].+.i.j.].~.j.j.&X0X0X0X>X;X;X;X;X7X;X7X7XwXNXvX$.u ",
").aXeX).9XeX7XrX+X7X7X).).eXrXeX).{.;X;X>X;XOX~.0X9XeXaXMXnX#XR.pX,X&XH.k.k.l.l.>X=X=X&X&X&X&X&X;X;X;X>X0X9X8X7X~.W.7X(._.qX$.R ~.&X&Xl.].&X].d.:X,Xj.y.Z.j.3.f.{.;X&X&X;X;X;X;XgXrXgX0X&XrX0Xq.a ].&Xp.3.=.=.G Z.].].Z.l.].,XdX;X;X;X&X;X0XrXrXrXrX{./..X7X$.j ",
"7XNXaX7XNXNXrXNXW.7XrX7X(.7XeXeX).;X8XrXdXrX0X,X>X>X>XeXnXeXE.8.kX,X&Xl.H.&X,X,X=X=X&X&X&X&X&X&X,X;X;X>X0XrX8X;XwX).uX.X).).D l >X>X~.d.j.;X&Xj.f.:X*Xj.j.y.f.3X].~.;X;X>X0X0XrX,X,XgX0X;XrXgXj.r d.f.3.3.=.Z.f.j.j.f.f.f.N.=X3X,X0X,X&X;X>X7X7X).7X7X{..X).! g ",
").VXNX7XrXnX9X7XrX9X7X7X(.a.!.eX).0XuX:X;X,X,X>X0X;XVX9XeXnXR.r.dX&Xd.:.d.l.H.l.,X&X&X&X=X,X,X>X;X;X;X;X>X0X>X).uX7Xt.^ t.(.t.R 0XpX&Xl.>X&Xl.&Xj.f.f.j.Z.C.*X:X~.~.~.;X;X;X,XgXrX~.;X0X0XjXdXq.a fX3Xf.f.3.u.=.2.3.u.f.C.A.*X*X&X>X0X0X>X&X{.;X).{.!./.rX7X^ k ",
"!.NXaX+XeXaX9X9X9X7X7X+X!.t.!.7XwX0X0X;X>XyX0X;X0X>XVXeXeXmXR.r.0X&Xd.d.l.&X>X>X>X&XOXG.&X>X>X&X&X~.~.&X0XrX8X{.Q.q.^ 8.7XNXW.k ~.pX&Xd.l.&Xl.&Xj.j.f.j.j.j.V.].~.~.~.>X0XrXgXgXrX;X>XrXrXkX,X*.N fX:Xf.C.f.f.3.3.3.f.Z.*X<X3X3X&X>X,X,X;X].;X>XwXrX7X{.7X).8.v ",
"W.aXrX+XeXaX7X7X7X7X7X+X(.W.).eXgX0X;X;X0XdXpX;XpX>XVXeXeXmXE.r.0X&Xl.l.;X,X0X,X;X&X&X&X&X&X;X&X&Xl.l.&X0X,X&Xh.E q.).;X;X;Xi.E k.dX;X>.y.l.l.].].].Z.j.j.j.j.j.~.~.~.>XdXjXgXgX0X;X0XgXrXdX&XJ K yX].f.*Xf.f.f.3.3.f.f.Z.*X:X-X>X>X>X;X~.~.;X8XwXwXeX).W.).t.k ",
"(.NXNX7XeXrX7X7XeXeXeX9X7X7X9XNXrX0X8X;X>X,X,X,XpX>XVXeXzXSXR.w.gX0X;X;X>X,X;X;X;X;X;X;X;X>X>X>X,X&X~.;X,X&Xh.9.9.>XgX7X~.Q.h.8.k.kX0X>.>.k.l.l.*X>X*X].Z.].].Z.~.~.~.~.0XjXgX>XrX;X0XdX0XrX&XW +.3Xf.f.:Xf.j.Z.f.d.y.y.f.Z.&X>X,X>X&X~.~.&X>X9X7X{.7X.X(.7X!.k ",
"7XDXVX7XrXaX7X7XrXrXrXeXeXrXgXNX7X8X0X>X~.l.&X,XpX>XVXeXnXSXR.] rX0X7X>X>X>X;X;X>X>X0X0X8X0X0X0XlX&X&X=X;Xk.q.q.gX>Xh.h.9XNXQ.V ~.CXdXd.y.j.j.l.].:X:X].].:X:X].].;X~.~.,XkXrX~.dX;X0X0X;X0X,X9.+.,Xy.3.;Xd.k.l.>X&Xj.d.k.l.>X0X,X;X~.~.~.;X7X0X9X;X7XwXvXvXt.l ",
"7XDXSX9XrXNX7X7XeXrXrX9X9XrXrXeX).8XuXyX~.d.l.,XpX>XgXeXnXSXU.~ 7X;X;X;X7X8X9X9X7X0XrXrX9X9X9XrX>XG.&X>X&Xd.h.~.&X~.~.~.uXgXi.c >XjX0Xl.l.j.d.l.j.*X:XZ.].:X:XZ.;X0X>X~.;XgXgX;XdX>X0X0X;X0XrXk.J 0Xi.;.~.k.j.l.;X~.j.d.h.l.;X;X,X;X~.l.~.;X>X8X7X7X/.{.AX(.B g ",
").VXNX7XrXNXeXeX9XrXrX7X7XrXrX7X;X;XrXgX>Xl.l.>XpX+XaX9XnXmXr.Q 7X7X7X;X7X7XrXrX{.7XrXrXeXwXwX0X;X&X=X,Xl.:.d.0Xq.;XrX9X7X;Xq.Z >X,X&X&X>Xl.y.].j.:X3X].].2X:Xj.].,X>Xh.~.rXgX0XdX,XrXdX>XrXrXk.Z pXQ.-.Q.k.~.h.h.h.h.h.Q.~.~.~.>X].l.l.~.>X7X;X).rXW.(.DX$.t B ",
"W.NXxX7XrXNXrXrXeXnXrX7X7XaXrX7X9X;X0XgXpX&Xl.&XpX+XaX9XrXZXr.Q xXrXeX7X7X7X7XeX).7XrXeXqX7X7X9XrX,X0XyXl.*.y.yXyX0X{.~.uXNXi.N ;X&Xj.&XdXl.:.&X].yXfX*X*XyX3XZ.h.;X].i.i.>XgX0XyX0XgXhX0XyX0Xs.C gX+X-.k.~.;Xk.>.d.~.;X0X>X;X~.>X~.~.~.;X>X7X;X).DX).7XLX^ t t.",
"ZXKX7XNXKXqXrXNXnXnXxXxXxXrXrXrXrX9X0X,X>X>X>X,X0X;XrX).7XZXU.R ^.xXNX7X7XW.W.rX_.).).).7XeXxXNX{.uX8X0Xi.K j.;X>X].:X0X{.XXW.F ;X,XZ.f.Z.f.3.f.].*X:X3X2X:X*X].].>X;Xj.d.~.:X>X0XyX>XhXyX>XgXq.Z 7X).!.~.d.d.} >.:.:.d.f.&X0XgXCX;Xh.~.0X9X7X;X7X{.h.HX).t B t.",
"rXDX#XxXDX7XeXxXNXNXxXrXeXrXxXNXrXrX0X0X0X,X,X,X0X>XgX{.qXNXw.D 7XNXrXqXeX7X#XNXrXeX7X7X#X7XqXqXXXbX8XuXQ.+.].:X].j.].:X{.8X{.@.&X3X].j.*XZ.f.].Z.Z.Z.].*X*X:X-X].:X:X].].].:XyX:XyX:XhXyX:XdXq.Z qX+X~.l.d.l.7.l.g.g.g.N.&X:X:XgX{.Q.;XrX9X7X7Xi.rXgXDXE + Z NX",
"7XAX#XxXDXqXrXnXAXNXrXqXqXeXnXNXuXrXrX0X0X0X,X,X0X;XgX;XqXbX( v rXNX7X7XxXrXeXNXNXaXrX7X7X+X7X7XwXBX8XuX{.y.>X3XZ.f.].{.{.8XXX@.].3X&XZ.=X&XZ.:XZ.g.f.f.j.].3XyX:X].].yXyX}.:XhX:XyX:XhXyX>XyX9.D qX+X!.k.k.>X&X,XH.Z.l.&X=X*X].8X).).7XrX9X7XwX7XrX).;X-.l ^ ~.",
"#XDXqXNXFXrXNXZXNXNXrXeXrXrXxXNXrXrX9X0X0X,X,X,X;X&XgX7XeXNX( z ).9X7X+XrXrX7XaXrX9X9X7X7X9X9XeXwXuX{.0X:Xf.3X3X:XZ.].].Q.{.Q.E ].3X&XZ.=X&XZ.=XZ.g.f.f.j.].2XyX:Xl.].hXhX:X:XhX:XyX:XhXyX:XyX9.R qX!.s.~.OXdX=X=XH.g.Z.*X2X:X;X~.{.7XrXrX9XwX9XNX7Xt.~.rXwXt.V ",
"(.AXeXNXDXrXZXZXxXxXnXnXxXxXrXrXeX9X8X>X>X;X;X;X].~.uX7XrXZX%.B W.9X9X9XrX7X).0X7X7X7X9X9X0X0XrX8XuXQ.>X:Xf.-X-X3X&X&X&X~.{.Q.E ;X,X&Xl.&X].j.].&X].].].].*X>X,X>Xj.~.gXhX:X;XgX>XuX:XgX0X:XyX9.^ 7Xa.q.~.&XlXg.H.g.g.Z.=X-X:X>X~.;X9X0X0X9X0X0X~.7XgX0X9X9Xq.S ",
"I.NXqXrXNXeXNXnXrXrXNXNXNXxXrXqXwX8X7X;X;X;X&X;X].~.uX7XrXAXw.A ~.aXgXpXgX>X~.0X9X9X9X9X>X>X>X7X;X0XQ.>X&Xd.-X-X=Xl.&X=X].:X{.@.&X,X].j.&Xl.d.~.&X>X>X>X>X>X&X;X>X].].uXgX0X>XuX8XyX:XgX0X;XuX9.R #Xa.s.OX&X>X7.H.H.H.&X&X&X].;X~.7XrX9X9X0X9X>XQ.;XBX;X~.>X8.E ",
"t.ZXeXrXNXqXNXxXxXxXnXnXnXxXrXrXeX0X7X;X;X;X;X;X;X;XgX7XrXZXw.A aXjXpX>XpX,XOX,X>X>X>X>X>X;X;X;X;X0X~.,X&X3.-X,XH.g.&X,X>XyX8X9.~.>X~.j.&X~.k.&X>X>X>X>X>X>X:X:X0X>X;X8XuXuX0X8X8X0X;XgX0X;XuX8.A +X).!.OXG.=Xg.H.*X-X*X].Z.].;X;X9X0X7X0XuX0X;X0X~.rX~.;XNX-.Z ",
"I.DXxXNXZXrXZXNXNXNXxXrXrXrXxXxXrX9X0X,X>X>X>X,X0X>XgX7XrXZXw.B JXjX;Xl.,X,XOX&XOXOX&X>X>X>X>X;X;XuX{.,X&X3.-X5XH.g.=XyX0XgX8X9.~.;X~.j.;X].~.>X>X;X;X;X;X:X>X0X0XuX0X;X8XgXuX;X8X0X;XgX0X;XuX8.j +X9X;XOXz.=XH.g.J.3X,X&XZ.:XyX>XrX0X;X8XgXrX].;X~.CX0XrXgXW K ",
"t.eXxXqXxXrXqXNXNXNXNXrXrXNXrX#X7X;X;X>XrXdX,X;X;X~.;X7XFXZXQ D ;XpX>XOX,X;Xl.;X&X&X&X&X&X>X>X>X~.gXgX~.q.z.&X&XG.,X,X&X0XgX~.K 7XdX>X&X0X;XQ.;X0X0X7X,X0X0X>X;X0XuXuXrXgXCXgX7X9XNX/.7XCX8X).q.B qX).+XdXG.g.z.&Xf.g.-X3X].].yX~.~.&X>XrXpX0X;X>X;X;XdX;X,XdXN ",
"_.DXDXNXSXZXxXSXxXrXqX_.#XqXqX).wX;X~.~.~.OXl.k.>X&X>X~.vXZXw.8.HXJXdXOX;XOX~.>X0X0X,X>X>X,X0X0XgX).9.:.~.kXdX&X>XlX>XOX,XgX9Xt.Q.;X~.!.>X;X~.7XrX9X;X;X7X7X;X~.uXrXwX7XrXNXrX;X).eX;XgXNX7X).R j #X).~.0X&X&XG.H.H.&X&X&X=X:X].,X,X;X>X>X;X;X&X;X;X&XrX;X,X,Xa ",
"(.NXnX7XrXqX#XeXDXDXNXrXrXNXNXrXeX7X;X;X,X,X,X,X~.>XgX7XNXbX) P ~.;Xk.s.OXOX~.0X0X0X>X;X;X>X9X0X!.I.t.~.0X>X&XOX&X>X;X+X>XrX7Xt.7XaX7X+X0X7X~.7XgX9X;X7X9X9X;X!.gXrX7X7XrXNXNX7X).eXrXNX7X7XrXC t 7X7X!.>X=X>XG.H.5X3Xl.g.:X:Xh.yX0X,X;X&X&X&X>X,X&Xl.,X&X>XOXr ",
"7XAXNXqXxXrXqXxXqXrXrX7X7XqX7X).(.~.~.].;X&X~.l.l.>XgX{.vXZX! B 7XgXaX0XgX9X!.~.0X9X9X9X9X0XaXaXxX_.).eXrX+XOX0X~.>X0X9XrXeXR.Q ).7X~.!.;X~.k.).7X).!.~.;X;X~.t.(.7X7X7X7XeXeX7XNXaXrXNX!.eXDXB t rXaX!.OX&X=Xz.H.-X=Xl.N.*X:Xl.>X,X,X,X;X;X,X0X,X&Xk.,X&X&Xk.* ",
").rXqX).qXqX#XeX7XrXNXrXrXrXqX).wX0XgXgXrX;Xl.k.,X>X>Xh.rXDXU.( 8.W.Q.!.9X7X!.+X).).).+X7X7X9XeXPX`.Q 8.7XaXaXaX~.;X9XrXrXqX^.( ).9X;X+XrXrX7XgXrX9X7XrXNXNX9X+X!.rXDXAXxXnXNXSXNXeX7XeXW.eXnXu u nXgX!.OX&X>Xg.-Xg.g.&X*XZ.].,X&X>X,XdX,X>X>X=X,X&Xk.>X&X&Xz.* ",
"ZXLXDXxXDXFXSXKXqXNXDXZXNXNXxXqX/.;X0XgXgX0X,X,X;X&X0X7XNXrXP A t.!.t.t.(.+X).aXt.a.!.(.).).).).P A A Q w.t.a.h.!.Q.W.R.^.^.^.^.7XaX7X).7X).W.).~.~.).).+X).!.h.8.).eX7X(.(._.7XSXNXrXSXnXnX7Xj l aXrX!.;X&X,X&X-X7.7.&X*Xg.].dX,X>X>X,XpX,X&Xl.>X&Xl.>X&X&Xl.5 ",
"( t.^ S ^ ^ Q ^ ( r.t.8.^ 8.8.8.R E -.-.-.>.q.d.>.-.h.t.t.R y l w.r.S j j t 4 t 5 4 t u u t 0 4 8 I U.w.Q Y ^ 0.(.R.I.I.E.^.`._.W.@Xa.0.t.` R ` / ` 8.` ~ R H D / ~ ~ S D S Y Y M A u h u 4 5 . S NX7X~.>XOX&X=XH.g.g.g.Z.].:X,XyX&X&X&X,XpX&Xk.>X&X&X,XOX&X&Xi ",
"W.).t.^ 8.8.^ 8.S R R B k B F R h.h.i.;.J J  .=.K l p 4 4 3 y I.I.(.W.r.W.t.8.t.I.W._.#X#X(.I.w.qXzX$Xw.[ (.eXeXqX#XqXcXcXqX$X$X+XrX7X7XNXNXrXDX9XaXVXgX7X!.W.Q.nX9XW.0.t.W.!.t.W.).F A M u l k 8.HX9X~.0Xk.l.H.g.J.H.7.f.:XyX&X,Xl.d.k.,XkXlX&X>X&X&X,XG.&X=Xa ",
"0XrXyXdXgXyX0X0XgXyX0X0XuXgXgXgX:X3X2X].*X3X3X*X:XhXi.P R E.cXU.r.#XDXKXrX(.#XnX#XaXnXaXnX(.R.9XmX#XcXSXxXeXmXnXSXGXKXGXSXmXSXFXNXDXCXrX9XgXgXrXgXgXgXgXgXgXgXgXgXgXaXgXCXHXaX).!.Q.7XrX;X7X7Xa./ #X9Xh.~.yX*Xf.Z.K.J.*X].&X>X0X,X>X,XkXkX,X&X&X&Xl.~.l.~.,Xx.i ",
",X,X,X:X>X>X>X>X>X*X*X>X,X,X,X>X*X*XA.N.Z.<X<XA.2X:Xi.8.r.E.$X$XeXVXLXKXnX9X9XeX!.qX9XeXnX#X+XNXE.r.(.nXnXmXLXLXSXSXGXSXmXnXmXSXrXgXuX>X;X0X0X7XuXuXuXuXrXrXuXrX>XrXaXrXaXgX9X).rX;X9X7XQ.s.8.C Y (.+Xk.].-X*XA.N.A.*X*X*X:X,XyX,X>X,XkXdX,X&X;X&X~.&X&X&XkXk.a ",
",X>X&X].].].].].].].&X>X:X:X&X].&X*XZ.N.Z.*X<X[.*Xj.i.)._.`.`.mXSXLXKXNXaXVXnXqX9XnXrXeXrX(.!.rX(.R.#XmXnXmXKXSXSXSXSXmXnXzXzXnX9XrX9X{.{.7X7X;X9X9X0X0X9X9X9X9X).0XgXrX9X9X7X;XaX;X;X;X~.).t.C Y W.@X~.].Z.Z.<X<X<X4X2X*X*X&X;X,X;X,XdXdX,X;X;X&X&X;X>X,XjX~.N ",
",X>X].g.j.j.l.].*X&X&X>X,X,X>X&X-X=X&XH.*X4X4X2X[.;.i.).eXeX`.$XAXKXSX9X9XNXVXeXnXVXrX9XeX(.R.eXnXeXmXKXmXmXSXzXSXSXSXmXnXzXzXrXrXrX9X7X>X8X9X9X8X0X0X0X9X9X9X9X7XrXgX0X9X0X9X;X9X).).;X;XaX;XR / R.@X~.~.d.f.4X<X<X<X*X].].;X>X,X;X,XdXdX,X;X,X;X;X,X,X,XjX&XN ",
"yX>X].l.j.j.Z.].,X>X&X&X>X,X,X,XyX>X*X*X2X4X4XiXC.#.j.i.7XZXU.U.nXSXnX#X+XrXNXaX9XeX#X#XrXqX#XAXrXeXZXFXNXSXKXNXSXAXZXnXmXnXrXeXgXrX9X9X0X0X0XuX0X9X9X9X0XrXrXrXrXrX9X;X9XgX0X+XaX;X+X).).9X!.B ` (.+X~.l.3.3.<XS.N.V.f.N.&XyXhX,X;X,XdXdX>X>X,X,X,X0X,X>XkX~.N ",
"yX>X].Z.l.Z.].&X,X*X].].&X>X,X,X,X&X].=X2X2X4X6XA.+.Q.q.(.NX[ ] SXnXrX9X9XeXaXaXeXaX#X#XaX9X#XNXnXeXnXnXeXnXDXeXAXZXmXnXnXmXrXeXrX8X>X8X8X>X8XuX9X9X0XrXrXuXuXgXaX9X+X~.7XaX9X~.aX9X9X+X+XaX).C 8.#X7X!.j.f.u.A.J.A.Z.V.f.N.;X0X,X;X>X0XdX,X,X0XdX,X0X;X&XdX~.N ",
",X>X&X].].].&X*X>X&X].&X>X:X>X>X,X~.l.=X2X2X2X6X*XK |.Q.).7XY ^.NX).R.9XVXnXrXnXnXnX9X9XnX9X(.eXAXnXNXrX).qXrX(.NXnXrXrXxXnXrX9XrX7X;X0X0X;X7XuX8X0X9X0XrXuXuXgXrX0X7X).;X0X0X;X7X7X9X;X;XVX9X/ ] 9X9Xh.j.].N.V.*X<X*X*XC.Z.].].,X;X>X0XdX,X,XdXdX0X0X&X&XdX&XG ",
">X&X].].].].&X&X&X&X>X,XyXyX:X;XrX&X~.>X3X2X3XfX3XG }.0XXXW.A mXeX8.~ #XHXSXaXnX#X9X+X9XVXaX9XVXNXrXnXqX(.eXNX7XrXeX7XqXrXrXeX7XgX7X>X0XrX7X0XgX7X7X8X9X0XrXuXgXrXgXgX9X;X9XaXaX;X7X9X~.Q.9X~.C ` eX9Xq.j.-X*XV.,.4.Z.*X2X3XyXdX,X;X;X0XpX,X,XdXdX0X0X&X~.dX,XJ ",
">XyX:X].,X].y.d.&X:XyXfXyX>X>XyX>X;X&X&X].].:X6Xu.2.V.|.{.t D #XNX#X+XNXVX9XeXSX+XaXaX#X9XSXHXNXNXvX7X).).7XrXNXrXeX7X7X9XrXrXrXwX0X9X0XrXrX0X0X9X0X8X0X9XuXgXVXCX9XNX;X~.CX;X8.).;X9X;XCX9X0Xk / 9XrX!.l.].N.Z.4.M.A.*X2X-X>X&X&X&X>X0X,X&X&X0X>XpXjX,Xd.~.~.' ",
"].,X].l.>X>X].,X].&X>X,X&X].&X,X;X+X;X;X>X:X2X4XV.u.].].tXV $.rXNX#X#XnXVXaXrXSXHXVXnXSXHXSXnXrXNXrX7X;X7X7XrXuX7X7X7XeXrXrXrXwX7X8X9X0XrX0X0X0X8X8X8X0X9XrXuXgXNX7XVX7X+XDX9Xk.9X7X9X~.gX9XgXC C (.rX;X;X=XN.f.A.A.J.*X*X=X>X;X,X,XyXkX0X&X&X,X&X&X,X;X~.;Xl.K ",
",XhX,X].&Xl.l.,XZ.].&X&X].&X&X>X;X;X;X;X>X-X:X<XV.u.'.j.uXi.i.eXNX9X7XnXSXNXnXVXLXrX+XaXVXnXnXKX9X8X7X;X;X>XwX9X;X;X9XgXNXgXwX{.7X7X0X9X9X9X9X9X>X7X8X9X9X9X9X9XaX;XCX9X;XCXaX+XrX9X7X!.aX7XVXF M !.eX).;X:XZ.V.1X<X*X*X*X&X;X;XdXyXkXjXdX>X&X,X>X&X,X0X,XdX~.Z ",
">XhXdX*X&Xj.d.>X*X>X>X&X&X,X,X>X9XeX9X;X&X:X*XC.V.u.j.p.uX:X8.t.aXeX9XnXSXAXVXVXSXeX9XaXVXaXnXSX;X;X;X;X;X>X;X;X;X;X9XgXgXuX7X).;X7X7X8X9X0X0X8X;X>X8X9X9X8X7X>XgX;XVX9X~.gXrX9X9X7X;XQ.rX;XNXF Y +X9Xh.l.=X*X<X<X<X*X*X*X&X&X;X,X>X,XkXdX;X&X&X0X;X,XdX,X,Xl.Z ",
"y.>X>X>X,X].l.,X:X,X>X&X>XdXyXOXrXnXaX;X].&X*XC.V.3.V.j.0XuXF F 9XrXaXnXNXSXSXVXqXAXLXHXSXVXaX@X).{.;X;X:X:X;X{.8X8X8X0XuX0X8X;X;X;X7X7X8X8X7X7X;X;X7X9X9X8X7X>XCX;XgX+Xh.0X0XrX;X;X;X!.aX;XaXB ` eXaX~.~.:X*X<XA.A.A.*X*X*X&X&X&X~.&X,X,X&XOX&X;X~.;X,X&X~.k.J ",
"y.>X>X>X3X].j.].*X,X:X].>XdX>Xd.W.eXNX9X].:X:X*XC.2.C.[.}.uXl Z (.aXVXnXaXVXSXVXqXeX+X` ` +XaXeX~.~.{.;X8X:X;X;X0X8X8X8X0X0X8X;X;X;X;X7X7X7X7X>X;X;X7X8X0X0X8X0XCXk.!.-.` +X9XgX+X+X;X~.gX+X9Xl ~ aXDX0X,X3X*XZ.V.N.A.*X*X=X;X&X&Xl.l.&X;X&X~.&X;Xl.>XdX;X;X&X>.",
"&XyX,X&X,X].d.j.&X,X>X].>XdX&X-.M r.eX9X;X>X:X*XA.,.V.}.'.tXp ^ a.aXHXnX9XnXSXVXnXr.h * 4 m r.).~.].;X;X>X>X;X;X0X8X>X8X0X0X>X;X{.;X;X>X7X7X;X;X;X>X>X7X8X9X0XrX).Z C j k q.).aX7X7X7X~.aX+X9Xk ^ aXVX0X,X3X*XA.A.A.A.A.*X*X>X>X,X&Xl.&X;X&X&X&X0X~.;XkXdX,Xl.J ",
"].>X].~.yX,X&X,X>X0X,X&X,XkX&XW $ C (.;X~.&X*X[.V. .u.}.p.:Xp t.r.nXLXnX#XrXSXAXDX/ 4 $ 2 4 0 u ).{.{.;X;X7X7X7X8X7X7X8XrX0X;X{.{.{.;X7X;X7X;X;X>X;X;X;X8X0XuXgX^ t 4 1 0 / h.9XrX9X0X~.aX+X9Xk 8.aXgX~.~.*X*X4X1X<XA.Z.Z.*X:XyXhX,X].&X>X&X&X&X3Xd.k.,X,X~.+.a ",
"d.>X&Xl.>X>X&X,X3XlXdX,X>X&Xl.l.t D (.NXgX0X*X*X].j.y.{.Q.;XS R._.zXnXeXeXVXDXCXNXB . 8 u @ 7 : I.bX/.qXeX(.gX!.!.0X;XqXDXf g z j 3 V {.{.Q.0X8X~.].].>XuX{.{.DXg @ 2 $ w 4 q.0XrXrX0X~.0X{.NXR t.).;Xh.j.,X3XZ.1X1XJ.J.*X3XiXhX>X>X{.].yXfX&X=.k.Z.,X>X].;X;.i ",
"l.dX,X&X>X>XOX&X&X&X>X>X,X,X>X>Xh S R.7X8X;X].].2Xj.;.~.(.7XD ] mXSXnXeXaXVXgX9XNX^ @ 2 e : 6 < Q bX.XXXqX(.eX!.!.7X!.7XY.2 < 6 < X 3 E Q.:X0X>X>X&X>XyX0X;X{.W.8 X 2 @ > 1 8.0X;X>X8X~.rX7XDX^ R Q.8X~.k.=X*Xg.-X-XJ.Z.Z.V.V.j.:X8X;X;X,XdX&X3.3X-X=Xg.d.:X~.Z ",
"G.dX,X&X>X>X&X>Xl.H.&X>X,X,XdXpX` t.).wX0X>X:X:XfXj.-.~.;XrXA Y LXSXnXeXnXVXaX+XNX(.4 @ 8 , ; , g XXXX/.7X(.+X@X+X9X).rXS > = X 3 # @ l Q.uX].j.>XZ.0XdX:XyX{.B @ = 8 @ + 4 t.0X).;X7X~.rX7XZXR B t.rX;Xj.l.Z.f.1X1X3X3X3X3X3X2X{.:X:X:X3X3X*Xg.-XH.N.3.=.].].K ",
"z.,X>X&X>X,X&X,X&X&X=X>X,X>X,X,XrXeXeX9X0X0X:X:XyXj.-.~.7XrXA Y GXnXeXeXnXVXgX0XNXNXk   , , = 6 < T.bX/..X).!.9X;X9X7XvXg 8 < = w 3 @ w Q.uXQ.h.].y.>X,X~.CX8Xt X ; e @ + l ;XrX>X0X0X~.rX).rXD k i.uX;X:.d.Z.Z.Z.N.Z.Z.A.[.}.}.|.:X3X3X2X*X*XJ.N.g.N.f.3.].j.N ",
"d.,X;X~.;X>X&X,X,X,X,X,X,X,X,X0XaXeX7X).;X;X:X*X*Xj.y.;X;X9XD ] nXzXeXeXaXaXgXgXNXKX^ + = 7 O 6 X ) bX.X).7X!.9X+X+X7X/.3 w < = X > X > 8.uX>X>X].d.>X;XQ.DX8X3 X , 2 # $ E rX0X>X0X0X~.rX).rXB D !.rX~.-.d.&X=X-X*XZ.N.f.f.j.j.].*X3X3X1XJ.J.J.Z.Z.J.N.f.*Xp.c ",
"l.dX,X~.&X&Xl.OX;X;X;X;X,X,X0XpX7X#X).).;X>X:X:XZ.j.j.8X).7XP I.mXzXeXeXrXeX0XgXgXDXW.2 # 7 = 6 = x XXqX^.7X).;X9X9X7XR > 3 = = X > > > Z :XuX>X].].,X].~.hXi.> @ , @ # 1 t.uX;X;X;X0X~.rX{.NXP R (.eX~.9.k.&XH.=X*X=X*X*X*X:X:X*X}.<X4X1XK.K.K.1XK.A.4.,.V.u.c ",
"&XkX0X&X;X;Xl.&X>X>X;X>X,X0XdXgX7XqXeX0X0X0XtX3X}.].j.8X).7X/ W.SXeX(.#X0XeX9X0XNXgX7Xu @ 7 : 6 < < T.wXI.7X).!.9XeXeXu 3 7 = < < 8 w 1 p y.>X;.;.].:Xj.~.{.F + $ -   1 1 h.rX;X>X,X,X~.0X{.NXR R W.eX+X~.;Xl.>.X.=.y.j.Z.].].j.2X[.[.1X1XA.N.K.L.K.N.4.,.V.u.N ",
"~.dX0X&X0X,X;X,XrX0X0X,X,X0XrXaXqXrXNXgX0X;X].].3X].j.8X{.eX/ W.HX#Xa.(.aXaX0X9XVX7XrXk @ 7 , 6 e   %.bXe.).+Xa.!.+X;X$ 3 3 X 6 - = > + & W ~.Z L d.j.q.Q.i.l X - , X 4 4 Q.rX0XdXdXrXl.0X~.gXS D I.eX9X0X0Xd.G :.g.&X3XyX:X'.p.yX[.A.<X1XA.b.B.L.L.<XA.V.2XV.L ",
";X;X;X0X>X;X0XCX8X>X>X>X8X0XrXrXeXqX7XrX8Xj.j.].].].j.Q.).t.~ r.sX@Xa.R.9XaX0XOX~.).rXe.3 # 7 = e X b vXW.NXt.aX+XVXD t 3 - e < X 3 X > 5 N yX].g.g.&X&X-.Q.1 + - # 2 # Z BX,XjX,X,X,X0Xh.~.7XB R r.qXNX0XOXOX&Xl.Z.&X&X&X].;X:X:Xf.4.V.*XJ.S.v.S.K.N.7.,.hX .c ",
"rXrXrXrXgXBXCXCXuXrX0X8X7X0X0XrXeXqXeXgX0X;X].3Xj.j.p.Q.;XW.r.+XMXsX#X%XpXpX0X>X>X;XuXW.u = 2 - e X g qX(.rX!.9X;XrXk 4 3 > e < # 3 $ 5 5 c yX:Xl.l.,X&XQ.y.* % > - 1 1 ^ gXh.,XdXdXpXdX~.;XgXS / t.eXVXgX;X&X&Xl.&X=X;X;X{.{.:Xp.j.:X6X2XZ.B.J.6XJ.N.*Xf.3XL a ",
">X0X9X>XrXCXgX).7X>X>X>X7X0X0XrX).).).;X~.h.p.j.Z.].j.Q.).t.w.#XHXVXaXeX9XlX0X,X0X;XrX7Xv , , , 6 - w /.7X7X7X~.eX!.u 1 8 3 7 < = 3 > 3 1 p ].yXl.l.0X].uXF % & # - $ 4 h.,XW &X,X,X=X,Xk.&XgXS A [ #XnXrX+X~.G.&X&X>X>X;X;X;X:XuXuX0X,X&XN.H.1XJ.=. .N.f.:XV Z ",
"t.;X9X;X;XuX;X-.;X>X8X0X0X7X;X).eXeXqX7X~.h.p.f.j.j.h.Q.~.` ^ ).HXaX%X@XOXOX>X>XgX;X9XrX^ 4 # 3 < 6 = %.7X).aX!.aX8.4 $ w 3 < 6 < = > 3 % q *.:Xj.j.>Xj.uXp o & $ > + p 0X,X*.,X=X&Xl.&Xd.~.rXZ z ~ `.eX9X+X;X&X&X>X,X0X0X0X0XuXuX{.Q.~.&Xl.d.3.&X:.=.].~.gX^ -.",
"-.;XNXrX9XgX9Xh.9XrXNXNXgX9X;X(.eXeXqX).Q.h.p.y.f.j.j.{.;X8.] eXHX9Xa.s.k.>X,X>XdX;X>XrXt.y X 6 - 3 X A 7X(.aXk.eXD 1 - w > X e y > 3 4 + 1 Z ].l.j.:Xj.{.5 o & 1 2 $ F DXdXl.JX>X=XH.>Xl.;XkXS l _ (.#X+X%X9X>X;X,XdXdXgXgXNXBX7X9XVXKXJX0Xk.x.d.k.k.~.9.).k u ",
"@.~.0XwX7X9X9X;XQ.).7XuXNXNXgXgXqXrXeX;X~.].}.].yXyX:X0X7X8.r.DXHX9Xa.s.OXpXpX>X,X,X;XwX/.g # 6 < < - i ^.).9X!.~.j & > w > X b I > q w & 5 l j.>X&X>X>X@.% & & & > 3 8.BX;X,XjX&X&Xl.=Xl.;XaXB f T R.E.R.!.!.k.~.OX>X0X8X0XrXrXrXNXAXeX0.H J s.;XgXJXHX+XnXP z ",
"h.t.t.9.8.q.h.Q.8.8.9.t.h./.).).(.#X#XQ.h.Q.].j.Z.p.;.q.8.D ] KXMX9X@XOX9XpXlX>X>XpX;X;X{.v < 3 3 < w > t.).!.+X0.5 $ 1 w = X %.e.3 3 q 1 5 i ;.yX>X].gXa + q & $ $ u ;XdXl.kXl.&XH.l.>X~.;X0Xk u T E.E.a.a.0.W *.-.9.9.9.8.8.e.w.~ D l t 0 s C C C C C t l 3 l ",
"rXh.E S S F E @.W.q.E Z c k k B u l j t q r r r i r 5 i s u / LX9X9XpXsXpXpX>X&X;XkX>X~.{.F 1 3 w = e X $._.R.eX/ $ $ 1 w $ = .X/.1 1 3 * 5 5 K yX>XQ.BX1 o i # 3 4 V HXgX~.JXd.,X,X>XkX0XgXgXB l [ eXeX#X!.q.K V V Z Z V N c B B h u D t.a.` H a.C s s + 4 4 r.",
"rXuXNXrXeXwXrXNX7X).!.(.7X7X(.i.8.r.a.t.r.r.a.!.R.~ 0.W.a.eXHX#XeXaXsX%X#XeXrX0X0XaX~.~.gXq.i & 1   y - g XXE.qXz . 8 - > o u wX7Xu & t + t + k vXt.AX$.> 2 > X 4 X W.KX).gX0X~.&XjXgXgXwXrXrXB Q cXxXZXvX.XvXBXBXuX:X{.|.}.}.}.uXBXrX~.h.-.H / s.rX!.@XqX!.#X#X",
"rXuXuXrX7X7XeXrXeX7X7X7XrXrX7X{.nXVXVXVXnXnXMXSXSX!.r.0.` #XKXaX#XsXnXsXaXnXNXrXaXgX;X;XdX~.l * 1 @ 8 > f ^.oX`.f . 3 - $ + V 0X7XZ & 5 # 4 + f _./.ZXU - 9 - # 3 4 ).DX;XgX,X~.~.gXgXgXrXNXrXv U NXbXXXXXXXvXXX|.'.'.|.}.}. X}.V.>X&X].yX0X;XdX~.0X).9XqX).eXR.",
"rXrX9X7X;X{.;X7X7X8X9XrXrXuXrXrX7X%X%X#X+X+X#X#XHX#Xa.0.r.sXLXKXE.#XeXeXeXnXaX7X0X;X>X>X>X>XK * 1 > - 2 6 ) GXU.; = - $ $ $ q.9X;XQ.4 $ 1 1 $ 4 8.qXwXl - 8 - 2 2 z rXgX8XgX;X&X~.gX0XgXNXNXqXl ! AXqXt.T.}.uXi.$.9.p.|.}.:X[.'.j.].j.j.dXhXrXjX>X;X).aX7X+XaX~ ",
"9X8X;X~.~.~.~.).~.;X>X8X8X8X0XrX+X#X+X+X+X+X+X#XnX9X#X#XeXSXHXnX(.#X#X#X9XaXrX7X7X~.0X0X;XkXd.1 $ 3 @ 8 : b PXI X 7 = # @ q 7X8X;XCXi + 4 1 3 1 A wX^.8 , 8 > w > 8.NX7XrXgX&X,X&X0X>XgXCXBXqXl t.BX/.9.h.|.}.9.9.p.j.].}.[.V.p.].].y.y.,XyX;X>X9X!.~.gX).+XrXM ",
",X;X~.k.k.h.l.l.h.~.&X&X&X&X;X>X9X9X9X9XeXrXaXaXAXHXAXNXSXVX+Xr.MXnXeX%X9XnXNXrXgXrXNXgX>XhXj.r @ 9 X y ; f bXf   y = $ + l gX;X).KXB $ t 5 t 1 f .X! - , 9 2 y 8 ).NX;XgXgX,XdX;X0X>XgXCXAXrXz 7XuXq.i.].i.j.j.V.V.V.].[.A.V.u.].Z.3.y.yXhX,X0XrX~.~.aX~.;X9Xs ",
",X&Xl.z.j.k.l.l.~.OX&X&X&X&X&XOX@X(.(.).#X9X9X9XNXKXNXeXSXnXW.r.LXSXeX(.+XrXgXrXgXgXgX0X].&X*.i @ 3 @ e ; 7 U.6 = e - - $ ^ rX~.;XCX8.1 t 3 t 3 w e.l @ 2 2 9 w l rXNX7XgX0XdXkX0XdX>XgXNXNXvXS 0XyX;.j.:Xy.j.].C.Z.Z.Z.A.A.A.V.Z.Z.y.d.3XdX;X>X0X0X{.0X;X9X7Xj ",
"dX>XG.l.l.&X&X&X>X&X&X&X&X&XG.k.0X9X7XqXrXaXrXeX9XAX7X).VXaXW.R.KXnX#XR.!.9XrX9X;XgX0X~.;Xl.J V - 3 @ 7 , : x ; ; 2 - - > ).7X~.7X;X).q 3 1 w 2 3 P 8 @ 2 - 8 9 ^ AXrXrXrX&XjXdXkXkX,XgXgXrXNX^ ;XdXy.y.Z.d.Z.Z.Z.N.S.N.A.N.v.4.f.N.3.3.*X=Xj.l.;XkX&X;X9X9X~.l ",
"kX,X&XG.&X>X,X,XlX&Xl.G.&X&Xk.q.aX9X7X7X9XeX9X7X9XDXeX).NX9X8.` KXVX#X(.).rXaX9X+XgX0X>XCX,Xq.~.2 3 = , , O 6 ; , = > - 1 uX{.~.9Xt.rXi $ > 2 1 3 k - # 2 = e 2 W.DXrXgX0Xk.jX,XjXjX,XkXrX0XNXq.j.jXj.>.f.g.*Xf.Z.N.N.N.N.6.o.| X.3.3.y.2X3X*X,Xl.jX~.h.>X;Xq.l ",
"l.>Xd.*.d.x.K N &X&Xl.k.l.&X&X,XrX9X;X).;X7X9XeXaX7XDX7XeXrXR ` VXeX#X#X#XeXrX9XNXgX0X;X&X>X0XuXv . 7 9   7 9 ; 7 = , 4 u BX;X;XgXh.rXS # 3 1 4 w 4 @ @ 2 2 , w 7X8X0X0X0X,X>X=X,XdX&X0XgXBXBXE +.3X&XZ.&Xf.Z.f.*XK.N.6.4.<.,.o.7.4.3.f.N.*X3X3Xj.;X>X;XdXgXd.l ",
"d.&Xz.:.l.G.x.:.&X&X&X&X&X>X>X,XrX9X7X;X7XwX9XeXeXrXNX7X).t.R h.rXeX#X#X#X9X0XrX9X0X8X>X>X,X0XuXR X 2 9 O 7 6 : 6 : , 2 v NX;X>XgX~.wX^ 3 $ 1 3 8 2 @ # 3 - 2 g wX0X0X0X0X,X>X=X,XdX=X,X0XgXgXK *.3X&Xl.*XZ.2XJ.J.J.J.N.<.X.,.1.4.2.4.f.C.*X*X*X:X,X,X;X0X;X-.a ",
"~.,X&Xd.~.l.d.d.d.k.~.&X;X&X&X&X0XwX7X7XwXwXwXwX7XNXeX9XW.B R ).#X%X%X%X#XqX9XrX7X9X0X0X,X>X>X;XY.2 - 9 ; 6 ; : , - , $ 8.rX{.7XrX7X).!.j + 1 1 3 - @ > 3 @ 3 P wX0X0X0X,X,X=X=X,XkX,X,X>X0XgXE ;.dXZ.g.&XZ.3X*XZ.*X1XN.,.X.1.S.4.4.6.Z.J.*X*X].yX3X>X&X&Xh.W N ",
"&X0X;Xk.l.h.9.k.d.k.~.&X;X;X;X;X9XwX7XwX9XeXwX7X{.CX(.rXW.p R ).(.#XeXeX#X#X9XaX9XrXuXgX0X;Xl.h..Xt @ 2 6 , : : ; ; - - 7XwX).8XeXuX!.eX! + 1 > 1 # @ 2 3 X 8 e.wX0X0X0X,X,X,X-X=XkX,X,X&X>XgXW ;.yXl.f.].N.*XN.Z.*X*XM.<.,.v.A.N.S.M.B.J.<X<X*XyX*X].&X&Xd.*.+.",
"~.;X~.h.~.Q.h.8X;X;X>X8X0XrXgXgXrXwXwXwXrXrXrXwX{.NXW.uX7Xc E W.).#XeXeX7X7X9XaX9XrXgXgX0X;Xj.h.7Xz = , 6 : ; : ; , - w NX;X~.8X9XgXW.NXW.3 1 - - # @ 2 2 @ f .X9X0X0X0X,X,X-X-X=XkX,XdX;X0XgX^ *.,Xj.j.>X].:XZ.Z.N.f.4.4.6.B.L.A.S.v.6.S.A.<X<XyX*XZ.*X*Xj.y.:.",
"9X9X~.Q.;X~.Q.9X7X>X7X8X9XrXgXgXuXwXwXwXwXrXrXrX7XrX).rXuX8.^ t.qXeXeXeX9X9X0XaX7X0XrXrX0X,X&X].7X) 9 2 6 O , : ; , = B NX).~.>XwXrX(.rX7Xk 1 > # $ # - > = z xX9X0X0X0XlX,X-X-XH.dX,XdX,X0XdXK ;.0Xj.l.yX,XfX:X].V.4.2.4.M.A.<XA.M.4.5.4.N.*X<XfX2X*X&X:X].y.+.",
"NXrX/.Q.7X).!.7X).{.7X7XwX9X7X7XgXrXwX7XwXrXrXrX8X7XrXwXuXXX@.t.nXeX9X%X9XeXrXrXrXrX0X0X0X,X>X>X7X_.x 8 6   6 : ; ; # e.eX/.).;XwX;X.X7XvX$.1 1 @ > - @ = 2 A bX9X0X0X,XlX,X-X-X-XdX=X,X,X,X;XN ~.BX~.h.;X:XyX:X].Z.f.2.,.2.C.<XB.M.4.4.M.A.<X<X3X3X*XZ.*X:Xy.G ",
"7X).9.t.wXwX7XNX).7XrXNXNXrXwX7XNXrX7X7X7X9XrXrXwX;XDX7XrXNX@.!.AXnXqX#XeXaXaXrXNXgXdX,X>X>X&X;X7XZXA y ,   2 : , ; @ _..X!.).{.wX(.wX).NX(.> 1 @ 2 - + @ 4 P vX0X0XyXpX5XlX,X-X-XdX&X,X>X;X~.p rXHX~.q.j.j.*XZ.C.[.C.3.| | M.<XB.B.S.B.J.1X4X3X*X3X*Xj.:XyXh.N ",
"7X).h.t.~.7X).h.(.(.7XuXNXrX7X).eXrX7X).;X0XpX,XrX>XgX0XaX+XY ] DXNXwX7X7X9X0X7XrX&Xl.l.l.d.x.q.).rXt.t   # 3 - > X l .X7X).7X(.eX7X7XeX7X_.S + - # - - @ f t.7X>X-X>X&X=X,X-X&XjX&X*X0X:X{.i.K yXjX,Xl.&X&Xj.Z.*XV.4.V.J.J.4. .1.B.B.M.M.A.*XC.yXyX'.i.8XBX9.i ",
";X;X~.Q.).9X7X).7X;X).;X7XrXNXSXeXrXeX+X;X0XpX>XOX;XaX;XaXrX~ ^ NXvXwX7XwX9X0X>XrX&X~.&X&Xl.g.k.).eXW.k 1 > > + # $ P rXqX.XeX7X_.(.#X7X#X#X^ 4 @ + @ $ 4 R qXgXdX6X,X*X-XfXjXdXyX>X,X>X~.{.].*.0XhX=Xd.Z.*X].1X2XJ.f.1.<.<.,.o.| 1.S.M.M.Z.Z.j.:XyX}.Q.XXrXt.l ",
"rXrXwX)./.).)./.9X7X;X).).7XuXNX7XeXrX7X7XrXpX,XOX;XpX+XrXrX^ R rXeXwXwX9X9X8X>X0X&X&X>X>X&X&X;X{.7X).@.k t 1 $ 1 j W.NX7X{.eX7X7X).7XeX7XrX).F 5 1 1 5 h t.NX;X-X3X-X=X-XdX3X&X&X,XdX&Xi.;X0Xi.>XdX].y.Z.=X*XfX2X1XJ.6.|  .| o. .<.v.S.N.A.Z.j.].uXtX|.).{.t.D ",
"7XeX8X~.i.W./.~.).7XrXwX;X).~.W._.eXrX9X9XpXpX>X,X;XpX7X9X!.S ] 7X7XwX9X0X0X>X;X,X&X&X,X,X>X>X0X).{.;X).8.Z l j V q.rX9X).).7X;X7X;X9XrX7XaXaXW.R H D B S ).aXh.&X-X5X3X,X=Xg.>.Z.,XdX].d.0XyX;.].0X].d.].:X*X6X*X2X1XA.4.| | | o.1.M.N.Z.Z.Z.C.*XyXtX].Q.).e.S ",
"Q.{.{.h.i.Q.;X8XQ.8XuX0X8X;XQ.q.(.eXNXaXrXpXpX>XkXOX0XrX9X8.B !.7X7X9X9X9X7X;X;X;X~.&X,X,X>X>XdX{.~.{.wX;Xi.8.9.Q.rXrX~.Q.;X0X>X>X~.;X7X~.7XrX).0X9X9X!.h.rXVXl.,X5X1X-X-X*XZ.7.H.>X3XZ.g.dX,XJ ~.0X;Xj.*X:X].*X*X*XZ.V.6.<.,.| 4.6.6.v.f.f.N.[.yXyX:X].{.{.9.V ",
"8X0X8XQ.i.Q.{.{.{.8X0X;X;XuX8X/.!.7XNXNXgXaX0X>XdXl.>X0X9X0.D 7X;X7X9X0X7X;X;X;X~.~.&X;X;X&X;X0X>X~.~.>X0X>X>X>X>XgX;Xq.OX0X0XdXrX;X>X0XOX>XpX;XgX0XpX0X+X0XjX>X5X-Xg.7.7.H.*X&X&X&X=X&X].dX=XK l.0X;X~.:X:X].].yXZ.,.| X.,.5.5.4.4.<.4.2.2.f.C.yX:X].].8X8X9.V ",
"uXuX>Xh.q.i.j.j.>X0X:X~.>XBXuXQ.Y.7XAXCXgXgX0X,X,X;XrX;XrX7X^ e.7X8X9X8X;X~.~.&X&X~.&X>X;X~.&X0X0X>X~.~.&X,X,X&X~.dX&Xl.dX0X;XgXjX>X0XgX,X0XgX>XpXl.OXpX;X;X0X>X-XK.6.<.<.g.H.H.&Xg.H.&Xl.&XH.*.l.0X{.j.:X:X].*X3XC.,. .| ,.4.4.4.,.,.4.4.3.u.].:X}.|.}.0X8Xq.F ",
"j.j.i.;.q.~.;X;X:X0X:X].0XhX;X-.i.7XSXDXNXgX0X,X;XkXjX~.rXSX8.B 7X0X9X>X).~.~.&X;X;X;X,X;X~.~.,XdX0X&Xd.k.&X~.d.d.,X;X;XCX0Xk.0XkX&X>XpX>X,XpXOXJXOXOXkXdX>X,X>X-X-XJ.H.K.J.H.7.H.f.Z.&Xf.f.Z.d.~.>X].i.].:X:XyX*XC.f.4.2.3.4.4.,.,.2.S.C.f.j.}.j.].].:XuX8Xi.E ",
"yX].j.].].j.j.,X:Xj.y.p.Q.j.-.F 9.Y..XuXBXhXdX,X>X~.;X{.gXrXU F Q.~.&X~.;X>X~.h.0X;X~.~.8XrX0X;XdX,X;X&X;X;X;X&X&X;X,X,X,X,X>X;X,XpXdXdXpX;Xl.d.l.>X>X&X>XpXpX&X-XH.g.g.H.H.H.l.X.f.Z.l.&XdX,Xj.uX0X{.j.p.j.].yX}.C.V.f.M.M.V.A.4XA.M.C.*X}.*X:X3X].y.y.h.j.h.q.",
":Xj.j.].j.+.K J y.;.;.d.].].j.;.i.W.).{.{.].].].,X&X0X;XNXrXR F >X,X,X;X;X0X0X>X,X;X;X;X0XrXrX0X0X,X>X,X0XdXdXdX~.&X;X;X,X0X0X0XkXgXpXpXpXgXdXdX>XpXdX0X0XdXpX&X&XH.H.H.*X-X=X&X:.f.j.y.j.,X,Xj.{.;X8X;X{.|.}.:X}.].C.V.V.V.A.[.u.u.[.iXhX6X:X*X3X*X].>XyX,Xh.*.",
":Xj.f.].Z.3.=.;.+.+.-.y.f.f.y.;.Q.{.{.).j.j.~.&X>X;XyX;XuXwXU F ,X,X>X&X~.>XdXgX~.;X;X;X).).;X7X;X&X~.~.;X,X,X>XBXgXdX0X>X;X;X;X0X>X+X;X0XpXpX0X0XpXaX0X0XpXpX>X&XH.Z.g.g.f.3.:.j.l.d.:.j.0X0X~.8X0X0X0X:X:X:X2X:X:X}.[.[.}.2X2X[.A.[.}.}.].}.yXyX:X:XyXhXyXh.J ",
"yX].f.j.].].*XyXf.f.f.y.;.=.=.-.Q./.{.Q.h.h.].>X].;XyX{.8X7XS V ~.&X&Xl.k.&X,X,XrXgXNXgX7X7X9XgXgXrX9X9XrXrX9X8X).).).;X7XuXBXCXgX0X0XaXVXVXaX7XaXgXVXNXgXNXVXjX=X=X=X=X&XZ.j.i.~.~.j.h.{.uX0XQ.uX0X{.Q.j.Q.}.0X}.}.}.[.[.[. X2X4X2X[.].V.j.}.fXhX3X].*X,X*Xy.J ",
"hX*Xf.y.f.f.f.V.*X[.Z.y.=.=.2.p.i.T./.Q.i.p.p.j.].:XuX{.uX8XU v l.&X&X&X~.&X;X&X~.>X0X7X).(.7XrXwX7X;X7X7X7X7X;X7X7X7X;X7X7X9X9XrX9X7X9XrXaX0X7X7X9X9X9X;X).+X7Xi.d.l.].].~.~.Q.].{.{.{.8XwX/.8.7X).W.i.i.j.|.}.|.].].V.V.V.C.[.V.|.2XiX4X}.}.2XfX3X=X*X>X&X:.J ",
":XC.u.u.j.f.3.=.f.f.3.=.=.=.u.V.|.{.{.{.].j.j.y.].:XyX{.uXBXE c ~.&X=X=X>X0X;Xh.h.~.;X;X).).wXNX{.{..X7XrXrXrXeXvXuXNXvXrXwX7X).NXrXqX7X7XrXNXSXNXnXNXrX7X~.(.7X{.;X:X;X].Q.j.Q.{.{.XXXX{.T.$.E W.W.Q.{.}.:X}.{.:X:X:X:X}.}.}.[.}.|.'.].V.y.3.j.*X:XyXfXdX&Xd.*.",
"*XV.u.u.C.*XC.u.3.2.=.=.2.3.u.p.tXXX.X{.0X0X:XZ.].].:XQ.uXBXE l l.l.k.k.&X;Xl.-.;X7X9X9XwXwXvXAX7X7XqXrXNXAXNXNXR ^ W.7XNXAXAXZXqXxXNXNXrXeXrXNXNXNXNXNXeX).7XNXgXgXgX0X{.Q.Q.)./././.W.Y.e.e.i.W.W.W.Q.{.].Q.i.:X:X}.}.[.[.V.V.2XV.&.#.+.#.2.j.f.Z.=X=Xl.7.>.*.",
"hX:Xu.2.u.[.[.C.[.C.V.V.V.V.u.3.8X/.i.Q.:XyX3X*Xf.f.j.9.8XBXF u h.q.-.-.d.h.>.K *.@.^ E E E R ^ R R R ^ ^ ^ ! R S Q w.W.W.t.( Q l Y r.I.) A l j B z A D A k A ^ B S F F F F E @.W.Y.Y.e.e.t..XNX/.q.@.E E E E E i.i.p.y.2.;.&.#.#.#.#.i.|.:X:X:X3.y.d.*.K K ' :.",
"*X2Xf.3.].:Xf.3.f.A.<X<XC.M.V.[.~.;X8X>X:XZ.N.N.f.p.p.j.{.NX$.+ D t.W.Y.i.9.q.>Xd.9.W W 8.a.W.W.E t.t.t.W.t.t.(.NXt.I.qX_.t.e.[ m m h 0 u k k p V k j l A S P D D ^ W.(.).7XeX7XeX7X^.W./.7XrXNX;X&X~.~.~.h.h.i.8.9.t.W.W.W.Y.i.i.i.Q.).;X8X0XrX0X~.a.s.k.OX!.k.",
"3XfXZ.3.V.Z.3.,.f.A.<X XC.M.C.[.;X0XrXyX3X*X*X*XC.].}.{.8XNXw.2 P _.bXvXNXgX0XdX>X0XaXgXVXVXCXDX9XVXNXaXDXVXNXKXDXqXeXSXxX$X(.U._ { P.`.#XqXeXNXNXrX7X7XeXeX#X(.7XeXrXeX7XrXuXrX7X7XrXNXDXDXDXCXrX0X0X0XrX0X9X9XeXrXNXAXDXDXAXZXrXuXNXNXNXNXVXVXaX0X>X9XlX9X@X!.",
"2XyXN.=.u.f.2.3.M.C.[.[.C.V.C.[.].>X0XyX:X*X[.[.}.:XyX:X{.eXe.w U.ZXFXrXuXgX;X~.0XkXCXjXrX9XrXNX;X9X+X~.rX9X+XrXrXqXxXNXxXcX^.P _ { `.SXnX!.~.gX:X{.{.;X9XeXqX).SXDXNX;X~.{.8X8X8.t./.;X7X7X).~.;X;X,X,X0X0X0X0X).).7XqXqXrXwXqX7X;X7X7X;X;X+X+X9X9XeXaXaX9XR.0.",
"Z.*Xu.=.y.f.u.[.V.C.[.A.C.V.C.[.].;X0X,X:X*X[.[.*X].}.].Q.7X( 8 qXFXbXt.i.).~.d.&XOXl.d.q.h.).7X9X9X~.Q.9X9X+X7X(.^.).).#XxXU.0 ) `.KXLXeXq.9.Q.p.p.j.~.{.;X(.h.0X0X{.i.y.j.].].~.~.Q.j.j.j.~.;Xj.l.~.~.~.~.~.).).{.7XqXeXrXrXrXwXwX0XrXrXrX9X9X;X+X9XeX9X@X0.' ",
"j.Z.3.=.y.f.f.2XV.Z.A.A.C.C.A.[.>X0XgXdXyX3X4X4X*Xj.j.j.Q..X^ 2 wXAX.X$.t.;X;X>Xl.d.d.d.~.8XuXgXgXgX>X+XgXgX7XrX(.^.^.!.qXDXI.- T eXPXDX;X~.].].*X}.*X*X].~.h.q.;X:X].j.j.].].].>X:X].j.p.j.].,X].&X&X;X;X{.{.{.0X8XrXuXuXvXvXvXrX0XuXuXuXrXrXrX9X9X0X0X9X@Xa.` ",
"*XZ.:.=.f.f.4.*XV.V.V.C.C.A.[.[.;X>XrXyXyX2X2X<X2Xj.p.Q.{.7X^ 2 .XbXqXW.).~.j.l.].l.].,XgXgX8X~.;X9X~.!.7X;X~.7X).(.(.(.qXFXI.2 m #XHX;Xy.j.[.M.A.Z.C.V.j.j.j.j.].*X].N.C.*X].j.3.f.j.f.u.f.j.].,X,X,X>X>X;X{.{.].{.{.{.).).).).{.{.{.{.{.~.Q.Q.7X9X0X0X9X@XR.s.",
"2X].=.=.N.f.3.C.V.V.V.V.C.A. X}.~.OX>X,X:X*X*X*X*Xj.'.}.{.7X( t _.qX_.).{.q.*.d.d.g.&X:X0X}.j.q.{.rX0X>XrX9X;XrXQ.~.7X_._.rXt.t ] eXHXuX].C.[.S.A.B.C.V.A.*XyXfXN.Z.C.j.Z.].V.3.f.Z.2X:X[.Z.[.:X>X>X>X:X;X{.].].0X0X8X:X;X;X{.{.:X>X8X0X0X8X7X7X~.+X9XrX9X).W.r.",
"3XZ.=.=.Z.N.4.C.C.V.M.V.C.[. X}.].;X0XyX3X2X2X2XV.j.:X0X{.).( u I.Y.Y.(.;Xq.:.3X .3.j.].].}.tXiXj.,X,X;X0X;X~.9Xh.).rXeX).).t.k 8.(.uXuX*XV.M.B.D.B.v.5.,.4.V.*XV.Z.V.f.Z.A.C.6.Z.A.[.Z.4.2.f.Z.:X;X;X:X;X;X{.].yXuX0X:X:X;X;X;Xj.~.].;X8X0X0X0XQ.).rXNXaXqX(.R.",
"3X*Xf.y.f.N.Z.V.V.M.u.M.V.C.V.u.{.;X>X>X:X*X*X*Xu.:XtX].;X7XQ 2 ! /.P ;X>XZ Z.3X3.f.j.j.].:X}.'.y.dX>X;.h.0X;Xi.8XuX{.rXrX8XY.w D uXuX:XC.u.S.5.5.L.<X4.4.*X2XV.1XA.f.4.f.N.N.N.*XJ.A.N.f.6.V.Z.:X:X0XuXyX{.Q.Q.yX:X:X].j.j.l.].j.V.].&X;X:XyXgX;X7XgX7XrXqX( w.",
"3XZ.3.3.N.*XA.V.V.M.u.M.V.A.C.V.].;X;X>X:X*X*XA.u.:X2X].8XrX^ 2 t.xXt.rXgX+.&X*X3.f.f.f.M.[.[.V.*XdXl.;.;XCX0XQ.8X0X{.8X7X{.t.4 8.DXgX:X*XZ.<XS.b.D.D.v.M.[.<XZ.A.Z.N.f.7.6.N.J.A.Z.A.N.M.N.A.*X:X:X:XyXyX{.~.].].].].].Z.l.j.g.N.].].].].{.0XuX0X7XeX7XvXxX( ] ",
"yXZ.3.3.Z.:X[.f.M.u.u.n.V.A.C.V.].;X;X>X>X*X[.A.V.:X:X].wXrX^ 3 t.NXh.7XyXq.&Xf.7.f.f.4.u.V.V.V.:X].*.+.>XhX:Xj.{.0X~.;X{.~.9.4 i.DX8Xj.Z.V.<XS.D.B.B.B.A.A.C.C.f.Z.J.Z.7.7.A.3XN.Z.Z.Z.N.Z.*X2X2X0XuXhXhX:X:X:Xj.Z.].*X[.Z.f.f.].[.].].].].:X0XNXwXqX_.NXNX( Q ",
"3X].f.f.N.].C.f.u.4.4.u.n.V.C.A.].;X;X>X:X*X[.C.C.}.].Q.8XeX^ 4 8.rXh.Q.;Xg.*X7.=.4.M.4.u.M.m.u.Z.j.;.:.;X&Xh.~.~.;XQ.{.{.Q.i.r W.NXQ.i.j.f.A.v.<XS.v.A.[.V.f.Z.N.&X*X*XN.g.*X3XZ.H.H.Z.Z.Z.*X-X0X:XtXiXhX:X:X:X:X*X*X*X*XZ.f.3.A.Z.C.V.Z.].:XuXBXrXuX7XbXxX! Q ",
"*X*X*XN.f.3.u.f.2.2.5.5.4.n.C.[.;X;X>X>X>X*X[.Z.V.].V.j.;X7X! 8 t.aX).Q.&X=X2XZ. .,.M.M.M.m.m.5.3.Z.&X=X*Xy.3.:Xj.{.j.{.{.{.Q.p ).AX).~.:X].*XV.<XM.u.A.].y.y.Z.&X=X>X=X&X&X=X>X&X=X=X=X&X&X&X>X:X{.}.tXtX}.].}.3X*XZ.N.Z.Z.N.f.A.Z.V.Z.].:XtXuXuXuXAXqXxXqXQ ( ",
"*X*X:XZ.3.=.2.f.2.2.5.2.5.u.V.[.>X>X0X,X:X*X[.C.V.].].Q.{.).! u I.rX0X~.&X=XZ.Z.L ,.C.B.C.m.m.&. .Z.yX3X].=.-.:Xj.{.Q.{.{.{.Q.j ).AX7X;XuX&X2X[.A.M.M.C.j.y.i.~.&X&X;X>X;X&X&X&X;X=X,X>X;X&X;X>XuX8XtXiXyX:X}.:X].f.2.2.f.N.Z.Z.A.Z.Z.A.*X2XtXtXuXvXDXwXxXqXQ %.",
"Z.*X*Xj.3.=.2.u.4.u.u.4.4.u.C.*X0X0X0X,X,X*X*XA.C.:X:X{.{.).^ l ~ W.>XOX>X&X3.Z. .4.A.B.m.n.5.&. .Z.*XZ.g.3.3.].j.:X'.{.].|.j.j W.nX).).8X~.:X2XV.C.[.C.j.y.h.{.d.l.>X>XOXl.OX;X&X;X,X,X>X>X,X0XiXtXtXhXiX2X:X2XV.4.=.,.6.N.A.N.A.A.A.*X2XyXtX:XBXvXAXqXbXcX) ( ",
"Z.Z.j.f.y.3.2.2.u.M.M.u.4.u.A.2X0X0X0XyX,X:X*X[.].:XyX8X7X).( z D -.;X0XdX=X3.<X<.N.L.A.n.5.&.&.3.=X*Xj.*X-X].&X].:X].{.Q.j.i.p (.NX).).;XQ.yXfXu.[.3X].p.i.~.;X*.d.>X>Xk.s.~.0X~.;X>X9X9X0XpXgX8XXX}.8X}.'.V.V.A.f.<.4.M.Z.N.g.*X*X*X2XyXyX:X{.DXuXvX7XZXbX) ) ",
"hX].].3.=.2.,.S.4.4.4.u.u.j.].].,X0X0X0X0X,X;X].hX;X8X8X!.).8.4 B i.uX0X:XfX6XN.<. .X.A.S.| #.V.*X].f.=.=.f.j.j.0X0X0X|.8Xi.tXq {.KXgXh.0XuXj.-.].:X:X}.].].{.>Xh.k.;X,X;Xk.k.+X0X9X9X9XeXaXaXmX_.cXxXvX8X|.f.u.v.4.v.B.S.7.N.2X3.Z.*XZ.Z.&X;X].rXvXxXrXbXZXE.I ",
"uX].:X3.=.u.5.A.v.4.u.f.Z.:X0XyX;X;X,X0X0X0X7X;XrX).9XrX).7X8.1 E {.hX0X*X3X<Xf.6.1.<.<.,.,.u.V.f.f.f.3.f.*X:X:X].].0X:XhX].tXi {.j.h.>XyXi.;.:X{.;X:X].Q.j.j.~.~.~.;X,X;Xk.~.9X>X>X9XeXrXaXrXeXzXmXmXbX8X'.2.| 4.5.1.v.v.7.f.J.X.7.Z.Z.&XyXgXgX9XrXrXrXxXbXI.I ",
";Xj.:Xy.=.u.5.A.M.M.M.f.j.].>X0X].&X,X0XdXrX9X8X;X~.rXgX7X7X8.$ @.{.uX{.j.&X*Xf.M.B.M.,.,.M.V.3.f.g.N.j.].*X;Xj.].;X:X:XuX{.{.p {.>XgX;Xi.Q.{.h.>X:X>X{.~.j.j.j.;X;X>X,X;X~.&X0X~.OX;X0XdXgX0X7XZXmXbXxXuX}.4.| S.v.c.S.B.N.Z.J.d.Z.=X=X=X,XyX0X7XrXrXrXxXbXI.A ",
"9.9.{.3.#.4.,.M.B.A.A.C.].~.~.~.].&X,X0XdX0X0X0X;X~.rXuX{.wX8.$ $./.7Xj.y.j.Z.g.f.N.V.f.V.A.u.#.f.g.g.f.l.].].j.hXyX:X].8X].9.l {.0XCX].@.:XBXq.yXyX0X>X;X].~.~.0X;X;X;X~.~.].0X].l.].*X3XfXdX0XeXrXeX0XhX6XA.5.D.S.b.N.A.*X*XZ.*X*X-X-X>X,X>X8XwXrXrXrXZXZXE.I ",
"E ;.>Xp.=.4.| 4.A.<X2X3XyX>X{.~.;X>X0XrXrX9X7X;X7X{.rXwX/.qXt.> e.).;Xj.y.f.Z.N.Z.f.u.C.[.f.2.2.y.d.d.d.~.,X0X>XuX8X{.{.8X{.F l ~.F +.].h.h.0X>X:X:X>X0X>X>X{.].0X;X~.~.~.j.l.:X*XN.f.N.<X6X6XfX0XgXdX,XfXfXJ.1.B.S.v.v.N.A.Z.j.Z.Z.].:X,XyXyXuX9XgXNXNXDXDX^.P ",
"W h.hX].2.f.,.M.S.A.*X3XuX0X;X).;X>X0XrXrX9X>X;X7X;XrX.XW.qXt.1 Y.XXwX].h.d.j.f.2XV.4.V.V.y.u.'.].&X].Z.&X,X0X;XQ.Q.Q.8XuXuXB c i.*.*.y.i.].:XQ.{.{.{.:X>X>X;X].8X~.~.~.~.j.j.].4XA.v.v.D.4X4X4X5XjXjX3X1X1XN.| K.J.A.N.Z.*X*XZ.:X].Z.:X,X>X>X8X9XNXNXNXFXFX(.Y ",
"t.;XJX].;.f.u.[.V.V.C.].;X;X;X;X;X;X0XrXrXrX9X8X7X7XrX7XW.rXY.1 e./.7X{.h.d.d.f.*X*X].f.u.j.'.].3XyXyX>X;X>X~.i.Q.h.i.;XuXDXB E i.hXyX;.p.yX:Xy.;X{.;X:X0X0X;X~.7X~.~.~.~.j.j.Z.4XA.c.c.F.D.F.b.B.5X5XJ.J.J.B.o.J.3X4X*X[.:X:X*X3X].Z.&X:X].~.{.7XrXNXNXFXDX(.P ",
"~.eXHXj.+.p.f.<X3X2X:X].{.;X7X7X~.{.>X0XuXuXrX0X)..XvX7X!.xXI.> R 8.!./.h.d.d.f.3.2XfXC.j.:X:Xp.j.].>X>X0X0X].i.uX{.9.W.{.BXD W.Q.0X].].uX].j.BX0X0X0XyXuXyX>X{.7X).~.].].j.V.V.4XD.b.c.F.F.O... .7.J.B.K.1X1XB.B.2X3X].j.].}.|.j.y.y.].>X>X0XuX7XrXNXNXDXDX(.S ",
"8.NXNXh.-.=.u.*XC.V.f.j.~.~.).).h.).9XrX9X7X7X7X.X7XNXZXqX/.) f f P ).).7X,Xy.=X&Xf.j.:X:X'.'.:X0Xl.k.;X;X~.~.;X).i././.rX7XD S i.:X].h.~.~.h.h.{.{.>XgXhXyX;X~.>X).;XgXyXV.V.4XM.S.D.F.F.O.O.O.o.1.6.N.K.K.Z.g.g.Z.:XyX:X'.|.:Xj.~.].:XuXuXuXuX8X9XwXeXDXHXW.k ",
"^.NXgXh.q.y.u.C.u.f.j.j.{.7XeX9XQ.~.{.0XrXrXeXqXrX7X7X7X.X/.A . D w.7X(.).;X>.&XZ.l.&X3XtX}.|.].~.~.;XrXrX>X{.;XQ.t.).).eX).D S ~.uX;Xh.~.].Q.].].].;X0XyXyXuXuX{.Q.~.0X:XV.V.<X4.c.b.c.c.O.O.o...o.o.N.1X6XfXyXp.j.].:X{.j.'.:Xj.j.].{.>X8X8X8X7XwX{.~.9XaXW.D ",
"#XNX7Xt.i.j.y.j.].*X].h.Q.;X#XW.NXrXrXgXBXNXrX7XNXrXqX.X.XcX( = A w.qX!.(.;X>.l.d.l.].Z.].{.{.Q.~.9XgX0X9X7X7X;X+X).rXqXqXW.k B 8XuX{.i.~.].~.>Xj.].:X0X0X0X0X0X8XQ.Q.:XtX].V.[.n.M.M.c.5.o.o.o.c.b.b.N.A.].Z.j.~.~.:XuX0X{.}.uX|.{.8XuXuXuXuXuX9X0X).k.~.9X!.` ",
").rX7Xh.~.~.j.V.:XyX:Xh.W.+X).t.7X;X).{.7X{./.W._..X.XY.e.^.( 9 g Q _.W.;XrXd.~.j.&X].d.h.}.8X{.~.aXgX+X!.+X9X7XqX7XZXrXrXW.B P 0XyX].h.].].~.:Xh.{.yX0X>X;X].j.uX].Q.{.:X].V.V.V.C.M.4.5.5.5.5...o.5.M.C.}.{.{.;X;X8X0X:X|.'.:X{.{.0XuXuXgXgXgXrX7X~.h.).7Xk.W ",
"(.rXqX).8X>X}.yX:XyX>X~.;XgXnXqX7X7XeXeX7X7XqXrX.X.XXX`.^._.Q = z ) ^.] a.7Xh.OXl.,X0X].~.;X{.9.q.;XaX;X).7XrX7X).).NXrXxX#X) W.0XuX].Q.>X{.j.{.].>X0X{.].;X;X].yX:X].|.}.|.j.j.j.V.V.u.u.V.V.u.M.M.V.[.}.8X8X7XqX7X.X7X].i.p.j.Q.|.{.8XuXuXgXgXrX7X~.+X0X0Xa.K ",
"#XeX#X(.7X:X;XyX:X>X{.;X7XeXeXqXNXBXBXuX7X).7XwXI.( %.^.cXcXU   Q w.I.A S q.W s.h.~.;X;XQ.i.@.Z E a.7X0XrX0X7X).7X7XcX_.7X_.( (.uXuX].].0X;Xj.].0X0XQ.;.i.:XyXuXiXyX:X:X:X:X:X:X'.}.|.j.].tX:XV.m.m.C.[.tXuXbXxXZXxXrXuXrX:X}.:X:X8XuXBXCXDXDXDXgXrXrXgXVXaX~.0.",
"$X).^ R 8.9.-.p.j.-.@.q.t.] ^ r.t.t.8.^ R R R Q z f x P U I f   [ ^.(.P R a.-.s.k.q.9.9.-.W E W q.q.W.@X@XR.t.t.qX(.(.r.E.^.( ).uX>Xi.i.].j.i.~.{.].q.W ;.{.>X~.V.].].'.'.|.}.:XQ.}.].i.i.Q.i.E d d n #.T.XXZXAXXX`.).7XwX:X:XuX{.{.8XtXuXuXrXrX>X7X0X9XOX~.!.OX",
"#Xr.l t k N c N N i i V S k m Q D B k B P ^ $.( Q I Q Q f 9 y g w.$XZX(.#XHX>X0X,Xq.K K E W W.uX0Xa.` 8.` F Y ] r.~ ~ Y U._.E.ZX0X].*.+.i.q.*.j.i.i.;.W ;.Q.y.G G  .+.#.+.#.9.i.9.i.8.F V V l q n n d n b b b z I A A R @.@.;.p.E E E E E E E R -.q.t.-.K H -.+X"
};
